%
(Header)
(Generated by gcodetools from Inkscape.)
(Using default header. To add your own header create file "header" in the output dir.)
M3
(Header end.)
G21 (All units in mm)

(Start cutting path id: path10)
(Change tool to Default tool)

G00 Z5.000000
G00 X72.966899 Y3.700400

G01 Z-0.125000 F100.0(Penetrate)
G02 X73.055507 Y3.857077 Z-0.125000 I0.090432 J0.052251 F400.000000
G02 X88.807231 Y3.977090 Z-0.125000 I13.968361 J-799.578296
G02 X104.614180 Y3.727888 Z-0.125000 I-1.314102 J-584.797606
G02 X104.828120 Y3.507590 Z-0.125000 I-0.006452 J-0.220298
G02 X104.577557 Y3.254407 Z-0.125000 I-0.253197 J0.000000
G02 X89.008509 Y3.220522 Z-0.125000 I-9.843623 J946.095517
G02 X73.403611 Y3.441841 Z-0.125000 I5.807902 J959.758585
G02 X72.966899 Y3.700390 Z-0.125000 I0.011551 J0.517608
G01 X72.966899 Y3.700400 Z-0.125000
G00 Z5.000000

(End cutting path id: path10)


(Start cutting path id: path10)
(Change tool to Default tool)

G00 Z5.000000
G00 X72.168004 Y5.392280

G01 Z-0.125000 F100.0(Penetrate)
G02 X71.944242 Y6.263957 Z-0.125000 I2.804886 J1.184581 F400.000000
G02 X72.064230 Y6.396980 Z-0.125000 I0.119988 J0.012397
G02 X72.968640 Y5.748053 Z-0.125000 I0.000000 J-0.954701
G02 X72.703168 Y4.507110 Z-0.125000 I-1.175442 J-0.397408
G02 X72.614928 Y4.516117 Z-0.125000 I-0.040729 J0.037727
G02 X72.168021 Y5.392280 Z-0.125000 I5.846972 J3.534441
G01 X72.168004 Y5.392280 Z-0.125000
G00 Z5.000000

(End cutting path id: path10)


(Start cutting path id: path10)
(Change tool to Default tool)

G00 Z5.000000
G00 X67.450706 Y17.630270

G01 Z-0.125000 F100.0(Penetrate)
G02 X67.712662 Y17.976100 Z-0.125000 I1.475494 J-0.845515 F400.000000
G02 X67.844564 Y18.031450 Z-0.125000 I0.131902 J-0.129490
G02 X67.942667 Y17.965570 Z-0.125000 I0.000000 J-0.105983
G02 X68.008553 Y17.630270 Z-0.125000 I-0.820241 J-0.335300
G02 X67.892139 Y17.345514 Z-0.125000 I-0.406473 J-0.000000
G02 X67.614694 Y17.229090 Z-0.125000 I-0.277445 J0.272373
G02 X67.432243 Y17.351615 Z-0.125000 I0.000000 J0.197105
G02 X67.450706 Y17.630270 Z-0.125000 I0.294593 J0.120421
G01 X67.450706 Y17.630270 Z-0.125000
G00 Z5.000000

(End cutting path id: path10)


(Start cutting path id: path10)
(Change tool to Default tool)

G00 Z5.000000
G00 X66.706877 Y19.636240

G01 Z-0.125000 F100.0(Penetrate)
G02 X66.968833 Y19.982069 Z-0.125000 I1.475520 J-0.845537 F400.000000
G02 X67.100736 Y20.037420 Z-0.125000 I0.131903 J-0.129491
G02 X67.198839 Y19.971540 Z-0.125000 I0.000000 J-0.105983
G02 X67.264725 Y19.636240 Z-0.125000 I-0.820241 J-0.335300
G02 X67.148311 Y19.351483 Z-0.125000 I-0.406473 J0.000000
G02 X66.870866 Y19.235060 Z-0.125000 I-0.277445 J0.272373
G02 X66.688415 Y19.357585 Z-0.125000 I0.000000 J0.197106
G02 X66.706877 Y19.636240 Z-0.125000 I0.294593 J0.120421
G01 X66.706877 Y19.636240 Z-0.125000
G00 Z5.000000

(End cutting path id: path10)


(Start cutting path id: path10)
(Change tool to Default tool)

G00 Z5.000000
G00 X64.123584 Y26.745580

G01 Z-0.125000 F100.0(Penetrate)
G02 X64.067561 Y27.122844 Z-0.125000 I0.930361 J0.330949 F400.000000
G01 X64.142614 Y27.150280 Z-0.125000
G03 X64.416839 Y27.069836 Z-0.125000 I0.204524 J0.189578
G03 X64.966988 Y27.363120 Z-0.125000 I-0.331618 J1.284690
G02 X65.114450 Y27.319991 Z-0.125000 I0.060230 J-0.067726
G02 X65.081101 Y26.958430 Z-0.125000 I-0.487205 J-0.137380
G02 X64.526198 Y26.522969 Z-0.125000 I-0.732098 J0.361619
G02 X64.123641 Y26.745580 Z-0.125000 I-0.075363 J0.339005
G01 X64.123584 Y26.745580 Z-0.125000
G00 Z5.000000

(End cutting path id: path10)


(Start cutting path id: path10)
(Change tool to Default tool)

G00 Z5.000000
G00 X61.616272 Y26.329780

G01 Z-0.125000 F100.0(Penetrate)
G02 X62.077845 Y26.414498 Z-0.125000 I0.415034 J-0.961483 F400.000000
G02 X62.329106 Y26.298080 Z-0.125000 I-0.016207 J-0.364331
G02 X62.302523 Y26.172077 Z-0.125000 I-0.057835 J-0.053604
G02 X61.840968 Y26.087360 Z-0.125000 I-0.415020 J0.961427
G02 X61.589694 Y26.203740 Z-0.125000 I0.016052 J0.364107
G02 X61.616289 Y26.329740 Z-0.125000 I0.057839 J0.053599
G01 X61.616272 Y26.329780 Z-0.125000
G00 Z5.000000

(End cutting path id: path10)


(Start cutting path id: path10)
(Change tool to Default tool)

G00 Z5.000000
G00 X57.723282 Y26.273580

G01 Z-0.125000 F100.0(Penetrate)
G02 X57.606724 Y26.871323 Z-0.125000 I1.930301 J0.686637 F400.000000
G02 X57.687812 Y27.091890 Z-0.125000 I0.304550 J0.013227
G02 X57.817315 Y27.079325 Z-0.125000 I0.059967 J-0.055588
G02 X58.070856 Y26.472790 Z-0.125000 I-1.775097 J-1.098279
G02 X57.949220 Y26.190012 Z-0.125000 I-0.249115 J-0.060394
G02 X57.723369 Y26.273570 Z-0.125000 I-0.078025 J0.136113
G01 X57.723282 Y26.273580 Z-0.125000
G00 Z5.000000

(End cutting path id: path10)


(Start cutting path id: path10)
(Change tool to Default tool)

G00 Z5.000000
G00 X57.470970 Y23.915940

G01 Z-0.125000 F100.0(Penetrate)
G02 X57.291335 Y24.210169 Z-0.125000 I0.638207 J0.591595 F400.000000
G02 X57.223019 Y24.597980 Z-0.125000 I1.066594 J0.387811
G02 X57.344166 Y24.703685 Z-0.125000 I0.106689 J0.000000
G02 X57.663115 Y24.537780 Z-0.125000 I-0.072288 J-0.528512
G02 X57.952958 Y24.063021 Z-0.125000 I-1.029442 J-0.954335
G02 X57.911067 Y23.855740 Z-0.125000 I-0.190721 J-0.069329
G02 X57.718919 Y23.786976 Z-0.125000 I-0.162160 J0.150282
G02 X57.470966 Y23.915940 Z-0.125000 I0.056273 J0.411040
G01 X57.470970 Y23.915940 Z-0.125000
G00 Z5.000000

(End cutting path id: path10)


(Start cutting path id: path10)
(Change tool to Default tool)

G00 Z5.000000
G00 X57.099056 Y21.909930

G01 Z-0.125000 F100.0(Penetrate)
G02 X56.919417 Y22.204167 Z-0.125000 I0.638203 J0.591595 F400.000000
G02 X56.851104 Y22.591970 Z-0.125000 I1.066599 J0.387803
G02 X56.972248 Y22.697674 Z-0.125000 I0.106688 J0.000000
G02 X57.291201 Y22.531770 Z-0.125000 I-0.072278 J-0.528507
G02 X57.581044 Y22.057012 Z-0.125000 I-1.029452 J-0.954340
G02 X57.539152 Y21.849730 Z-0.125000 I-0.190720 J-0.069330
G02 X57.347005 Y21.780966 Z-0.125000 I-0.162159 J0.150280
G02 X57.099051 Y21.909930 Z-0.125000 I0.056274 J0.411044
G01 X57.099056 Y21.909930 Z-0.125000
G00 Z5.000000

(End cutting path id: path10)


(Start cutting path id: path10)
(Change tool to Default tool)

G00 Z5.000000
G00 X56.689088 Y20.321030

G01 Z-0.125000 F100.0(Penetrate)
G02 X56.735513 Y20.545328 Z-0.125000 I0.208856 J0.073725 F400.000000
G02 X56.897286 Y20.545630 Z-0.125000 I0.081027 J-0.075112
G02 X57.197633 Y20.050523 Z-0.125000 I-1.034455 J-0.966186
G02 X57.151207 Y19.826230 Z-0.125000 I-0.208875 J-0.073716
G02 X56.989424 Y19.825929 Z-0.125000 I-0.081032 J0.075109
G02 X56.689075 Y20.321050 Z-0.125000 I1.034888 J0.966440
G01 X56.689088 Y20.321030 Z-0.125000
G00 Z5.000000

(End cutting path id: path10)


(Start cutting path id: path10)
(Change tool to Default tool)

G00 Z5.000000
G00 X56.355249 Y18.298910

G01 Z-0.125000 F100.0(Penetrate)
G02 X56.175613 Y18.593131 Z-0.125000 I0.638113 J0.591547 F400.000000
G02 X56.107297 Y18.980950 Z-0.125000 I1.066636 J0.387819
G02 X56.228431 Y19.086644 Z-0.125000 I0.106678 J0.000000
G02 X56.547394 Y18.920750 Z-0.125000 I-0.072293 J-0.528578
G02 X56.837239 Y18.445989 Z-0.125000 I-1.029452 J-0.954345
G02 X56.795346 Y18.238720 Z-0.125000 I-0.190703 J-0.069323
G02 X56.603197 Y18.169956 Z-0.125000 I-0.162160 J0.150283
G02 X56.355249 Y18.298920 Z-0.125000 I0.056272 J0.411026
G01 X56.355249 Y18.298910 Z-0.125000
G00 Z5.000000

(End cutting path id: path10)


(Start cutting path id: path10)
(Change tool to Default tool)

G00 Z5.000000
G00 X55.735392 Y16.851780

G01 Z-0.125000 F100.0(Penetrate)
G02 X55.858478 Y17.046646 Z-0.125000 I0.215796 J0.000000 F400.000000
G02 X56.107319 Y17.028710 Z-0.125000 I0.108612 J-0.228289
G02 X56.423894 Y16.751122 Z-0.125000 I-0.887927 J-1.331949
G02 X56.479246 Y16.603850 Z-0.125000 I-0.168244 J-0.147272
G02 X56.410759 Y16.495424 Z-0.125000 I-0.120072 J-0.000000
G02 X56.107319 Y16.426920 Z-0.125000 I-0.303440 J0.637799
G02 X55.851450 Y16.542993 Z-0.125000 I-0.000000 J0.340052
G02 X55.735392 Y16.851780 Z-0.125000 I0.352752 J0.308787
G01 X55.735392 Y16.851780 Z-0.125000
G00 Z5.000000

(End cutting path id: path10)


(Start cutting path id: path10)
(Change tool to Default tool)

G00 Z5.000000
G00 X55.611395 Y14.688400

G01 Z-0.125000 F100.0(Penetrate)
G02 X55.431756 Y14.982637 Z-0.125000 I0.638203 J0.591595 F400.000000
G02 X55.363443 Y15.370440 Z-0.125000 I1.066599 J0.387803
G02 X55.484590 Y15.476145 Z-0.125000 I0.106689 J0.000000
G02 X55.803544 Y15.310240 Z-0.125000 I-0.072289 J-0.528523
G02 X56.093387 Y14.835482 Z-0.125000 I-1.029452 J-0.954340
G02 X56.051495 Y14.628200 Z-0.125000 I-0.190720 J-0.069330
G02 X55.859360 Y14.559447 Z-0.125000 I-0.162165 J0.150339
G02 X55.611395 Y14.688400 Z-0.125000 I0.056220 J0.410991
G01 X55.611395 Y14.688400 Z-0.125000
G00 Z5.000000

(End cutting path id: path10)


(Start cutting path id: path10)
(Change tool to Default tool)

G00 Z5.000000
G00 X55.239480 Y13.083590

G01 Z-0.125000 F100.0(Penetrate)
G02 X55.059845 Y13.377819 Z-0.125000 I0.638207 J0.591595 F400.000000
G02 X54.991529 Y13.765630 Z-0.125000 I1.066594 J0.387811
G02 X55.112673 Y13.871334 Z-0.125000 I0.106688 J0.000000
G02 X55.431630 Y13.705430 Z-0.125000 I-0.072279 J-0.528517
G02 X55.721473 Y13.230672 Z-0.125000 I-1.029452 J-0.954340
G02 X55.679581 Y13.023390 Z-0.125000 I-0.190720 J-0.069330
G02 X55.487430 Y12.954624 Z-0.125000 I-0.162158 J0.150267
G02 X55.239480 Y13.083590 Z-0.125000 I0.056287 J0.411055
G01 X55.239480 Y13.083590 Z-0.125000
G00 Z5.000000

(End cutting path id: path10)


(Start cutting path id: path10)
(Change tool to Default tool)

G00 Z5.000000
G00 X54.867566 Y11.478800

G01 Z-0.125000 F100.0(Penetrate)
G02 X54.687928 Y11.773037 Z-0.125000 I0.638209 J0.591596 F400.000000
G02 X54.619615 Y12.160840 Z-0.125000 I1.066600 J0.387803
G02 X54.740761 Y12.266546 Z-0.125000 I0.106690 J0.000000
G02 X55.059715 Y12.100640 Z-0.125000 I-0.072277 J-0.528501
G02 X55.349558 Y11.625882 Z-0.125000 I-1.029447 J-0.954340
G02 X55.307667 Y11.418600 Z-0.125000 I-0.190720 J-0.069330
G02 X55.115496 Y11.349826 Z-0.125000 I-0.162182 J0.150303
G02 X54.867566 Y11.478800 Z-0.125000 I0.056250 J0.410918
G01 X54.867566 Y11.478800 Z-0.125000
G00 Z5.000000

(End cutting path id: path10)


(Start cutting path id: path10)
(Change tool to Default tool)

G00 Z5.000000
G00 X53.689835 Y7.199360

G01 Z-0.125000 F100.0(Penetrate)
G02 X53.671384 Y7.478044 Z-0.125000 I0.276134 J0.158236 F400.000000
G02 X53.853868 Y7.600580 Z-0.125000 I0.182484 J-0.074613
G02 X54.131298 Y7.484159 Z-0.125000 I-0.000000 J-0.388767
G02 X54.247726 Y7.199360 Z-0.125000 I-0.290115 J-0.284799
G02 X54.181838 Y6.864049 Z-0.125000 I-0.886158 J-0.000000
G02 X54.083737 Y6.798170 Z-0.125000 I-0.098101 J0.040102
G02 X53.951822 Y6.853519 Z-0.125000 I-0.000000 J0.184874
G02 X53.689879 Y7.199360 Z-0.125000 I1.212241 J1.190280
G01 X53.689835 Y7.199360 Z-0.125000
G00 Z5.000000

(End cutting path id: path10)


(Start cutting path id: path10)
(Change tool to Default tool)

G00 Z5.000000
G00 X53.379909 Y5.460810

G01 Z-0.125000 F100.0(Penetrate)
G02 X53.200276 Y5.755036 Z-0.125000 I0.638199 J0.591587 F400.000000
G02 X53.131958 Y6.142860 Z-0.125000 I1.066634 J0.387824
G02 X53.253108 Y6.248561 Z-0.125000 I0.106686 J0.000000
G02 X53.572054 Y6.082660 Z-0.125000 I-0.072333 J-0.528598
G02 X53.861901 Y5.607892 Z-0.125000 I-1.029444 J-0.954337
G02 X53.820006 Y5.400620 Z-0.125000 I-0.190708 J-0.069323
G02 X53.627857 Y5.331856 Z-0.125000 I-0.162160 J0.150283
G02 X53.379909 Y5.460820 Z-0.125000 I0.056272 J0.411026
G01 X53.379909 Y5.460810 Z-0.125000
G00 Z5.000000

(End cutting path id: path10)


(Start cutting path id: path10)
(Change tool to Default tool)

G00 Z5.000000
G00 X58.053141 Y30.067690

G01 Z-0.125000 F100.0(Penetrate)
G02 X58.136966 Y30.769777 Z-0.125000 I2.982109 J0.000000 F400.000000
G01 X58.223229 Y30.769780 Z-0.125000
G02 X58.307082 Y30.067703 Z-0.125000 I-2.897223 J-0.702077
G02 X58.223229 Y29.365590 Z-0.125000 I-2.981371 J0.000000
G01 X58.136967 Y29.365594 Z-0.125000
G02 X58.053141 Y30.067690 Z-0.125000 I2.898347 J0.702096
G01 X58.053141 Y30.067690 Z-0.125000
G00 Z5.000000

(End cutting path id: path10)


(Start cutting path id: path10)
(Change tool to Default tool)

G00 Z5.000000
G00 X57.594941 Y34.800310

G01 Z-0.125000 F100.0(Penetrate)
G03 X55.959741 Y41.149471 Z-0.125000 I-13.143874 J-0.000000 F400.000000
G03 X53.366923 Y42.464150 Z-0.125000 I-2.262638 J-1.248263
G02 X52.792963 Y42.763555 Z-0.125000 I-0.072310 J0.561225
G02 X52.906785 Y43.345780 Z-0.125000 I0.421289 J0.219879
G02 X53.929206 Y43.985497 Z-0.125000 I2.708538 J-3.191998
G02 X54.371641 Y43.990380 Z-0.125000 I0.226936 J-0.515713
G02 X55.148771 Y43.261405 Z-0.125000 I-0.576984 J-1.393819
G02 X56.801518 Y39.397438 Z-0.125000 I-36.135013 J-17.741603
G02 X58.028812 Y35.391732 Z-0.125000 I-35.995095 J-13.219275
G02 X57.822809 Y34.593100 Z-0.125000 I-0.842547 J-0.208554
G02 X57.689147 Y34.587371 Z-0.125000 I-0.069724 J0.064627
G02 X57.594928 Y34.800310 Z-0.125000 I0.193517 J0.212939
G01 X57.594941 Y34.800310 Z-0.125000
G00 Z5.000000

(End cutting path id: path10)


(Start cutting path id: path10)
(Change tool to Default tool)

G00 Z5.000000
G00 X54.335941 Y45.245890

G01 Z-0.125000 F100.0(Penetrate)
G02 X54.181859 Y45.648235 Z-0.125000 I0.214110 J0.312672 F400.000000
G02 X54.921011 Y47.648030 Z-0.125000 I9.015323 J-2.195690
G01 X55.975721 Y49.728570 Z-0.125000
G01 X56.797456 Y48.785000 Z-0.125000
G02 X57.303392 Y47.781084 Z-0.125000 I-1.715477 J-1.493979
G02 X57.241823 Y46.770720 Z-0.125000 I-1.800978 J-0.397311
G02 X56.696377 Y45.859832 Z-0.125000 I-2.511516 J0.885161
G02 X55.903784 Y45.306010 Z-0.125000 I-1.630694 J1.489676
G02 X54.890013 Y45.085942 Z-0.125000 I-1.127600 J2.749363
G02 X54.335941 Y45.245910 Z-0.125000 I-0.035178 J0.917692
G01 X54.335941 Y45.245890 Z-0.125000
G00 Z5.000000

(End cutting path id: path10)


(Start cutting path id: path10)
(Change tool to Default tool)

G00 Z5.000000
G00 X53.131966 Y46.267040

G01 Z-0.125000 F100.0(Penetrate)
G02 X53.182226 Y46.395190 Z-0.125000 I0.188504 J0.000000 F400.000000
G02 X53.782817 Y46.969140 Z-0.125000 I5.033758 J-4.666198
G02 X53.914691 Y46.961146 Z-0.125000 I0.061754 J-0.072996
G02 X53.923231 Y46.817670 Z-0.125000 I-0.082989 J-0.076931
G02 X53.281403 Y46.188978 Z-0.125000 I-2.184391 J1.588068
G02 X53.131962 Y46.267050 Z-0.125000 I-0.054327 J0.078072
G01 X53.131966 Y46.267040 Z-0.125000
G00 Z5.000000

(End cutting path id: path10)


(Start cutting path id: path10)
(Change tool to Default tool)

G00 Z5.000000
G00 X54.519660 Y48.554910

G01 Z-0.125000 F100.0(Penetrate)
G02 X54.765239 Y49.012342 Z-0.125000 I1.000590 J-0.242543 F400.000000
G02 X54.912610 Y48.978770 Z-0.125000 I0.063994 J-0.059329
G02 X54.927840 Y48.486064 Z-0.125000 I-0.886473 J-0.273991
G02 X54.682264 Y48.028630 Z-0.125000 I-1.001149 J0.242837
G02 X54.534895 Y48.062191 Z-0.125000 I-0.063996 J0.059322
G02 X54.519660 Y48.554880 Z-0.125000 I0.886788 J0.274002
G01 X54.519660 Y48.554910 Z-0.125000
G00 Z5.000000

(End cutting path id: path10)


(Start cutting path id: path10)
(Change tool to Default tool)

G00 Z5.000000
G00 X57.052238 Y49.383830

G01 Z-0.125000 F100.0(Penetrate)
G01 X56.037307 Y50.245029 Z-0.125000 F400.000000
G01 X57.466977 Y50.766404 Z-0.125000
G03 X58.756549 Y51.488723 Z-0.125000 I-1.580771 J4.334493
G03 X60.489637 Y53.168322 Z-0.125000 I-7.651964 J9.629592
G02 X62.087670 Y54.823601 Z-0.125000 I13.513945 J-11.447553
G02 X62.299847 Y54.814549 Z-0.125000 I0.101519 J-0.111631
G02 X62.437739 Y54.544253 Z-0.125000 I-0.408475 J-0.378705
G02 X62.706899 Y52.763263 Z-0.125000 I-19.261310 J-3.821786
G02 X62.522020 Y51.078306 Z-0.125000 I-3.980246 J-0.415896
G02 X61.694165 Y49.734450 Z-0.125000 I-3.290932 J1.100392
G02 X59.330297 Y48.643715 Z-0.125000 I-2.644483 J2.624306
G02 X57.052225 Y49.383810 Z-0.125000 I-0.237549 J3.144898
G01 X57.052238 Y49.383830 Z-0.125000
G00 Z5.000000

(End cutting path id: path10)


(Start cutting path id: path10)
(Change tool to Default tool)

G00 Z5.000000
G00 X56.014303 Y51.596879

G01 Z-0.125000 F100.0(Penetrate)
G02 X56.479200 Y51.693676 Z-0.125000 I0.464897 J-1.068007 F400.000000
G02 X56.944090 Y51.596879 Z-0.125000 I0.000000 J-1.164772
G02 X56.944088 Y51.491317 Z-0.125000 I-0.022975 J-0.052781
G02 X56.479199 Y51.394531 Z-0.125000 I-0.464889 J1.068102
G02 X56.014305 Y51.491318 Z-0.125000 I-0.000000 J1.164905
G02 X56.014303 Y51.596879 Z-0.125000 I0.022973 J0.052781
G01 X56.014303 Y51.596879 Z-0.125000
G00 Z5.000000

(End cutting path id: path10)


(Start cutting path id: path10)
(Change tool to Default tool)

G00 Z5.000000
G00 X58.709538 Y54.039261

G01 Z-0.125000 F100.0(Penetrate)
G02 X59.620971 Y55.293004 Z-0.125000 I19.820006 J-13.450374 F400.000000
G02 X59.723500 Y55.343155 Z-0.125000 I0.102529 J-0.079731
G02 X59.911015 Y55.008316 Z-0.125000 I0.000000 J-0.219925
G02 X58.473945 Y53.304170 Z-0.125000 I-6.326626 J3.877109
G02 X58.381184 Y53.365042 Z-0.125000 I-0.037937 J0.043303
G02 X58.709525 Y54.039261 Z-0.125000 I2.504484 J-0.802610
G01 X58.709538 Y54.039261 Z-0.125000
G00 Z5.000000

(End cutting path id: path10)


(Start cutting path id: path10)
(Change tool to Default tool)

G00 Z5.000000
G00 X59.826431 Y53.221175

G01 Z-0.125000 F100.0(Penetrate)
G02 X59.938217 Y53.588259 Z-0.125000 I0.658611 J-0.000000 F400.000000
G02 X60.477282 Y54.190738 Z-0.125000 I2.427462 J-1.629558
G02 X60.604839 Y54.160019 Z-0.125000 I0.052525 J-0.062087
G02 X60.582528 Y53.938986 Z-0.125000 I-0.215114 J-0.089929
G03 X60.039337 Y53.134998 Z-0.125000 I135.239524 J-91.956147
G03 X59.931677 Y52.969423 Z-0.125000 I5.584827 J-3.749144
G01 X59.876022 Y52.974044 Z-0.125000
G02 X59.826431 Y53.221175 Z-0.125000 I0.590973 J0.247131
G01 X59.826431 Y53.221175 Z-0.125000
G00 Z5.000000

(End cutting path id: path10)


(Start cutting path id: path10)
(Change tool to Default tool)

G00 Z5.000000
G00 X60.971537 Y55.577217

G01 Z-0.125000 F100.0(Penetrate)
G02 X61.081413 Y55.842423 Z-0.125000 I0.412822 J-0.015669 F400.000000
G02 X61.196216 Y55.819601 Z-0.125000 I0.050384 J-0.046713
G02 X61.276741 Y55.315853 Z-0.125000 I-1.223315 J-0.453858
G02 X61.166796 Y55.050637 Z-0.125000 I-0.412977 J0.015802
G02 X61.051999 Y55.073452 Z-0.125000 I-0.050382 J0.046713
G02 X60.971446 Y55.577209 Z-0.125000 I1.223735 J0.454000
G01 X60.971537 Y55.577217 Z-0.125000
G00 Z5.000000

(End cutting path id: path10)


(Start cutting path id: path10)
(Change tool to Default tool)

G00 Z5.000000
G00 X60.198345 Y58.066937

G01 Z-0.125000 F100.0(Penetrate)
G02 X60.370095 Y58.266706 Z-0.125000 I0.202055 J0.000000 F400.000000
G02 X60.756219 Y58.151567 Z-0.125000 I0.070886 J-0.467289
G02 X61.285326 Y57.639265 Z-0.125000 I-6.290960 J-7.026712
G02 X61.314088 Y57.567514 Z-0.125000 I-0.075118 J-0.071751
G01 X61.274972 Y57.522015 Z-0.125000
G02 X60.756219 Y57.482884 Z-0.125000 I-0.518753 J3.418948
G02 X60.365479 Y57.650002 Z-0.125000 I0.000000 J0.540356
G02 X60.198345 Y58.066941 Z-0.125000 I0.436490 J0.416939
G01 X60.198345 Y58.066937 Z-0.125000
G00 Z5.000000

(End cutting path id: path10)


(Start cutting path id: path10)
(Change tool to Default tool)

G00 Z5.000000
G00 X59.454517 Y58.321403

G01 Z-0.125000 F100.0(Penetrate)
G03 X59.228316 Y59.621178 Z-0.125000 I-3.847430 J-0.000000 F400.000000
G03 X58.482506 Y61.029492 Z-0.125000 I-5.283717 J-1.896495
G01 X57.510499 Y62.364169 Z-0.125000
G01 X58.668465 Y61.053947 Z-0.125000
G02 X59.560713 Y59.643132 Z-0.125000 I-3.928857 J-3.472297
G02 X59.826431 Y58.345859 Z-0.125000 I-3.033880 J-1.297273
G02 X59.739594 Y57.034806 Z-0.125000 I-9.940440 J-0.000000
G02 X59.640468 Y56.947996 Z-0.125000 I-0.099126 J0.013189
G02 X59.541235 Y57.034696 Z-0.125000 I0.000000 J0.100139
G02 X59.454504 Y58.321403 Z-0.125000 I9.501188 J1.286707
G01 X59.454517 Y58.321403 Z-0.125000
G00 Z5.000000

(End cutting path id: path10)


(Start cutting path id: path10)
(Change tool to Default tool)

G00 Z5.000000
G00 X61.400400 Y58.151567

G01 Z-0.125000 F100.0(Penetrate)
G02 X61.225736 Y58.807273 Z-0.125000 I1.123307 J0.650338 F400.000000
G02 X61.403900 Y59.005169 Z-0.125000 I0.199907 J-0.000827
G03 X61.871875 Y59.056996 Z-0.125000 I-20.910218 J190.946821
G03 X62.702050 Y59.150651 Z-0.125000 I-57.154630 J510.358293
G03 X63.926420 Y59.686798 Z-0.125000 I-0.255492 J2.249542
G03 X65.493628 Y61.561760 Z-0.125000 I-4.946383 J5.726954
G01 X66.205407 Y62.765356 Z-0.125000
G01 X66.068973 Y61.289005 Z-0.125000
G03 X66.131436 Y60.135101 Z-0.125000 I3.948342 J-0.364910
G03 X66.319693 Y60.054074 Z-0.125000 I0.122249 J0.024822
G01 X66.375758 Y60.003262 Z-0.125000
G02 X66.022212 Y59.452541 Z-0.125000 I-2.638012 J1.304679
G02 X64.094348 Y57.810200 Z-0.125000 I-5.399600 J4.385644
G02 X62.370132 Y57.349178 Z-0.125000 I-1.724216 J2.993761
G02 X61.951803 Y57.499817 Z-0.125000 I0.000000 J0.656176
G02 X61.400422 Y58.151575 Z-0.125000 I1.542479 J1.864032
G01 X61.400400 Y58.151567 Z-0.125000
G00 Z5.000000

(End cutting path id: path10)


(Start cutting path id: path10)
(Change tool to Default tool)

G00 Z5.000000
G00 X60.512892 Y60.063739

G01 Z-0.125000 F100.0(Penetrate)
G02 X59.428742 Y61.789255 Z-0.125000 I8.662747 J6.646191 F400.000000
G02 X59.566696 Y61.937970 Z-0.125000 I0.096576 J0.048756
G02 X60.036120 Y61.591078 Z-0.125000 I-0.462076 J-1.116360
G02 X60.319985 Y61.026088 Z-0.125000 I-1.093251 J-0.903082
G03 X60.434064 Y60.902450 Z-0.125000 I0.169011 J0.041495
G03 X60.518840 Y60.959938 Z-0.125000 I0.020365 J0.061221
G03 X60.413976 Y61.518895 Z-0.125000 I-1.180400 J0.067864
G03 X59.785877 Y62.564733 Z-0.125000 I-4.942293 J-2.256665
G03 X59.304768 Y63.100074 Z-0.125000 I-3.634469 J-2.782425
G01 X59.258224 Y63.066229 Z-0.125000
G02 X59.248803 Y62.721917 Z-0.125000 I-0.340279 J-0.162974
G02 X58.983409 Y62.564733 Z-0.125000 I-0.265394 J0.145458
G02 X57.506482 Y63.220116 Z-0.125000 I-0.000000 J1.991843
G02 X56.851100 Y64.921154 Z-0.125000 I1.879824 J1.701038
G03 X56.723382 Y65.181825 Z-0.125000 I-0.329873 J0.000000
G03 X56.504868 Y65.189649 Z-0.125000 I-0.114692 J-0.147892
G02 X56.205315 Y65.156893 Z-0.125000 I-0.181302 J0.271921
G02 X55.889531 Y65.428562 Z-0.125000 I0.225837 J0.581875
G02 X55.889953 Y65.609860 Z-0.125000 I0.157586 J0.090282
G02 X56.010825 Y65.638023 Z-0.125000 I0.073656 J-0.042655
G03 X56.321285 Y65.618731 Z-0.125000 I0.171849 J0.257797
G03 X56.598334 Y65.931806 Z-0.125000 I-0.250535 J0.500827
G03 X56.519815 Y66.228106 Z-0.125000 I-0.255464 J0.090856
G03 X56.162347 Y66.307309 Z-0.125000 I-0.252453 J-0.293112
G02 X55.102490 Y67.032198 Z-0.125000 I-0.227123 J0.805175
G02 X55.955576 Y68.451818 Z-0.125000 I1.385455 J0.133575
G03 X56.185527 Y68.729297 Z-0.125000 I-0.147444 J0.356210
G03 X56.071550 Y69.007707 Z-0.125000 I-0.263001 J0.054867
G02 X55.975441 Y69.365229 Z-0.125000 I0.155711 J0.233537
G02 X56.932960 Y70.757268 Z-0.125000 I5.244686 J-2.582242
G02 X58.391487 Y71.893061 Z-0.125000 I4.212323 J-3.904868
G02 X59.510267 Y72.165293 Z-0.125000 I1.068356 J-1.955563
G02 X61.778810 Y71.768203 Z-0.125000 I-0.172515 J-7.664116
G02 X61.731583 Y71.419293 Z-0.125000 I-0.057079 J-0.169925
G03 X61.620817 Y71.219270 Z-0.125000 I0.007426 J-0.134793
G03 X62.709793 Y69.646813 Z-0.125000 I8.271703 J4.565109
G02 X64.045699 Y67.815009 Z-0.125000 I-11.206173 J-9.575522
G02 X64.691445 Y66.437228 Z-0.125000 I-5.649123 J-3.487876
G03 X65.418749 Y65.477824 Z-0.125000 I1.786326 J0.598798
G03 X65.814395 Y65.674020 Z-0.125000 I0.142498 J0.209666
G01 X65.907123 Y65.690836 Z-0.125000
G02 X66.192162 Y64.811071 Z-0.125000 I-4.278322 J-1.872213
G02 X66.422448 Y63.276115 Z-0.125000 I-11.630944 J-2.529717
G02 X66.340751 Y63.039111 Z-0.125000 I-0.309358 J-0.025945
G02 X66.237059 Y63.060439 Z-0.125000 I-0.045386 J0.042071
G02 X66.140772 Y63.601163 Z-0.125000 I1.569667 J0.558446
G03 X65.991591 Y63.651968 Z-0.125000 I-0.083544 J-0.000890
G03 X65.428106 Y62.696313 Z-0.125000 I3.252813 J-2.561916
G02 X62.617253 Y59.610076 Z-0.125000 I-5.762941 J2.425577
G02 X60.512848 Y60.063737 Z-0.125000 I-0.785099 J1.465850
G01 X60.512892 Y60.063739 Z-0.125000
G00 Z5.000000

(End cutting path id: path10)


(Start cutting path id: path10)
(Change tool to Default tool)

G00 Z5.000000
G00 X57.641093 Y64.677718

G01 Z-0.125000 F100.0(Penetrate)
G03 X57.479317 Y64.677417 Z-0.125000 I-0.080748 J-0.075412 F400.000000
G03 X57.432895 Y64.453119 Z-0.125000 I0.162433 J-0.150571
G03 X57.733255 Y63.958013 Z-0.125000 I1.335187 J0.471341
G03 X57.895031 Y63.958307 Z-0.125000 I0.080751 J0.075415
G03 X57.941451 Y64.182605 Z-0.125000 I-0.162450 J0.150572
G03 X57.641110 Y64.677710 Z-0.125000 I-1.335127 J-0.471266
G01 X57.641093 Y64.677718 Z-0.125000
G00 Z5.000000

(End cutting path id: path10)


(Start cutting path id: path10)
(Change tool to Default tool)

G00 Z5.000000
G00 X54.247709 Y68.734300

G01 Z-0.125000 F100.0(Penetrate)
G02 X54.756318 Y71.592882 Z-0.125000 I8.287474 J0.000000 F400.000000
G02 X55.983603 Y73.458067 Z-0.125000 I4.599984 J-1.690405
G02 X57.680073 Y74.288856 Z-0.125000 I2.174067 J-2.291952
G02 X59.652684 Y74.019227 Z-0.125000 I0.530561 J-3.469045
G03 X61.009482 Y73.544372 Z-0.125000 I3.407281 J7.559774
G03 X61.311458 Y73.595924 Z-0.125000 I0.093107 J0.364829
G02 X61.571544 Y73.606417 Z-0.125000 I0.138645 J-0.207964
G02 X62.078732 Y73.169411 Z-0.125000 I-0.803457 J-1.445312
G02 X62.300122 Y72.709196 Z-0.125000 I-0.982960 J-0.756220
G02 X62.213868 Y72.619542 Z-0.125000 I-0.071465 J-0.017565
G03 X61.868995 Y72.656305 Z-0.125000 I-0.362686 J-1.766368
G03 X59.932364 Y72.642102 Z-0.125000 I-0.555776 J-56.260098
G03 X58.124712 Y72.274863 Z-0.125000 I0.128420 J-5.264616
G03 X56.689633 Y71.360352 Z-0.125000 I1.648675 J-4.170394
G03 X55.609720 Y70.006376 Z-0.125000 I4.289553 J-4.528938
G03 X55.147645 Y68.752565 Z-0.125000 I3.196456 J-1.890063
G02 X54.658064 Y68.332237 Z-0.125000 I-0.499864 J0.086935
G02 X54.247722 Y68.734345 Z-0.125000 I-0.008151 J0.402108
G01 X54.247709 Y68.734300 Z-0.125000
G00 Z5.000000

(End cutting path id: path10)


(Start cutting path id: path10)
(Change tool to Default tool)

G00 Z5.000000
G00 X63.145516 Y70.488415

G01 Z-0.125000 F100.0(Penetrate)
G01 X62.243876 Y71.591713 Z-0.125000 F400.000000
G01 X63.266641 Y70.619080 Z-0.125000
G02 X64.235067 Y69.516636 Z-0.125000 I-5.641258 J-5.932056
G02 X64.168281 Y69.385121 Z-0.125000 I-0.066786 J-0.048800
G02 X64.067930 Y69.428931 Z-0.125000 I0.000000 J0.136837
G02 X63.145516 Y70.488415 Z-0.125000 I16.515542 J15.310133
G01 X63.145516 Y70.488415 Z-0.125000
G00 Z5.000000

(End cutting path id: path10)


(Start cutting path id: path10)
(Change tool to Default tool)

G00 Z5.000000
G00 X64.785292 Y68.765647

G01 Z-0.125000 F100.0(Penetrate)
G02 X64.912313 Y69.112429 Z-0.125000 I0.536888 J0.000000 F400.000000
G02 X65.101288 Y69.139111 Z-0.125000 I0.109446 J-0.092601
G02 X65.262448 Y68.891939 Z-0.125000 I-0.207784 J-0.311604
G02 X65.203332 Y68.554963 Z-0.125000 I-0.496112 J-0.086640
G02 X64.960060 Y68.481873 Z-0.125000 I-0.160188 J0.091771
G02 X64.785292 Y68.765638 Z-0.125000 I0.143018 J0.283785
G01 X64.785292 Y68.765647 Z-0.125000
G00 Z5.000000

(End cutting path id: path10)


(Start cutting path id: path10)
(Change tool to Default tool)

G00 Z5.000000
G00 X66.473456 Y68.081197

G01 Z-0.125000 F100.0(Penetrate)
G02 X66.481997 Y68.224672 Z-0.125000 I0.091530 J0.066543 F400.000000
G02 X66.613869 Y68.232665 Z-0.125000 I0.070118 J-0.065000
G02 X67.214453 Y67.658724 Z-0.125000 I-4.435751 J-5.242874
G02 X67.264720 Y67.530565 Z-0.125000 I-0.138244 J-0.128159
G02 X67.115275 Y67.452493 Z-0.125000 I-0.095115 J0.000000
G02 X66.473447 Y68.081188 Z-0.125000 I1.542785 J2.216977
G01 X66.473456 Y68.081197 Z-0.125000
G00 Z5.000000

(End cutting path id: path10)


(Start cutting path id: path10)
(Change tool to Default tool)

G00 Z5.000000
G00 X66.892810 Y68.734200

G01 Z-0.125000 F100.0(Penetrate)
G02 X66.943082 Y68.862376 Z-0.125000 I0.188538 J0.000000 F400.000000
G02 X67.543662 Y69.436295 Z-0.125000 I5.033787 J-4.666430
G02 X67.675535 Y69.428302 Z-0.125000 I0.061754 J-0.072995
G02 X67.684075 Y69.284827 Z-0.125000 I-0.082988 J-0.076931
G02 X67.042252 Y68.656137 Z-0.125000 I-2.184425 J1.588095
G02 X66.892810 Y68.734208 Z-0.125000 I-0.054328 J0.078071
G01 X66.892810 Y68.734200 Z-0.125000
G00 Z5.000000

(End cutting path id: path10)


(Start cutting path id: path10)
(Change tool to Default tool)

G00 Z5.000000
G00 X69.088505 Y60.657183

G01 Z-0.125000 F100.0(Penetrate)
G02 X68.221109 Y61.182130 Z-0.125000 I1.443233 J3.363821 F400.000000
G02 X67.716047 Y61.774270 Z-0.125000 I1.361466 J1.672717
G02 X67.721898 Y62.156443 Z-0.125000 I0.321639 J0.186207
G02 X68.026592 Y62.274699 Z-0.125000 I0.230910 J-0.143294
G02 X68.513203 Y61.978042 Z-0.125000 I-0.287372 J-1.018808
G02 X68.542925 Y61.721326 Z-0.125000 I-0.159165 J-0.148506
G03 X68.586411 Y61.585527 Z-0.125000 I0.083819 J-0.048021
G03 X68.849490 Y61.580485 Z-0.125000 I0.137316 J0.298840
G02 X69.301400 Y61.562884 Z-0.125000 I0.206838 J-0.499626
G02 X70.042192 Y60.974094 Z-0.125000 I-1.072945 J-2.110349
G02 X69.942224 Y60.621105 Z-0.125000 I-0.169899 J-0.142534
G02 X69.088483 Y60.657191 Z-0.125000 I-0.379375 J1.141715
G01 X69.088505 Y60.657183 Z-0.125000
G00 Z5.000000

(End cutting path id: path10)


(Start cutting path id: path10)
(Change tool to Default tool)

G00 Z5.000000
G00 X70.346417 Y57.549777

G01 Z-0.125000 F100.0(Penetrate)
G02 X70.427325 Y58.448456 Z-0.125000 I5.177428 J-0.013140 F400.000000
G01 X70.506946 Y58.446954 Z-0.125000
G02 X70.582750 Y57.339659 Z-0.125000 I-7.756969 J-1.087271
G02 X70.501746 Y56.440965 Z-0.125000 I-5.172490 J0.013223
G01 X70.422131 Y56.442470 Z-0.125000
G02 X70.346322 Y57.549777 Z-0.125000 I7.757444 J1.087341
G01 X70.346417 Y57.549777 Z-0.125000
G00 Z5.000000

(End cutting path id: path10)


(Start cutting path id: path10)
(Change tool to Default tool)

G00 Z5.000000
G00 X69.285560 Y55.528117

G01 Z-0.125000 F100.0(Penetrate)
G03 X68.582342 Y56.386801 Z-0.125000 I-3.390432 J-2.059297 F400.000000
G03 X67.933861 Y56.772933 Z-0.125000 I-1.242697 J-1.349415
G02 X67.508350 Y57.229154 Z-0.125000 I0.214538 J0.626641
G02 X67.426291 Y58.679206 Z-0.125000 I3.468979 J0.923658
G02 X67.712723 Y60.307861 Z-0.125000 I30.399992 J-4.506936
G02 X67.788053 Y60.454605 Z-0.125000 I0.299444 J-0.061011
G02 X67.924327 Y60.495340 Z-0.125000 I0.102678 J-0.095186
G02 X68.860032 Y60.189667 Z-0.125000 I-1.609867 J-6.513015
G02 X69.431407 Y59.564296 Z-0.125000 I-0.376299 J-0.917515
G02 X69.632588 Y57.683600 Z-0.125000 I-4.724771 J-1.456525
G03 X69.723428 Y55.687186 Z-0.125000 I7.600479 J-0.654441
G03 X70.102320 Y55.054915 Z-0.125000 I1.021653 J0.182569
G02 X70.400923 Y54.663319 Z-0.125000 I-0.612897 J-0.776995
G02 X70.319689 Y54.540775 Z-0.125000 I-0.081234 J-0.034347
G02 X69.965209 Y54.682818 Z-0.125000 I-0.000000 J0.513339
G02 X69.285547 Y55.528122 Z-0.125000 I2.859114 J2.994745
G01 X69.285560 Y55.528117 Z-0.125000
G00 Z5.000000

(End cutting path id: path10)


(Start cutting path id: path10)
(Change tool to Default tool)

G00 Z5.000000
G00 X69.765198 Y51.426079

G01 Z-0.125000 F100.0(Penetrate)
G03 X69.528457 Y53.015263 Z-0.125000 I-3.204498 J0.334851 F400.000000
G03 X68.386865 Y54.687224 Z-0.125000 I-4.711874 J-1.991490
G02 X67.216367 Y56.040656 Z-0.125000 I7.335584 J7.526947
G02 X67.084568 Y56.398487 Z-0.125000 I0.568438 J0.412559
G02 X67.215963 Y56.496796 Z-0.125000 I0.096813 J0.007566
G02 X68.293555 Y55.881021 Z-0.125000 I-1.431101 J-3.755164
G02 X71.235155 Y51.578743 Z-0.125000 I-5.560680 J-6.958779
G02 X70.190600 Y49.809430 Z-0.125000 I-1.321411 J-0.412869
G02 X69.874166 Y50.006080 Z-0.125000 I-0.054232 J0.265651
G02 X69.765163 Y51.426079 Z-0.125000 I3.831586 J1.008305
G01 X69.765198 Y51.426079 Z-0.125000
G00 Z5.000000

(End cutting path id: path10)


(Start cutting path id: path10)
(Change tool to Default tool)

G00 Z5.000000
G00 X63.362742 Y54.525437

G01 Z-0.125000 F100.0(Penetrate)
G02 X63.599825 Y56.094981 Z-0.125000 I2.263234 J0.460811 F400.000000
G02 X65.347924 Y58.153094 Z-0.125000 I5.862652 J-3.208111
G01 X66.964315 Y59.416045 Z-0.125000
G01 X66.697806 Y58.081698 Z-0.125000
G02 X65.165052 Y54.050755 Z-0.125000 I-12.778778 J2.552210
G02 X63.920473 Y53.337166 Z-0.125000 I-1.244579 J0.728546
G02 X63.712584 Y53.469240 Z-0.125000 I0.000000 J0.229649
G02 X63.362738 Y54.525437 Z-0.125000 I4.242581 J1.991317
G01 X63.362742 Y54.525437 Z-0.125000
G00 Z5.000000

(End cutting path id: path10)


(Start cutting path id: path10)
(Change tool to Default tool)

G00 Z5.000000
G00 X60.198345 Y47.329080

G01 Z-0.125000 F100.0(Penetrate)
G02 X60.425128 Y47.989319 Z-0.125000 I1.074475 J0.000000 F400.000000
G02 X61.127960 Y48.522680 Z-0.125000 I1.354223 J-1.054758
G03 X62.867533 Y49.962619 Z-0.125000 I-1.439404 J3.509676
G03 X63.544189 Y52.233832 Z-0.125000 I-3.501142 J2.279489
G02 X63.730631 Y52.750505 Z-0.125000 I0.813580 J-0.001606
G02 X64.124414 Y52.935927 Z-0.125000 I0.393783 J-0.325430
G03 X64.624273 Y53.106322 Z-0.125000 I0.000000 J0.818373
G03 X65.793224 Y54.223251 Z-0.125000 I-4.685444 J6.073835
G01 X66.883190 Y55.510579 Z-0.125000
G01 X68.189702 Y54.144550 Z-0.125000
G02 X69.236455 Y52.223070 Z-0.125000 I-3.026353 J-2.894504
G02 X69.085230 Y50.395854 Z-0.125000 I-2.859813 J-0.683181
G02 X66.792721 Y47.845501 Z-0.125000 I-4.838277 J2.043579
G02 X64.642171 Y47.933720 Z-0.125000 I-1.002849 J1.809677
G03 X64.462060 Y47.937753 Z-0.125000 I-0.093232 J-0.139834
G03 X64.427398 Y47.804030 Z-0.125000 I0.051086 J-0.084596
G02 X64.362355 Y47.489427 Z-0.125000 I-0.210375 J-0.120531
G02 X63.276141 Y46.941880 Z-0.125000 I-2.083824 J2.782672
G02 X60.726844 Y46.729913 Z-0.125000 I-1.776556 J5.930391
G02 X60.198324 Y47.329090 Z-0.125000 I0.075380 J0.599177
G01 X60.198345 Y47.329080 Z-0.125000
G00 Z5.000000

(End cutting path id: path10)


(Start cutting path id: path10)
(Change tool to Default tool)

G00 Z5.000000
G00 X49.930901 Y43.540930

G01 Z-0.125000 F100.0(Penetrate)
G03 X50.134042 Y44.179453 Z-0.125000 I-9.367421 J3.331748 F400.000000
G03 X50.156661 Y44.343330 Z-0.125000 I-0.582347 J0.163877
G02 X50.235184 Y44.432621 Z-0.125000 I0.090029 J0.000000
G02 X51.458359 Y44.511110 Z-0.125000 I1.223175 J-9.491743
G02 X52.252354 Y44.015781 Z-0.125000 I0.000000 J-0.884037
G02 X52.040681 Y43.321630 Z-0.125000 I-0.477470 J-0.233750
G02 X50.302882 Y42.951226 Z-0.125000 I-1.440029 J2.494330
G02 X49.930913 Y43.540940 Z-0.125000 I0.045848 J0.441088
G01 X49.930901 Y43.540930 Z-0.125000
G00 Z5.000000

(End cutting path id: path10)


(Start cutting path id: path10)
(Change tool to Default tool)

G00 Z5.000000
G00 X46.964636 Y42.529870

G01 Z-0.125000 F100.0(Penetrate)
G03 X48.135261 Y43.835455 Z-0.125000 I-7.398313 J7.811141 F400.000000
G03 X48.492012 Y44.541690 Z-0.125000 I-1.744576 J1.324486
G02 X48.809775 Y45.085017 Z-0.125000 I1.254437 J-0.369068
G02 X49.045465 Y45.109910 Z-0.125000 I0.132825 J-0.129382
G02 X49.387730 Y43.880543 Z-0.125000 I-0.542244 J-0.813293
G02 X47.531390 Y41.891180 Z-0.125000 I-4.021316 J1.891635
G02 X46.259449 Y41.313209 Z-0.125000 I-4.138082 J7.418108
G02 X46.083998 Y41.358086 Z-0.125000 I-0.054543 J0.152167
G02 X46.076428 Y41.524962 Z-0.125000 I0.099299 J0.088114
G02 X46.964636 Y42.529870 Z-0.125000 I6.093355 J-4.490748
G01 X46.964636 Y42.529870 Z-0.125000
G00 Z5.000000

(End cutting path id: path10)


(Start cutting path id: path10)
(Change tool to Default tool)

G00 Z5.000000
G00 X46.165641 Y40.777200

G01 Z-0.125000 F100.0(Penetrate)
G02 X46.816744 Y40.862553 Z-0.125000 I0.620557 J-2.207728 F400.000000
G02 X47.281384 Y40.762500 Z-0.125000 I-0.016030 J-1.203346
G02 X47.274533 Y40.662922 Z-0.125000 I-0.021192 J-0.048567
G02 X46.623456 Y40.577550 Z-0.125000 I-0.620590 J2.207483
G02 X46.158772 Y40.677750 Z-0.125000 I0.015646 J1.200157
G02 X46.165641 Y40.777380 Z-0.125000 I0.021218 J0.048589
G01 X46.165641 Y40.777200 Z-0.125000
G00 Z5.000000

(End cutting path id: path10)


(Start cutting path id: path10)
(Change tool to Default tool)

G00 Z5.000000
G00 X44.041491 Y41.264160

G01 Z-0.125000 F100.0(Penetrate)
G02 X44.103478 Y41.416891 Z-0.125000 I0.090874 J0.052062 F400.000000
G02 X44.577411 Y41.417970 Z-0.125000 I0.238863 J-0.832422
G02 X44.924800 Y41.106159 Z-0.125000 I-0.143758 J-0.509580
G02 X44.785825 Y40.900380 Z-0.125000 I-0.138975 J-0.055961
G02 X44.313256 Y41.009681 Z-0.125000 I-0.000000 J1.076238
G02 X44.041486 Y41.264170 Z-0.125000 I0.278420 J0.569683
G01 X44.041491 Y41.264160 Z-0.125000
G00 Z5.000000

(End cutting path id: path10)


(Start cutting path id: path10)
(Change tool to Default tool)

G00 Z5.000000
G00 X43.804881 Y44.484790

G01 Z-0.125000 F100.0(Penetrate)
G02 X40.239372 Y47.902245 Z-0.125000 I10.106393 J14.112950 F400.000000
G02 X39.887862 Y49.491850 Z-0.125000 I1.485595 J1.162177
G02 X40.293938 Y50.406194 Z-0.125000 I2.588056 J-0.602054
G02 X41.059636 Y51.178005 Z-0.125000 I2.577185 J-1.791053
G02 X41.926430 Y51.249912 Z-0.125000 I0.494407 J-0.699489
G02 X43.750113 Y49.879190 Z-0.125000 I-2.561995 J-5.307142
G03 X45.582383 Y48.004123 Z-0.125000 I23.020250 J20.662075
G03 X46.899849 Y46.918000 Z-0.125000 I8.987935 J9.560250
G02 X47.905013 Y45.508198 Z-0.125000 I-1.575151 J-2.186288
G02 X47.718111 Y44.198880 Z-0.125000 I-1.505606 J-0.453077
G02 X46.401792 Y43.545085 Z-0.125000 I-1.211103 J0.786372
G02 X43.804881 Y44.484770 Z-0.125000 I0.371493 J5.084904
G01 X43.804881 Y44.484790 Z-0.125000
G00 Z5.000000

(End cutting path id: path10)


(Start cutting path id: path10)
(Change tool to Default tool)

G00 Z5.000000
G00 X41.170423 Y43.917390

G01 Z-0.125000 F100.0(Penetrate)
G02 X39.280591 Y46.023702 Z-0.125000 I31.362402 J30.040034 F400.000000
G02 X39.323552 Y46.115900 Z-0.125000 I0.042961 J0.036090
G02 X39.543305 Y46.026948 Z-0.125000 I0.000000 J-0.315922
G02 X41.602607 Y43.909310 Z-0.125000 I-34.111528 J-35.231941
G02 X43.415462 Y41.822852 Z-0.125000 I-39.264331 J-35.946291
G01 X43.391358 Y41.772952 Z-0.125000
G02 X43.271401 Y41.822237 Z-0.125000 I0.003322 J0.178714
G02 X41.170423 Y43.917310 Z-0.125000 I44.631728 J46.858501
G01 X41.170423 Y43.917390 Z-0.125000
G00 Z5.000000

(End cutting path id: path10)


(Start cutting path id: path10)
(Change tool to Default tool)

G00 Z5.000000
G00 X38.571630 Y49.574930

G01 Z-0.125000 F100.0(Penetrate)
G02 X38.980923 Y51.191404 Z-0.125000 I4.808665 J-0.357506 F400.000000
G02 X39.808887 Y52.332338 Z-0.125000 I3.144076 J-1.410734
G02 X40.950856 Y53.246477 Z-0.125000 I7.932228 J-8.738812
G02 X41.237277 Y53.337126 Z-0.125000 I0.286421 J-0.407173
G02 X41.914792 Y52.840451 Z-0.125000 I0.000000 J-0.710437
G02 X41.596616 Y52.198238 Z-0.125000 I-0.493158 J-0.155595
G03 X39.962695 Y50.982080 Z-0.125000 I1.186425 J-3.299649
G03 X39.371126 Y49.185700 Z-0.125000 I2.431694 J-1.796380
G02 X39.205219 Y48.318261 Z-0.125000 I-2.350643 J0.000000
G02 X38.906235 Y48.014850 Z-0.125000 I-0.508216 J0.201785
G02 X38.670231 Y48.138749 Z-0.125000 I-0.066380 J0.160280
G02 X38.571638 Y49.574930 Z-0.125000 I4.947439 J1.061112
G01 X38.571630 Y49.574930 Z-0.125000
G00 Z5.000000

(End cutting path id: path10)


(Start cutting path id: path10)
(Change tool to Default tool)

G00 Z5.000000
G00 X35.563938 Y52.233872

G01 Z-0.125000 F100.0(Penetrate)
G02 X33.705300 Y57.038317 Z-0.125000 I12.701125 J7.675268 F400.000000
G02 X33.431321 Y63.049744 Z-0.125000 I19.867955 J3.917467
G02 X37.051594 Y71.025549 Z-0.125000 I13.743611 J-1.428784
G02 X44.536264 Y75.003390 Z-0.125000 I9.479905 J-8.806840
G02 X47.000238 Y75.306344 Z-0.125000 I5.895945 J-37.781310
G02 X48.297072 Y75.342283 Z-0.125000 I0.937104 J-10.398955
G01 X49.598774 Y75.297433 Z-0.125000
G01 X48.297072 Y75.039261 Z-0.125000
G03 X47.839744 Y74.740420 Z-0.125000 I0.142218 J-0.716995
G03 X47.922593 Y74.502327 Z-0.125000 I0.127662 J-0.089038
G02 X48.077003 Y74.103636 Z-0.125000 I-0.077994 J-0.259453
G02 X46.995591 Y72.955062 Z-0.125000 I-3.164042 J1.895651
G03 X41.447498 Y67.836813 Z-0.125000 I14.734594 J-21.538188
G03 X37.038674 Y60.655812 Z-0.125000 I25.275932 J-20.462243
G03 X35.999465 Y57.289205 Z-0.125000 I13.290036 J-5.946084
G03 X36.002200 Y54.898108 Z-0.125000 I6.599457 J-1.188000
G03 X36.485493 Y52.463513 Z-0.125000 I78.479259 J14.313688
G03 X36.647661 Y51.892345 Z-0.125000 I4.460171 J0.957745
G02 X36.367695 Y51.601973 Z-0.125000 I-0.212253 J-0.075507
G02 X35.563925 Y52.233885 Z-0.125000 I0.435066 J1.380528
G01 X35.563938 Y52.233872 Z-0.125000
G00 Z5.000000

(End cutting path id: path10)


(Start cutting path id: path10)
(Change tool to Default tool)

G00 Z5.000000
G00 X30.889585 Y50.328020

G01 Z-0.125000 F100.0(Penetrate)
G02 X30.983156 Y50.827461 Z-0.125000 I1.472278 J-0.017348 F400.000000
G01 X31.074813 Y50.821882 Z-0.125000
G02 X31.154557 Y50.117754 Z-0.125000 I-2.778532 J-0.671253
G02 X31.060973 Y49.618290 Z-0.125000 I-1.469861 J0.016906
G01 X30.969290 Y49.623879 Z-0.125000
G02 X30.889544 Y50.328020 Z-0.125000 I2.778596 J0.671272
G01 X30.889585 Y50.328020 Z-0.125000
G00 Z5.000000

(End cutting path id: path10)


(Start cutting path id: path10)
(Change tool to Default tool)

G00 Z5.000000
G00 X30.578971 Y46.168140

G01 Z-0.125000 F100.0(Penetrate)
G02 X31.192204 Y47.891298 Z-0.125000 I4.658114 J-0.687020 F400.000000
G02 X31.549598 Y47.797020 Z-0.125000 I0.165170 J-0.098418
G03 X31.689105 Y47.517752 Z-0.125000 I0.364694 J0.007702
G03 X31.916594 Y47.508960 Z-0.125000 I0.119816 J0.152689
G03 X32.105234 Y47.801536 Z-0.125000 I-0.242230 J0.363280
G03 X32.055493 Y48.355440 Z-0.125000 I-1.099603 J0.180440
G02 X32.230021 Y49.550108 Z-0.125000 I1.215792 J0.432468
G02 X34.281070 Y51.395850 Z-0.125000 I5.438458 J-3.980926
G02 X34.930594 Y51.542326 Z-0.125000 I0.557588 J-0.959188
G02 X35.507742 Y51.293831 Z-0.125000 I-0.081873 J-0.984637
G02 X35.545811 Y50.849399 Z-0.125000 I-0.217058 J-0.242439
G02 X34.275243 Y49.737140 Z-0.125000 I-3.656170 J2.894723
G03 X32.683409 Y48.586741 Z-0.125000 I5.665562 J-9.516098
G03 X32.566100 Y48.254430 Z-0.125000 I0.233662 J-0.269346
G02 X32.490230 Y47.880266 Z-0.125000 I-0.509285 J-0.091506
G02 X31.569747 Y46.726530 Z-0.125000 I-6.481177 J4.226804
G02 X30.720598 Y46.070840 Z-0.125000 I-2.680359 J2.593500
G02 X30.578980 Y46.168140 Z-0.125000 I-0.046972 J0.083344
G01 X30.578971 Y46.168140 Z-0.125000
G00 Z5.000000

(End cutting path id: path10)


(Start cutting path id: path10)
(Change tool to Default tool)

G00 Z5.000000
G00 X29.143460 Y43.708410

G01 Z-0.125000 F100.0(Penetrate)
G02 X29.125009 Y43.987084 Z-0.125000 I0.276123 J0.158231 F400.000000
G02 X29.307448 Y44.109590 Z-0.125000 I0.182439 J-0.074595
G02 X29.584893 Y43.993167 Z-0.125000 I-0.000000 J-0.388796
G02 X29.701307 Y43.708410 Z-0.125000 I-0.290059 J-0.284757
G02 X29.635420 Y43.373110 Z-0.125000 I-0.886122 J0.000000
G02 X29.537318 Y43.307230 Z-0.125000 I-0.098102 J0.040103
G02 X29.405401 Y43.362579 Z-0.125000 I-0.000000 J0.184877
G02 X29.143460 Y43.708410 Z-0.125000 I1.212287 J1.190334
G01 X29.143460 Y43.708410 Z-0.125000
G00 Z5.000000

(End cutting path id: path10)


(Start cutting path id: path10)
(Change tool to Default tool)

G00 Z5.000000
G00 X27.283888 Y38.493190

G01 Z-0.125000 F100.0(Penetrate)
G02 X27.265438 Y38.771874 Z-0.125000 I0.276145 J0.158234 F400.000000
G02 X27.447877 Y38.894380 Z-0.125000 I0.182439 J-0.074593
G02 X27.725318 Y38.777957 Z-0.125000 I-0.000000 J-0.388789
G02 X27.841736 Y38.493190 Z-0.125000 I-0.290073 J-0.284767
G02 X27.775849 Y38.157890 Z-0.125000 I-0.886122 J0.000000
G02 X27.677747 Y38.092010 Z-0.125000 I-0.098102 J0.040103
G02 X27.545830 Y38.147359 Z-0.125000 I-0.000000 J0.184878
G02 X27.283888 Y38.493190 Z-0.125000 I1.212274 J1.190327
G01 X27.283888 Y38.493190 Z-0.125000
G00 Z5.000000

(End cutting path id: path10)


(Start cutting path id: path10)
(Change tool to Default tool)

G00 Z5.000000
G00 X26.973958 Y37.155870

G01 Z-0.125000 F100.0(Penetrate)
G02 X26.794322 Y37.450100 Z-0.125000 I0.638201 J0.591593 F400.000000
G02 X26.726006 Y37.837910 Z-0.125000 I1.066592 J0.387810
G02 X26.847150 Y37.943614 Z-0.125000 I0.106688 J0.000000
G02 X27.166107 Y37.777710 Z-0.125000 I-0.072279 J-0.528517
G02 X27.455952 Y37.302949 Z-0.125000 I-1.029462 J-0.954350
G02 X27.414058 Y37.095680 Z-0.125000 I-0.190702 J-0.069323
G02 X27.221885 Y37.026903 Z-0.125000 I-0.162180 J0.150287
G02 X26.973958 Y37.155880 Z-0.125000 I0.056263 J0.410930
G01 X26.973958 Y37.155870 Z-0.125000
G00 Z5.000000

(End cutting path id: path10)


(Start cutting path id: path10)
(Change tool to Default tool)

G00 Z5.000000
G00 X26.602043 Y35.952250

G01 Z-0.125000 F100.0(Penetrate)
G02 X26.422408 Y36.246479 Z-0.125000 I0.638207 J0.591595 F400.000000
G02 X26.354092 Y36.634290 Z-0.125000 I1.066594 J0.387811
G02 X26.475236 Y36.739994 Z-0.125000 I0.106688 J0.000000
G02 X26.794193 Y36.574090 Z-0.125000 I-0.072279 J-0.528517
G02 X27.084034 Y36.099328 Z-0.125000 I-1.029541 J-0.954386
G02 X27.042144 Y35.892050 Z-0.125000 I-0.190715 J-0.069329
G02 X26.849970 Y35.823274 Z-0.125000 I-0.162180 J0.150288
G02 X26.602043 Y35.952250 Z-0.125000 I0.056264 J0.410933
G01 X26.602043 Y35.952250 Z-0.125000
G00 Z5.000000

(End cutting path id: path10)


(Start cutting path id: path10)
(Change tool to Default tool)

G00 Z5.000000
G00 X26.230129 Y34.748510

G01 Z-0.125000 F100.0(Penetrate)
G02 X26.050491 Y35.042734 Z-0.125000 I0.638117 J0.591551 F400.000000
G02 X25.982178 Y35.430540 Z-0.125000 I1.066604 J0.387806
G02 X26.103314 Y35.536236 Z-0.125000 I0.106680 J0.000000
G02 X26.422279 Y35.370340 Z-0.125000 I-0.072292 J-0.528575
G02 X26.712124 Y34.895579 Z-0.125000 I-1.029462 J-0.954350
G02 X26.670230 Y34.688310 Z-0.125000 I-0.190702 J-0.069323
G02 X26.478071 Y34.619547 Z-0.125000 I-0.162189 J0.150362
G02 X26.230129 Y34.748510 Z-0.125000 I0.056196 J0.410868
G01 X26.230129 Y34.748510 Z-0.125000
G00 Z5.000000

(End cutting path id: path10)


(Start cutting path id: path10)
(Change tool to Default tool)

G00 Z5.000000
G00 X25.858215 Y33.544940

G01 Z-0.125000 F100.0(Penetrate)
G02 X25.678579 Y33.839169 Z-0.125000 I0.638212 J0.591599 F400.000000
G02 X25.610263 Y34.226980 Z-0.125000 I1.066586 J0.387811
G02 X25.731407 Y34.332684 Z-0.125000 I0.106688 J0.000000
G02 X26.050360 Y34.166780 Z-0.125000 I-0.072278 J-0.528507
G02 X26.340201 Y33.692018 Z-0.125000 I-1.029541 J-0.954386
G02 X26.298311 Y33.484740 Z-0.125000 I-0.190715 J-0.069329
G02 X26.106164 Y33.415976 Z-0.125000 I-0.162159 J0.150280
G02 X25.858215 Y33.544940 Z-0.125000 I0.056272 J0.411027
G01 X25.858215 Y33.544940 Z-0.125000
G00 Z5.000000

(End cutting path id: path10)


(Start cutting path id: path10)
(Change tool to Default tool)

G00 Z5.000000
G00 X25.486301 Y32.341170

G01 Z-0.125000 F100.0(Penetrate)
G02 X25.306662 Y32.635407 Z-0.125000 I0.638203 J0.591595 F400.000000
G02 X25.238349 Y33.023210 Z-0.125000 I1.066599 J0.387803
G02 X25.359493 Y33.128914 Z-0.125000 I0.106688 J0.000000
G02 X25.678446 Y32.963010 Z-0.125000 I-0.072278 J-0.528507
G02 X25.968287 Y32.488248 Z-0.125000 I-1.029541 J-0.954386
G02 X25.926397 Y32.280970 Z-0.125000 I-0.190715 J-0.069329
G02 X25.734249 Y32.212206 Z-0.125000 I-0.162159 J0.150282
G02 X25.486301 Y32.341170 Z-0.125000 I0.056272 J0.411026
G01 X25.486301 Y32.341170 Z-0.125000
G00 Z5.000000

(End cutting path id: path10)


(Start cutting path id: path10)
(Change tool to Default tool)

G00 Z5.000000
G00 X25.052399 Y31.271300

G01 Z-0.125000 F100.0(Penetrate)
G02 X25.033948 Y31.549974 Z-0.125000 I0.276123 J0.158231 F400.000000
G02 X25.216387 Y31.672480 Z-0.125000 I0.182439 J-0.074595
G02 X25.493832 Y31.556057 Z-0.125000 I0.000000 J-0.388796
G02 X25.610246 Y31.271300 Z-0.125000 I-0.290059 J-0.284757
G02 X25.544358 Y30.935989 Z-0.125000 I-0.886158 J0.000000
G02 X25.446257 Y30.870110 Z-0.125000 I-0.098101 J0.040102
G02 X25.314342 Y30.925459 Z-0.125000 I-0.000000 J0.184874
G02 X25.052399 Y31.271300 Z-0.125000 I1.212241 J1.190280
G01 X25.052399 Y31.271300 Z-0.125000
G00 Z5.000000

(End cutting path id: path10)


(Start cutting path id: path10)
(Change tool to Default tool)

G00 Z5.000000
G00 X23.998639 Y27.125600

G01 Z-0.125000 F100.0(Penetrate)
G02 X23.819001 Y27.419824 Z-0.125000 I0.638117 J0.591551 F400.000000
G02 X23.750688 Y27.807630 Z-0.125000 I1.066604 J0.387806
G02 X23.871832 Y27.913334 Z-0.125000 I0.106688 J0.000000
G02 X24.190789 Y27.747430 Z-0.125000 I-0.072279 J-0.528517
G02 X24.480632 Y27.272672 Z-0.125000 I-1.029452 J-0.954340
G02 X24.438740 Y27.065390 Z-0.125000 I-0.190720 J-0.069330
G02 X24.246589 Y26.996624 Z-0.125000 I-0.162158 J0.150267
G02 X23.998639 Y27.125590 Z-0.125000 I0.056287 J0.411055
G01 X23.998639 Y27.125600 Z-0.125000
G00 Z5.000000

(End cutting path id: path10)


(Start cutting path id: path10)
(Change tool to Default tool)

G00 Z5.000000
G00 X23.626725 Y25.921930

G01 Z-0.125000 F100.0(Penetrate)
G02 X23.447087 Y26.216167 Z-0.125000 I0.638209 J0.591596 F400.000000
G02 X23.378774 Y26.603970 Z-0.125000 I1.066600 J0.387803
G02 X23.499918 Y26.709674 Z-0.125000 I0.106688 J0.000000
G02 X23.818875 Y26.543770 Z-0.125000 I-0.072279 J-0.528517
G02 X24.108718 Y26.069012 Z-0.125000 I-1.029452 J-0.954340
G02 X24.066826 Y25.861730 Z-0.125000 I-0.190720 J-0.069330
G02 X23.874690 Y25.792978 Z-0.125000 I-0.162165 J0.150340
G02 X23.626725 Y25.921930 Z-0.125000 I0.056221 J0.410993
G01 X23.626725 Y25.921930 Z-0.125000
G00 Z5.000000

(End cutting path id: path10)


(Start cutting path id: path10)
(Change tool to Default tool)

G00 Z5.000000
G00 X22.844821 Y23.530900

G01 Z-0.125000 F100.0(Penetrate)
G02 X22.891245 Y23.755197 Z-0.125000 I0.208853 J0.073725 F400.000000
G02 X23.053019 Y23.755500 Z-0.125000 I0.081028 J-0.075113
G02 X23.353368 Y23.260386 Z-0.125000 I-1.034442 J-0.966177
G02 X23.306940 Y23.036090 Z-0.125000 I-0.208880 J-0.073716
G02 X23.145155 Y23.035788 Z-0.125000 I-0.081033 J0.075110
G02 X22.844804 Y23.530900 Z-0.125000 I1.034893 J0.966459
G01 X22.844821 Y23.530900 Z-0.125000
G00 Z5.000000

(End cutting path id: path10)


(Start cutting path id: path10)
(Change tool to Default tool)

G00 Z5.000000
G00 X22.510982 Y21.909930

G01 Z-0.125000 F100.0(Penetrate)
G02 X22.331344 Y22.204167 Z-0.125000 I0.638209 J0.591596 F400.000000
G02 X22.263031 Y22.591970 Z-0.125000 I1.066600 J0.387803
G02 X22.384165 Y22.697664 Z-0.125000 I0.106678 J0.000000
G02 X22.703127 Y22.531770 Z-0.125000 I-0.072293 J-0.528576
G02 X22.992970 Y22.057012 Z-0.125000 I-1.029447 J-0.954340
G02 X22.951079 Y21.849730 Z-0.125000 I-0.190720 J-0.069330
G02 X22.758931 Y21.780966 Z-0.125000 I-0.162159 J0.150282
G02 X22.510982 Y21.909930 Z-0.125000 I0.056272 J0.411029
G01 X22.510982 Y21.909930 Z-0.125000
G00 Z5.000000

(End cutting path id: path10)


(Start cutting path id: path10)
(Change tool to Default tool)

G00 Z5.000000
G00 X21.767171 Y19.101310

G01 Z-0.125000 F100.0(Penetrate)
G02 X21.587533 Y19.395534 Z-0.125000 I0.638117 J0.591551 F400.000000
G02 X21.519220 Y19.783340 Z-0.125000 I1.066604 J0.387806
G02 X21.640366 Y19.889046 Z-0.125000 I0.106690 J0.000000
G02 X21.959321 Y19.723140 Z-0.125000 I-0.072277 J-0.528502
G02 X22.249166 Y19.248379 Z-0.125000 I-1.029462 J-0.954350
G02 X22.207272 Y19.041110 Z-0.125000 I-0.190702 J-0.069323
G02 X22.015121 Y18.972344 Z-0.125000 I-0.162158 J0.150267
G02 X21.767171 Y19.101310 Z-0.125000 I0.056287 J0.411055
G01 X21.767171 Y19.101310 Z-0.125000
G00 Z5.000000

(End cutting path id: path10)


(Start cutting path id: path10)
(Change tool to Default tool)

G00 Z5.000000
G00 X21.333273 Y18.031450

G01 Z-0.125000 F100.0(Penetrate)
G02 X21.314826 Y18.310127 Z-0.125000 I0.276134 J0.158228 F400.000000
G02 X21.497262 Y18.432630 Z-0.125000 I0.182436 J-0.074595
G02 X21.774702 Y18.316211 Z-0.125000 I0.000000 J-0.388796
G02 X21.891121 Y18.031450 Z-0.125000 I-0.290054 J-0.284761
G02 X21.825234 Y17.696150 Z-0.125000 I-0.886122 J0.000000
G02 X21.727132 Y17.630270 Z-0.125000 I-0.098102 J0.040103
G02 X21.595215 Y17.685619 Z-0.125000 I-0.000000 J0.184877
G02 X21.333273 Y18.031450 Z-0.125000 I1.212303 J1.190350
G01 X21.333273 Y18.031450 Z-0.125000
G00 Z5.000000

(End cutting path id: path10)


(Start cutting path id: path10)
(Change tool to Default tool)

G00 Z5.000000
G00 X20.985268 Y16.710510

G01 Z-0.125000 F100.0(Penetrate)
G02 X21.031693 Y16.934800 Z-0.125000 I0.208843 J0.073722 F400.000000
G02 X21.193465 Y16.935100 Z-0.125000 I0.081026 J-0.075114
G02 X21.493816 Y16.439995 Z-0.125000 I-1.034375 J-0.966150
G02 X21.447386 Y16.215710 Z-0.125000 I-0.208862 J-0.073711
G02 X21.285599 Y16.215406 Z-0.125000 I-0.081035 J0.075107
G02 X20.985250 Y16.710520 Z-0.125000 I1.034935 J0.966475
G01 X20.985268 Y16.710510 Z-0.125000
G00 Z5.000000

(End cutting path id: path10)


(Start cutting path id: path10)
(Change tool to Default tool)

G00 Z5.000000
G00 X20.651407 Y15.089580

G01 Z-0.125000 F100.0(Penetrate)
G02 X20.471768 Y15.383817 Z-0.125000 I0.638203 J0.591595 F400.000000
G02 X20.403455 Y15.771620 Z-0.125000 I1.066599 J0.387803
G02 X20.524599 Y15.877324 Z-0.125000 I0.106688 J0.000000
G02 X20.843556 Y15.711420 Z-0.125000 I-0.072279 J-0.528517
G02 X21.133399 Y15.236662 Z-0.125000 I-1.029447 J-0.954340
G02 X21.091508 Y15.029380 Z-0.125000 I-0.190720 J-0.069330
G02 X20.899334 Y14.960603 Z-0.125000 I-0.162181 J0.150289
G02 X20.651407 Y15.089580 Z-0.125000 I0.056263 J0.410930
G01 X20.651407 Y15.089580 Z-0.125000
G00 Z5.000000

(End cutting path id: path10)


(Start cutting path id: path10)
(Change tool to Default tool)

G00 Z5.000000
G00 X20.241417 Y13.902140

G01 Z-0.125000 F100.0(Penetrate)
G02 X20.287842 Y14.126438 Z-0.125000 I0.208856 J0.073725 F400.000000
G02 X20.449615 Y14.126740 Z-0.125000 I0.081027 J-0.075112
G02 X20.749966 Y13.631624 Z-0.125000 I-1.034451 J-0.966186
G02 X20.703536 Y13.407340 Z-0.125000 I-0.208862 J-0.073710
G02 X20.541767 Y13.407027 Z-0.125000 I-0.081030 J0.075102
G02 X20.241404 Y13.902150 Z-0.125000 I1.034351 J0.966150
G01 X20.241417 Y13.902140 Z-0.125000
G00 Z5.000000

(End cutting path id: path10)


(Start cutting path id: path10)
(Change tool to Default tool)

G00 Z5.000000
G00 X19.907578 Y12.281190

G01 Z-0.125000 F100.0(Penetrate)
G02 X19.727940 Y12.575427 Z-0.125000 I0.638209 J0.591596 F400.000000
G02 X19.659627 Y12.963230 Z-0.125000 I1.066600 J0.387803
G02 X19.780774 Y13.068935 Z-0.125000 I0.106689 J0.000000
G02 X20.099723 Y12.903030 Z-0.125000 I-0.072287 J-0.528511
G02 X20.389566 Y12.428272 Z-0.125000 I-1.029447 J-0.954340
G02 X20.347675 Y12.220990 Z-0.125000 I-0.190720 J-0.069330
G02 X20.155527 Y12.152226 Z-0.125000 I-0.162159 J0.150282
G02 X19.907578 Y12.281190 Z-0.125000 I0.056272 J0.411029
G01 X19.907578 Y12.281190 Z-0.125000
G00 Z5.000000

(End cutting path id: path10)


(Start cutting path id: path10)
(Change tool to Default tool)

G00 Z5.000000
G00 X19.163750 Y9.472820

G01 Z-0.125000 F100.0(Penetrate)
G02 X18.984111 Y9.767044 Z-0.125000 I0.638111 J0.591550 F400.000000
G02 X18.915798 Y10.154850 Z-0.125000 I1.066602 J0.387806
G02 X19.036935 Y10.260546 Z-0.125000 I0.106680 J0.000000
G02 X19.355895 Y10.094650 Z-0.125000 I-0.072302 J-0.528585
G02 X19.645736 Y9.619899 Z-0.125000 I-1.029461 J-0.954348
G02 X19.603846 Y9.412620 Z-0.125000 I-0.190715 J-0.069330
G02 X19.411699 Y9.343856 Z-0.125000 I-0.162159 J0.150280
G02 X19.163750 Y9.472820 Z-0.125000 I0.056272 J0.411027
G01 X19.163750 Y9.472820 Z-0.125000
G00 Z5.000000

(End cutting path id: path10)


(Start cutting path id: path10)
(Change tool to Default tool)

G00 Z5.000000
G00 X18.543893 Y8.426630

G01 Z-0.125000 F100.0(Penetrate)
G02 X18.666981 Y8.621500 Z-0.125000 I0.215801 J0.000000 F400.000000
G02 X18.915820 Y8.603560 Z-0.125000 I0.108608 J-0.228280
G02 X19.232395 Y8.325988 Z-0.125000 I-0.887016 J-1.330973
G02 X19.287747 Y8.178700 Z-0.125000 I-0.168288 J-0.147288
G02 X19.219260 Y8.070274 Z-0.125000 I-0.120072 J0.000000
G02 X18.915820 Y8.001770 Z-0.125000 I-0.303440 J0.637799
G02 X18.659951 Y8.117843 Z-0.125000 I0.000000 J0.340052
G02 X18.543893 Y8.426630 Z-0.125000 I0.352752 J0.308787
G01 X18.543893 Y8.426630 Z-0.125000
G00 Z5.000000

(End cutting path id: path10)


(Start cutting path id: path10)
(Change tool to Default tool)

G00 Z5.000000
G00 X18.357934 Y6.798170

G01 Z-0.125000 F100.0(Penetrate)
G02 X18.339484 Y7.076855 Z-0.125000 I0.276143 J0.158235 F400.000000
G02 X18.521922 Y7.199360 Z-0.125000 I0.182438 J-0.074593
G02 X18.799363 Y7.082937 Z-0.125000 I-0.000000 J-0.388789
G02 X18.915781 Y6.798170 Z-0.125000 I-0.290073 J-0.284767
G02 X18.849894 Y6.462870 Z-0.125000 I-0.886122 J-0.000000
G02 X18.751792 Y6.396990 Z-0.125000 I-0.098102 J0.040103
G02 X18.619875 Y6.452339 Z-0.125000 I-0.000000 J0.184877
G02 X18.357934 Y6.798170 Z-0.125000 I1.212287 J1.190334
G01 X18.357934 Y6.798170 Z-0.125000
G00 Z5.000000

(End cutting path id: path10)


(Start cutting path id: path10)
(Change tool to Default tool)

G00 Z5.000000
G00 X18.048003 Y5.059630

G01 Z-0.125000 F100.0(Penetrate)
G02 X17.868367 Y5.353860 Z-0.125000 I0.638201 J0.591593 F400.000000
G02 X17.800051 Y5.741670 Z-0.125000 I1.066592 J0.387810
G02 X17.921195 Y5.847374 Z-0.125000 I0.106688 J0.000000
G02 X18.240152 Y5.681470 Z-0.125000 I-0.072279 J-0.528517
G02 X18.529997 Y5.206705 Z-0.125000 I-1.029438 J-0.954331
G02 X18.488104 Y4.999420 Z-0.125000 I-0.190725 J-0.069329
G02 X18.295953 Y4.930653 Z-0.125000 I-0.162158 J0.150268
G02 X18.048003 Y5.059620 Z-0.125000 I0.056287 J0.411052
G01 X18.048003 Y5.059630 Z-0.125000
G00 Z5.000000

(End cutting path id: path10)


(Start cutting path id: path10)
(Change tool to Default tool)

G00 Z5.000000
G00 X21.612189 Y3.887300

G01 Z-0.125000 F100.0(Penetrate)
G02 X24.866442 Y3.954181 Z-0.125000 I3.254253 J-79.138469 F400.000000
G02 X28.120694 Y3.887300 Z-0.125000 I-0.000000 J-79.205349
G01 X28.120695 Y3.820422 Z-0.125000
G02 X24.866439 Y3.753570 Z-0.125000 I-3.254256 J79.172285
G02 X21.612188 Y3.820413 Z-0.125000 I-0.000000 J79.249655
G01 X21.612189 Y3.887300 Z-0.125000
G01 X21.612189 Y3.887300 Z-0.125000
G00 Z5.000000

(End cutting path id: path10)


(Start cutting path id: path10)
(Change tool to Default tool)

G00 Z5.000000
G00 X47.553244 Y45.867390

G01 Z-0.125000 F100.0(Penetrate)
G03 X47.497821 Y45.993932 Z-0.125000 I-0.172171 J0.000000 F400.000000
G03 X46.158564 Y47.154070 Z-0.125000 I-19.191618 J-20.801611
G03 X45.389626 Y47.609572 Z-0.125000 I-1.914679 J-2.355414
G03 X45.303500 Y47.502600 Z-0.125000 I-0.027055 J-0.066375
G03 X47.114016 Y45.643646 Z-0.125000 I6.317235 J4.341482
G03 X47.553244 Y45.867390 Z-0.125000 I0.162626 J0.223744
G01 X47.553244 Y45.867390 Z-0.125000
G00 Z5.000000

(End cutting path id: path10)


(Start cutting path id: path10)
(Change tool to Default tool)

G00 Z5.000000
G00 X48.376783 Y48.884360

G01 Z-0.125000 F100.0(Penetrate)
G02 X44.167184 Y53.317281 Z-0.125000 I25.656706 J28.579396 F400.000000
G02 X43.213029 Y55.271311 Z-0.125000 I3.778988 J3.055257
G02 X43.797986 Y57.355667 Z-0.125000 I2.190299 J0.509571
G02 X46.702946 Y58.828911 Z-0.125000 I3.633903 J-3.564733
G02 X48.184046 Y58.470609 Z-0.125000 I0.293362 J-2.027673
G02 X48.815171 Y57.326063 Z-0.125000 I-0.873778 J-1.228099
G03 X49.691689 Y54.720506 Z-0.125000 I5.162864 J0.286594
G03 X52.068284 Y52.504682 Z-0.125000 I5.988701 J4.040789
G03 X52.191382 Y52.628637 Z-0.125000 I0.045172 J0.078241
G03 X50.979655 Y54.360392 Z-0.125000 I-11.406844 J-6.691683
G02 X49.163706 Y56.749831 Z-0.125000 I28.453656 J23.509255
G02 X49.048415 Y57.128309 Z-0.125000 I0.526064 J0.367047
G02 X49.186372 Y57.184715 Z-0.125000 I0.081096 J-0.001435
G02 X51.272391 Y54.941929 Z-0.125000 I-24.004649 J-24.418266
G02 X53.149304 Y52.208355 Z-0.125000 I-12.313848 J-10.466017
G02 X53.496367 Y50.860429 Z-0.125000 I-2.500386 J-1.362442
G02 X52.637375 Y47.792693 Z-0.125000 I-5.798646 J-0.030461
G02 X51.072680 Y46.917970 Z-0.125000 I-1.564695 J0.962094
G02 X50.623297 Y47.064448 Z-0.125000 I-0.000000 J0.762577
G02 X48.376783 Y48.884360 Z-0.125000 I16.814138 J23.052013
G01 X48.376783 Y48.884360 Z-0.125000
G00 Z5.000000

(End cutting path id: path10)


(Start cutting path id: path10)
(Change tool to Default tool)

G00 Z5.000000
G00 X40.724283 Y54.340180

G01 Z-0.125000 F100.0(Penetrate)
G02 X40.980105 Y54.882780 Z-0.125000 I2.865053 J-1.019191 F400.000000
G02 X41.084531 Y54.941978 Z-0.125000 I0.104426 J-0.062506
G02 X41.166344 Y54.877661 Z-0.125000 I0.000000 J-0.084193
G02 X41.230697 Y54.340180 Z-0.125000 I-2.212362 J-0.537481
G02 X41.100352 Y53.868702 Z-0.125000 I-0.917878 J-0.000000
G02 X40.870450 Y53.738386 Z-0.125000 I-0.229902 J0.137637
G02 X40.700060 Y53.872339 Z-0.125000 I-0.000000 J0.175345
G02 X40.724283 Y54.340180 Z-0.125000 I0.795874 J0.193341
G01 X40.724283 Y54.340180 Z-0.125000
G00 Z5.000000

(End cutting path id: path10)


(Start cutting path id: path10)
(Change tool to Default tool)

G00 Z5.000000
G00 X41.696398 Y55.543776

G01 Z-0.125000 F100.0(Penetrate)
G02 X41.781784 Y56.243783 Z-0.125000 I3.027354 J-0.014063 F400.000000
G01 X41.865664 Y56.241195 Z-0.125000
G02 X41.943547 Y55.336394 Z-0.125000 I-4.942038 J-0.881152
G02 X41.858264 Y54.636405 Z-0.125000 I-3.032592 J0.014287
G01 X41.774404 Y54.638993 Z-0.125000
G02 X41.696524 Y55.543776 Z-0.125000 I4.945130 J0.881399
G01 X41.696398 Y55.543776 Z-0.125000
G00 Z5.000000

(End cutting path id: path10)


(Start cutting path id: path10)
(Change tool to Default tool)

G00 Z5.000000
G00 X40.189332 Y57.028220

G01 Z-0.125000 F100.0(Penetrate)
G02 X39.936981 Y57.585715 Z-0.125000 I0.708099 J0.656383 F400.000000
G02 X39.743032 Y61.363152 Z-0.125000 I36.688518 J3.777437
G01 X39.743032 Y65.216639 Z-0.125000
G01 X42.439418 Y68.107890 Z-0.125000
G02 X45.224791 Y70.897705 Z-0.125000 I42.323812 J-39.471049
G02 X46.798415 Y72.186081 Z-0.125000 I10.522742 J-11.247287
G02 X50.389658 Y73.948422 Z-0.125000 I7.127429 J-9.983816
G02 X54.819079 Y74.600703 Z-0.125000 I4.429421 J-14.713220
G01 X56.173403 Y74.600703 Z-0.125000
G01 X55.242063 Y73.406719 Z-0.125000
G03 X54.466072 Y72.142700 Z-0.125000 I5.238516 J-4.086167
G03 X54.065491 Y70.899230 Z-0.125000 I4.666019 J-2.189406
G02 X53.132067 Y68.686018 Z-0.125000 I-5.545316 J1.035300
G02 X52.259105 Y68.334714 Z-0.125000 I-0.707802 J0.498560
G03 X49.435994 Y68.189674 Z-0.125000 I-1.119357 J-5.759954
G03 X47.226257 Y66.807567 Z-0.125000 I1.448340 J-4.773169
G03 X46.524891 Y65.665871 Z-0.125000 I2.514571 J-2.331029
G03 X46.076103 Y63.697568 Z-0.125000 I7.300353 J-2.699850
G02 X45.537681 Y61.900106 Z-0.125000 I-4.774126 J0.450697
G02 X44.808254 Y61.308824 Z-0.125000 I-1.060740 J0.563003
G03 X42.892893 Y60.142405 Z-0.125000 I1.170473 J-4.077822
G03 X41.584556 Y57.891981 Z-0.125000 I4.157771 J-3.922746
G02 X40.849893 Y56.938861 Z-0.125000 I-1.634257 J0.499984
G02 X40.189332 Y57.028220 Z-0.125000 I-0.276012 J0.445840
G01 X40.189332 Y57.028220 Z-0.125000
G00 Z5.000000

(End cutting path id: path10)


(Start cutting path id: path10)
(Change tool to Default tool)

G00 Z5.000000
G00 X41.986348 Y57.974581

G01 Z-0.125000 F100.0(Penetrate)
G02 X42.072822 Y58.327326 Z-0.125000 I0.874316 J-0.027364 F400.000000
G02 X42.544222 Y59.130937 Z-0.125000 I5.186328 J-2.502242
G02 X42.981334 Y59.582547 Z-0.125000 I1.639678 J-1.149697
G02 X43.078438 Y59.532118 Z-0.125000 I0.036444 J-0.048528
G02 X42.991964 Y59.179374 Z-0.125000 I-0.874315 J0.027364
G02 X42.520564 Y58.375763 Z-0.125000 I-5.186279 J2.502215
G02 X42.083451 Y57.924153 Z-0.125000 I-1.639674 J1.149691
G02 X41.986348 Y57.974581 Z-0.125000 I-0.036444 J0.048528
G01 X41.986348 Y57.974581 Z-0.125000
G00 Z5.000000

(End cutting path id: path10)


(Start cutting path id: path10)
(Change tool to Default tool)

G00 Z5.000000
G00 X43.915027 Y58.251873

G01 Z-0.125000 F100.0(Penetrate)
G02 X45.018217 Y59.218377 Z-0.125000 I5.770366 J-5.473571 F400.000000
G02 X45.420602 Y59.342970 Z-0.125000 I0.384956 J-0.531187
G02 X45.482897 Y59.227147 Z-0.125000 I-0.001949 J-0.075713
G02 X45.135795 Y58.886979 Z-0.125000 I-0.876593 J0.547290
G03 X44.414468 Y58.411781 Z-0.125000 I4.965084 J-8.321826
G03 X43.630216 Y57.795887 Z-0.125000 I7.577334 J-10.455896
G01 X43.589395 Y57.831141 Z-0.125000
G02 X43.915027 Y58.251873 Z-0.125000 I2.251531 J-1.406228
G01 X43.915027 Y58.251873 Z-0.125000
G00 Z5.000000

(End cutting path id: path10)


(Start cutting path id: path10)
(Change tool to Default tool)

G00 Z5.000000
G00 X46.360044 Y59.626443

G01 Z-0.125000 F100.0(Penetrate)
G03 X46.546770 Y59.910740 Z-0.125000 I-0.123063 J0.284297 F400.000000
G03 X46.360044 Y60.461619 Z-0.125000 I-0.905962 J-0.000000
G02 X46.406560 Y60.593684 Z-0.125000 I0.066382 J0.050843
G02 X46.692391 Y60.542909 Z-0.125000 I0.085401 J-0.349156
G02 X47.016518 Y59.798773 Z-0.125000 I-0.420337 J-0.625748
G02 X46.508547 Y59.386831 Z-0.125000 I-0.483353 J0.076865
G02 X46.319858 Y59.498204 Z-0.125000 I0.011927 J0.235731
G02 X46.360044 Y59.626438 Z-0.125000 I0.075449 J0.046770
G01 X46.360044 Y59.626443 Z-0.125000
G00 Z5.000000

(End cutting path id: path10)


(Start cutting path id: path10)
(Change tool to Default tool)

G00 Z5.000000
G00 X46.853032 Y61.655360

G01 Z-0.125000 F100.0(Penetrate)
G02 X46.598184 Y64.368223 Z-0.125000 I4.686382 J1.808644 F400.000000
G02 X47.756908 Y66.594670 Z-0.125000 I4.192558 J-0.767216
G02 X51.321764 Y68.292035 Z-0.125000 I4.124211 J-4.069600
G02 X53.868891 Y67.187494 Z-0.125000 I0.276565 J-2.851398
G02 X53.796715 Y66.880800 Z-0.125000 I-0.161086 J-0.123931
G02 X53.040749 Y66.784621 Z-0.125000 I-0.520128 J1.069176
G03 X50.195583 Y66.585737 Z-0.125000 I-1.062503 J-5.250615
G03 X48.442361 Y65.161877 Z-0.125000 I1.117829 J-3.167717
G03 X48.007576 Y64.171335 Z-0.125000 I3.506614 J-2.129875
G03 X47.611923 Y62.288996 Z-0.125000 I12.459415 J-3.601620
G01 X47.353676 Y60.358151 Z-0.125000
G01 X46.853032 Y61.655360 Z-0.125000
G00 Z5.000000

(End cutting path id: path10)


(Start cutting path id: path10)
(Change tool to Default tool)

G00 Z5.000000
G00 X52.329005 Y57.850644

G01 Z-0.125000 F100.0(Penetrate)
G03 X48.846141 Y62.700335 Z-0.125000 I-180.149753 J-125.701251 F400.000000
G03 X48.598404 Y62.899057 Z-0.125000 I-0.499881 J-0.369396
G02 X48.295258 Y63.532834 Z-0.125000 I0.219397 J0.494329
G02 X49.209955 Y65.190748 Z-0.125000 I3.795957 J-1.013006
G02 X52.208774 Y66.528243 Z-0.125000 I3.064851 J-2.841154
G02 X54.840919 Y65.279708 Z-0.125000 I0.051977 J-3.289218
G02 X54.969333 Y64.980038 Z-0.125000 I-0.489376 J-0.387056
G01 X54.889579 Y64.935695 Z-0.125000
G03 X54.581560 Y64.734341 Z-0.125000 I-0.123374 J-0.147541
G03 X55.492825 Y62.865797 Z-0.125000 I5.892898 J1.717414
G02 X57.060347 Y60.592377 Z-0.125000 I-55.286033 J-39.796804
G02 X58.332761 Y58.562855 Z-0.125000 I-42.775053 J-28.231564
G02 X59.175746 Y56.488049 Z-0.125000 I-6.409737 J-3.812902
G02 X59.064858 Y55.507970 Z-0.125000 I-1.406825 J-0.337142
G02 X57.457266 Y53.470588 Z-0.125000 I-5.642891 J2.799587
G02 X55.981868 Y52.935963 Z-0.125000 I-1.475398 J1.768507
G02 X55.804719 Y53.025018 Z-0.125000 I0.000000 J0.220721
G02 X52.329013 Y57.850640 Z-0.125000 I159.405090 J118.477740
G01 X52.329005 Y57.850644 Z-0.125000
G00 Z5.000000

(End cutting path id: path10)


(Start cutting path id: path10)
(Change tool to Default tool)

G00 Z5.000000
G00 X46.551506 Y81.454610

G01 Z-0.125000 F100.0(Penetrate)
G03 X45.818908 Y82.653077 Z-0.125000 I-12.075122 J-6.558123 F400.000000
G03 X43.587223 Y85.789254 Z-0.125000 I-85.140332 J-58.223252
G03 X39.364067 Y90.409786 Z-0.125000 I-24.380734 J-18.043692
G03 X37.677512 Y91.045363 Z-0.125000 I-1.671099 J-1.878905
G03 X37.534760 Y90.829207 Z-0.125000 I0.000977 J-0.155861
G03 X38.081969 Y90.081196 Z-0.125000 I1.839969 J0.771871
G02 X39.051053 Y89.003080 Z-0.125000 I-3.521302 J-4.139783
G02 X40.062159 Y87.176958 Z-0.125000 I-9.310209 J-6.347952
G03 X41.139734 Y85.446478 Z-0.125000 I6.504512 J2.849633
G03 X42.284881 Y84.543272 Z-0.125000 I2.777831 J2.344376
G02 X43.550732 Y83.715770 Z-0.125000 I-3.008914 J-5.984767
G02 X45.309997 Y82.035782 Z-0.125000 I-11.058569 J-13.341548
G03 X46.984569 Y80.263337 Z-0.125000 I47.938454 J43.614067
G03 X47.093837 Y80.217463 Z-0.125000 I0.109268 J0.107195
G01 X47.130095 Y80.272947 Z-0.125000
G03 X46.551510 Y81.454610 Z-0.125000 I-14.290193 J-6.264512
G01 X46.551506 Y81.454610 Z-0.125000
G00 Z5.000000

(End cutting path id: path10)


(Start cutting path id: path10)
(Change tool to Default tool)

G00 Z5.000000
G00 X38.155407 Y94.291539

G01 Z-0.125000 F100.0(Penetrate)
G02 X38.400972 Y94.748968 Z-0.125000 I1.000657 J-0.242561 F400.000000
G02 X38.548357 Y94.715406 Z-0.125000 I0.064003 J-0.059333
G02 X38.563582 Y94.222689 Z-0.125000 I-0.886478 J-0.273987
G02 X38.318012 Y93.765267 Z-0.125000 I-1.001178 J0.242861
G02 X38.170642 Y93.798828 Z-0.125000 I-0.063997 J0.059322
G02 X38.155407 Y94.291522 Z-0.125000 I0.886800 J0.274005
G01 X38.155407 Y94.291539 Z-0.125000
G00 Z5.000000

(End cutting path id: path10)


(Start cutting path id: path10)
(Change tool to Default tool)

G00 Z5.000000
G00 X38.656652 Y96.499403

G01 Z-0.125000 F100.0(Penetrate)
G02 X38.766528 Y96.764608 Z-0.125000 I0.412818 J-0.015669 F400.000000
G02 X38.881331 Y96.741786 Z-0.125000 I0.050383 J-0.046713
G02 X38.961856 Y96.238039 Z-0.125000 I-1.223291 J-0.453855
G02 X38.851911 Y95.972823 Z-0.125000 I-0.412979 J0.015803
G02 X38.737114 Y95.995638 Z-0.125000 I-0.050382 J0.046713
G02 X38.656561 Y96.499394 Z-0.125000 I1.223732 J0.453999
G01 X38.656652 Y96.499403 Z-0.125000
G00 Z5.000000

(End cutting path id: path10)


(Start cutting path id: path10)
(Change tool to Default tool)

G00 Z5.000000
G00 X39.384203 Y97.442589

G01 Z-0.125000 F100.0(Penetrate)
G02 X39.134029 Y98.392167 Z-0.125000 I2.182326 J1.082696 F400.000000
G02 X39.326233 Y98.501891 Z-0.125000 I0.123561 J0.006762
G02 X40.301437 Y97.204823 Z-0.125000 I-1.357102 J-2.035480
G02 X39.907262 Y96.666568 Z-0.125000 I-0.394175 J-0.124796
G02 X39.803468 Y96.721781 Z-0.125000 I-0.000000 J0.125168
G02 X39.384211 Y97.442589 Z-0.125000 I5.224162 J3.520958
G01 X39.384203 Y97.442589 Z-0.125000
G00 Z5.000000

(End cutting path id: path10)


(Start cutting path id: path10)
(Change tool to Default tool)

G00 Z5.000000
G00 X39.557060 Y99.876157

G01 Z-0.125000 F100.0(Penetrate)
G02 X39.408908 Y100.714169 Z-0.125000 I3.679264 J1.082561 F400.000000
G02 X39.489150 Y100.939620 Z-0.125000 I0.302528 J0.019330
G02 X39.625398 Y100.928620 Z-0.125000 I0.063795 J-0.059120
G02 X39.928979 Y100.277356 Z-0.125000 I-2.001832 J-1.329523
G02 X40.077131 Y99.439339 Z-0.125000 I-3.679322 J-1.082569
G02 X39.996889 Y99.213889 Z-0.125000 I-0.302527 J-0.019330
G02 X39.860641 Y99.224889 Z-0.125000 I-0.063795 J0.059120
G02 X39.557061 Y99.876157 Z-0.125000 I2.001850 J1.329526
G01 X39.557060 Y99.876157 Z-0.125000
G00 Z5.000000

(End cutting path id: path10)


(Start cutting path id: path10)
(Change tool to Default tool)

G00 Z5.000000
G00 X41.070892 Y99.937617

G01 Z-0.125000 F100.0(Penetrate)
G03 X41.025428 Y100.885323 Z-0.125000 I-1.848872 J0.386248 F400.000000
G03 X40.611109 Y101.413889 Z-0.125000 I-0.902954 J-0.281118
G02 X39.313321 Y103.777059 Z-0.125000 I1.388904 J2.300687
G02 X40.765797 Y108.064316 Z-0.125000 I7.573448 J-0.176131
G02 X41.487172 Y108.857677 Z-0.125000 I4.024164 J-2.934391
G02 X41.602607 Y108.805727 Z-0.125000 I0.046028 J-0.051950
G02 X41.504530 Y108.443398 Z-0.125000 I-0.718320 J0.000000
G02 X41.105147 Y107.954190 Z-0.125000 I-1.755407 J1.025461
G03 X39.918601 Y105.406596 Z-0.125000 I2.380334 J-2.658760
G03 X40.915420 Y101.868136 Z-0.125000 I6.103495 J-0.190222
G03 X41.055312 Y101.812465 Z-0.125000 I0.109631 J0.071886
G03 X41.115269 Y101.915546 Z-0.125000 I-0.018983 J0.080019
G02 X41.162219 Y102.376310 Z-0.125000 I0.590792 J0.172575
G02 X41.452115 Y102.550774 Z-0.125000 I0.289896 J-0.153620
G02 X41.819713 Y102.395954 Z-0.125000 I-0.000000 J-0.513814
G02 X41.974530 Y102.015843 Z-0.125000 I-0.389221 J-0.380111
G02 X41.849416 Y101.606051 Z-0.125000 I-0.733662 J-0.000000
G02 X41.614283 Y101.480913 Z-0.125000 I-0.235133 J0.158337
G03 X41.441688 Y101.348502 Z-0.125000 I-0.000000 J-0.178692
G03 X41.459464 Y100.903484 Z-0.125000 I0.723375 J-0.193970
G02 X41.512507 Y100.339010 Z-0.125000 I-1.087607 J-0.386929
G02 X41.256717 Y99.599590 Z-0.125000 I-2.175486 J0.338618
G02 X41.121342 Y99.600220 Z-0.125000 I-0.067513 J0.037929
G02 X41.070926 Y99.937617 Z-0.125000 I0.430942 J0.236859
G01 X41.070892 Y99.937617 Z-0.125000
G00 Z5.000000

(End cutting path id: path10)


(Start cutting path id: path10)
(Change tool to Default tool)

G00 Z5.000000
G00 X41.502640 Y107.129892

G01 Z-0.125000 F100.0(Penetrate)
G02 X41.748228 Y107.587365 Z-0.125000 I1.000749 J-0.242580 F400.000000
G02 X41.895590 Y107.553802 Z-0.125000 I0.063992 J-0.059322
G02 X41.910819 Y107.061089 Z-0.125000 I-0.886496 J-0.273992
G02 X41.665244 Y106.603659 Z-0.125000 I-1.001137 J0.242835
G02 X41.517875 Y106.637220 Z-0.125000 I-0.063996 J0.059322
G02 X41.502640 Y107.129914 Z-0.125000 I0.886804 J0.274004
G01 X41.502640 Y107.129892 Z-0.125000
G00 Z5.000000

(End cutting path id: path10)


(Start cutting path id: path10)
(Change tool to Default tool)

G00 Z5.000000
G00 X39.555117 Y108.251278

G01 Z-0.125000 F100.0(Penetrate)
G03 X39.577020 Y108.866005 Z-0.125000 I-1.255245 J0.352480 F400.000000
G03 X39.415223 Y108.932536 Z-0.125000 I-0.103299 J-0.021211
G02 X39.258823 Y108.982942 Z-0.125000 I-0.058195 J0.087275
G02 X39.255603 Y109.357660 Z-0.125000 I0.510786 J0.191762
G02 X39.517750 Y109.488444 Z-0.125000 I0.199021 J-0.070804
G02 X39.871463 Y109.164812 Z-0.125000 I-0.169063 J-0.539888
G02 X40.005162 Y108.320264 Z-0.125000 I-1.695460 J-0.701261
G02 X39.763493 Y107.786764 Z-0.125000 I-0.858093 J0.067218
G02 X39.587224 Y107.818001 Z-0.125000 I-0.077516 J0.075537
G02 X39.555122 Y108.251295 Z-0.125000 I0.581662 J0.260930
G01 X39.555117 Y108.251278 Z-0.125000
G00 Z5.000000

(End cutting path id: path10)


(Start cutting path id: path10)
(Change tool to Default tool)

G00 Z5.000000
G00 X40.241816 Y110.669336

G01 Z-0.125000 F100.0(Penetrate)
G02 X40.421399 Y110.995132 Z-0.125000 I0.349021 J0.020007 F400.000000
G02 X40.706707 Y110.926943 Z-0.125000 I0.105358 J-0.190143
G02 X41.039526 Y109.925210 Z-0.125000 I-1.609228 J-1.090810
G02 X40.765797 Y109.638652 Z-0.125000 I-0.273716 J-0.012555
G02 X40.471417 Y109.819245 Z-0.125000 I0.000023 J0.330266
G02 X40.241811 Y110.669318 Z-0.125000 I1.913798 J0.972964
G01 X40.241816 Y110.669336 Z-0.125000
G00 Z5.000000

(End cutting path id: path10)


(Start cutting path id: path10)
(Change tool to Default tool)

G00 Z5.000000
G00 X38.584495 Y110.822755

G01 Z-0.125000 F100.0(Penetrate)
G03 X38.643958 Y111.199107 Z-0.125000 I-0.250786 J0.232497 F400.000000
G03 X37.946041 Y112.199294 Z-0.125000 I-3.176214 J-1.472728
G01 X36.953673 Y113.194054 Z-0.125000
G01 X38.020150 Y112.357910 Z-0.125000
G03 X39.285470 Y111.916161 Z-0.125000 I1.279548 J1.632035
G03 X39.537442 Y112.347500 Z-0.125000 I0.001977 J0.288111
G03 X39.277519 Y112.548354 Z-0.125000 I-0.372415 J-0.213329
G03 X38.977765 Y112.499532 Z-0.125000 I-0.096177 J-0.354114
G02 X38.845326 Y112.540260 Z-0.125000 I-0.049603 J0.074398
G02 X38.838649 Y112.841765 Z-0.125000 I0.392455 J0.159517
G03 X38.765424 Y113.348381 Z-0.125000 I-0.516985 J0.183876
G03 X36.881840 Y115.532284 Z-0.125000 I-14.084390 J-10.243343
G02 X35.833562 Y116.705666 Z-0.125000 I8.427387 J8.583821
G02 X35.905948 Y116.780150 Z-0.125000 I0.041289 J0.032290
G02 X37.010637 Y115.824649 Z-0.125000 I-5.561974 J-7.546735
G02 X38.607386 Y114.047790 Z-0.125000 I-17.833179 J-17.631408
G02 X39.676400 Y112.190917 Z-0.125000 I-5.144692 J-4.197990
G02 X39.561320 Y111.515889 Z-0.125000 I-0.634672 J-0.239123
G03 X39.149104 Y110.847655 Z-0.125000 I2.077285 J-1.742680
G03 X39.184332 Y110.642443 Z-0.125000 I0.175099 J-0.075571
G02 X39.165201 Y110.530841 Z-0.125000 I-0.052293 J-0.048476
G02 X38.800855 Y110.440963 Z-0.125000 I-0.364346 J0.693548
G02 X38.556597 Y110.583292 Z-0.125000 I0.000000 J0.280757
G02 X38.584482 Y110.822755 Z-0.125000 I0.177634 J0.100670
G01 X38.584495 Y110.822755 Z-0.125000
G00 Z5.000000

(End cutting path id: path10)


(Start cutting path id: path10)
(Change tool to Default tool)

G00 Z5.000000
G00 X36.213392 Y113.121868

G01 Z-0.125000 F100.0(Penetrate)
G03 X36.170497 Y113.347685 Z-0.125000 I-0.153335 J0.087856 F400.000000
G03 X35.879617 Y113.389062 Z-0.125000 I-0.180447 J-0.225414
G02 X35.560265 Y113.405396 Z-0.125000 I-0.142489 J0.344192
G02 X35.507690 Y113.589674 Z-0.125000 I0.063528 J0.117763
G03 X35.455118 Y113.773949 Z-0.125000 I-0.116086 J0.066518
G03 X35.135763 Y113.790287 Z-0.125000 I-0.176872 J-0.327924
G02 X34.816411 Y113.806621 Z-0.125000 I-0.142489 J0.344192
G02 X34.763836 Y113.990899 Z-0.125000 I0.063527 J0.117763
G03 X34.711264 Y114.175174 Z-0.125000 I-0.116086 J0.066518
G03 X34.391908 Y114.191511 Z-0.125000 I-0.176872 J-0.327926
G02 X34.037735 Y114.177197 Z-0.125000 I-0.196565 J0.474793
G02 X33.980920 Y114.323937 Z-0.125000 I0.031062 J0.096396
G02 X34.594466 Y114.610450 Z-0.125000 I0.510164 J-0.292290
G02 X35.981428 Y113.966609 Z-0.125000 I-0.527171 J-2.951450
G02 X36.496584 Y113.249994 Z-0.125000 I-1.116582 J-1.346157
G02 X36.388870 Y112.910546 Z-0.125000 I-0.265688 J-0.102505
G02 X36.229629 Y112.933777 Z-0.125000 I-0.066716 J0.100071
G02 X36.213331 Y113.121916 Z-0.125000 I0.127412 J0.105813
G01 X36.213392 Y113.121868 Z-0.125000
G00 Z5.000000

(End cutting path id: path10)


(Start cutting path id: path10)
(Change tool to Default tool)

G00 Z5.000000
G00 X32.676653 Y114.720464

G01 Z-0.125000 F100.0(Penetrate)
G02 X33.256578 Y115.039145 Z-0.125000 I1.783326 J-2.558231 F400.000000
G02 X33.606440 Y115.109370 Z-0.125000 I0.349862 J-0.836398
G02 X33.667913 Y115.011834 Z-0.125000 I0.000000 J-0.068140
G02 X33.420477 Y114.720464 Z-0.125000 I-0.675833 J0.323180
G02 X32.840550 Y114.401782 Z-0.125000 I-1.783348 J2.558271
G02 X32.490693 Y114.331558 Z-0.125000 I-0.349857 J0.836384
G02 X32.429220 Y114.429094 Z-0.125000 I0.000000 J0.068140
G02 X32.676653 Y114.720464 Z-0.125000 I0.675834 J-0.323177
G01 X32.676653 Y114.720464 Z-0.125000
G00 Z5.000000

(End cutting path id: path10)


(Start cutting path id: path10)
(Change tool to Default tool)

G00 Z5.000000
G00 X30.817081 Y115.121646

G01 Z-0.125000 F100.0(Penetrate)
G02 X31.403118 Y115.420875 Z-0.125000 I1.380823 J-1.980835 F400.000000
G02 X31.932824 Y115.510552 Z-0.125000 I0.529706 J-1.519610
G02 X32.066212 Y115.377164 Z-0.125000 I0.000000 J-0.133388
G02 X31.932824 Y115.121646 Z-0.125000 I-0.311429 J-0.000000
G02 X31.346788 Y114.822416 Z-0.125000 I-1.380810 J1.980808
G02 X30.817081 Y114.732740 Z-0.125000 I-0.529707 J1.519616
G02 X30.683694 Y114.866127 Z-0.125000 I0.000000 J0.133387
G02 X30.817081 Y115.121646 Z-0.125000 I0.311433 J0.000000
G01 X30.817081 Y115.121646 Z-0.125000
G00 Z5.000000

(End cutting path id: path10)


(Start cutting path id: path10)
(Change tool to Default tool)

G00 Z5.000000
G00 X31.932824 Y118.343896

G01 Z-0.125000 F100.0(Penetrate)
G02 X32.066128 Y118.599205 Z-0.125000 I0.311140 J0.000000 F400.000000
G02 X32.490698 Y118.732498 Z-0.125000 I0.424570 J-0.609529
G02 X32.980664 Y118.664584 Z-0.125000 I-0.000000 J-1.801394
G02 X33.048567 Y118.574828 Z-0.125000 I-0.025369 J-0.089756
G02 X32.987549 Y118.457954 Z-0.125000 I-0.142441 J0.000000
G02 X32.490698 Y118.186226 Z-0.125000 I-1.501183 J2.154792
G02 X32.070714 Y118.161630 Z-0.125000 I-0.245438 J0.592945
G02 X31.932824 Y118.343896 Z-0.125000 I0.051517 J0.182266
G01 X31.932824 Y118.343896 Z-0.125000
G00 Z5.000000

(End cutting path id: path10)


(Start cutting path id: path10)
(Change tool to Default tool)

G00 Z5.000000
G00 X32.235003 Y125.425694

G01 Z-0.125000 F100.0(Penetrate)
G02 X32.696592 Y125.510419 Z-0.125000 I0.415064 J-0.961555 F400.000000
G02 X32.947842 Y125.394034 Z-0.125000 I-0.016202 J-0.364368
G02 X32.921281 Y125.268056 Z-0.125000 I-0.057811 J-0.053600
G02 X32.459704 Y125.183315 Z-0.125000 I-0.415054 J0.961314
G02 X32.208429 Y125.299694 Z-0.125000 I0.016042 J0.364093
G02 X32.235025 Y125.425698 Z-0.125000 I0.057842 J0.053600
G01 X32.235003 Y125.425694 Z-0.125000
G00 Z5.000000

(End cutting path id: path10)


(Start cutting path id: path10)
(Change tool to Default tool)

G00 Z5.000000
G00 X35.954150 Y125.425694

G01 Z-0.125000 F100.0(Penetrate)
G02 X36.415738 Y125.510419 Z-0.125000 I0.415063 J-0.961553 F400.000000
G02 X36.666989 Y125.394034 Z-0.125000 I-0.016202 J-0.364370
G02 X36.640428 Y125.268056 Z-0.125000 I-0.057811 J-0.053600
G02 X36.178850 Y125.183315 Z-0.125000 I-0.415055 J0.961317
G02 X35.927575 Y125.299694 Z-0.125000 I0.016042 J0.364092
G02 X35.954171 Y125.425698 Z-0.125000 I0.057842 J0.053600
G01 X35.954150 Y125.425694 Z-0.125000
G00 Z5.000000

(End cutting path id: path10)


(Start cutting path id: path10)
(Change tool to Default tool)

G00 Z5.000000
G00 X39.271951 Y128.812153

G01 Z-0.125000 F100.0(Penetrate)
G02 X39.730973 Y129.131851 Z-0.125000 I0.949014 J-0.873211 F400.000000
G02 X39.938842 Y129.086070 Z-0.125000 I0.070939 J-0.172705
G02 X39.939174 Y128.907251 Z-0.125000 I-0.096655 J-0.089589
G02 X39.480149 Y128.587550 Z-0.125000 I-0.948846 J0.872966
G02 X39.272282 Y128.633326 Z-0.125000 I-0.070943 J0.172696
G02 X39.271951 Y128.812153 Z-0.125000 I0.096655 J0.089592
G01 X39.271951 Y128.812153 Z-0.125000
G00 Z5.000000

(End cutting path id: path10)


(Start cutting path id: path10)
(Change tool to Default tool)

G00 Z5.000000
G00 X45.534909 Y130.319700

G01 Z-0.125000 F100.0(Penetrate)
G02 X45.586953 Y130.487766 Z-0.125000 I0.104338 J0.059782 F400.000000
G02 X46.278366 Y130.678720 Z-0.125000 I0.869096 J-1.799633
G02 X47.112576 Y130.684203 Z-0.125000 I0.450281 J-5.044586
G02 X47.181343 Y130.610010 Z-0.125000 I-0.005641 J-0.074193
G02 X46.541948 Y129.848023 Z-0.125000 I-0.773740 J0.000000
G02 X45.534909 Y130.319653 Z-0.125000 I-0.167917 J0.952404
G01 X45.534909 Y130.319700 Z-0.125000
G00 Z5.000000

(End cutting path id: path10)


(Start cutting path id: path10)
(Change tool to Default tool)

G00 Z5.000000
G00 X48.227350 Y130.240020

G01 Z-0.125000 F100.0(Penetrate)
G02 X48.688911 Y130.324753 Z-0.125000 I0.415046 J-0.961367 F400.000000
G02 X48.940189 Y130.208350 Z-0.125000 I-0.016203 J-0.364394
G02 X48.913609 Y130.082352 Z-0.125000 I-0.057831 J-0.053602
G02 X48.452051 Y129.997632 Z-0.125000 I-0.415030 J0.961443
G02 X48.200785 Y130.114001 Z-0.125000 I0.016043 J0.364094
G02 X48.227372 Y130.240015 Z-0.125000 I0.057845 J0.053607
G01 X48.227350 Y130.240020 Z-0.125000
G00 Z5.000000

(End cutting path id: path10)


(Start cutting path id: path10)
(Change tool to Default tool)

G00 Z5.000000
G00 X49.784739 Y129.577343

G01 Z-0.125000 F100.0(Penetrate)
G02 X49.918036 Y129.832645 Z-0.125000 I0.311136 J0.000000 F400.000000
G02 X50.342613 Y129.965945 Z-0.125000 I0.424577 J-0.609513
G02 X50.832582 Y129.898031 Z-0.125000 I-0.000000 J-1.801425
G02 X50.900486 Y129.808275 Z-0.125000 I-0.025369 J-0.089756
G02 X50.839460 Y129.691394 Z-0.125000 I-0.142443 J-0.000000
G02 X50.342613 Y129.419673 Z-0.125000 I-1.501760 J2.155894
G02 X49.922629 Y129.395077 Z-0.125000 I-0.245438 J0.592945
G02 X49.784739 Y129.577343 Z-0.125000 I0.051517 J0.182266
G01 X49.784739 Y129.577343 Z-0.125000
G00 Z5.000000

(End cutting path id: path10)


(Start cutting path id: path10)
(Change tool to Default tool)

G00 Z5.000000
G00 X51.644315 Y129.176162

G01 Z-0.125000 F100.0(Penetrate)
G02 X51.777611 Y129.431463 Z-0.125000 I0.311136 J0.000000 F400.000000
G02 X52.202188 Y129.564764 Z-0.125000 I0.424577 J-0.609510
G02 X52.692158 Y129.496851 Z-0.125000 I-0.000000 J-1.801433
G02 X52.760062 Y129.407094 Z-0.125000 I-0.025369 J-0.089757
G02 X52.699036 Y129.290213 Z-0.125000 I-0.142443 J0.000000
G02 X52.202188 Y129.018491 Z-0.125000 I-1.501775 J2.155915
G02 X51.782205 Y128.993895 Z-0.125000 I-0.245437 J0.592941
G02 X51.644315 Y129.176162 Z-0.125000 I0.051517 J0.182267
G01 X51.644315 Y129.176162 Z-0.125000
G00 Z5.000000

(End cutting path id: path10)


(Start cutting path id: path10)
(Change tool to Default tool)

G00 Z5.000000
G00 X53.776628 Y128.812153

G01 Z-0.125000 F100.0(Penetrate)
G02 X54.235651 Y129.131852 Z-0.125000 I0.949014 J-0.873211 F400.000000
G02 X54.443519 Y129.086070 Z-0.125000 I0.070939 J-0.172704
G02 X54.443846 Y128.907243 Z-0.125000 I-0.096656 J-0.089591
G02 X53.984826 Y128.587550 Z-0.125000 I-0.948979 J0.873180
G02 X53.776958 Y128.633326 Z-0.125000 I-0.070943 J0.172696
G02 X53.776628 Y128.812153 Z-0.125000 I0.096654 J0.089592
G01 X53.776628 Y128.812153 Z-0.125000
G00 Z5.000000

(End cutting path id: path10)


(Start cutting path id: path10)
(Change tool to Default tool)

G00 Z5.000000
G00 X55.636190 Y128.411002

G01 Z-0.125000 F100.0(Penetrate)
G02 X56.095212 Y128.730701 Z-0.125000 I0.949012 J-0.873206 F400.000000
G02 X56.303081 Y128.684920 Z-0.125000 I0.070939 J-0.172706
G02 X56.303407 Y128.506092 Z-0.125000 I-0.096658 J-0.089591
G02 X55.844388 Y128.186399 Z-0.125000 I-0.948977 J0.873174
G02 X55.636520 Y128.232175 Z-0.125000 I-0.070943 J0.172696
G02 X55.636190 Y128.411002 Z-0.125000 I0.096655 J0.089592
G01 X55.636190 Y128.411002 Z-0.125000
G00 Z5.000000

(End cutting path id: path10)


(Start cutting path id: path10)
(Change tool to Default tool)

G00 Z5.000000
G00 X56.851113 Y129.716284

G01 Z-0.125000 F100.0(Penetrate)
G03 X56.800841 Y129.844460 Z-0.125000 I-0.188538 J-0.000000 F400.000000
G03 X56.200262 Y130.418384 Z-0.125000 I-5.034165 J-4.666772
G03 X56.068388 Y130.410390 Z-0.125000 I-0.061754 J-0.072996
G03 X56.059848 Y130.266916 Z-0.125000 I0.082987 J-0.076931
G03 X56.701675 Y129.638225 Z-0.125000 I2.184445 J1.588124
G03 X56.851117 Y129.716297 Z-0.125000 I0.054328 J0.078072
G01 X56.851113 Y129.716284 Z-0.125000
G00 Z5.000000

(End cutting path id: path10)


(Start cutting path id: path10)
(Change tool to Default tool)

G00 Z5.000000
G00 X57.710828 Y128.728902

G01 Z-0.125000 F100.0(Penetrate)
G03 X57.361672 Y129.343608 Z-0.125000 I-1.248637 J-0.302717 F400.000000
G03 X57.015383 Y129.410750 Z-0.125000 I-0.223939 J-0.228406
G02 X56.106734 Y129.692897 Z-0.125000 I-0.284628 J0.687580
G02 X55.640900 Y131.526280 Z-0.125000 I2.466651 J1.602609
G03 X55.529720 Y131.805606 Z-0.125000 I-0.339381 J0.026706
G03 X55.369547 Y131.771396 Z-0.125000 I-0.067726 J-0.074974
G02 X55.201488 Y131.796398 Z-0.125000 I-0.080602 J0.035539
G02 X55.096636 Y134.036550 Z-0.125000 I15.236223 J1.835669
G02 X55.308885 Y136.853260 Z-0.125000 I28.907740 J-0.761949
G02 X55.456408 Y136.921559 Z-0.125000 I0.095060 J-0.011855
G03 X55.704760 Y137.012680 Z-0.125000 I0.090276 J0.137956
G03 X55.791263 Y138.051789 Z-0.125000 I-2.455758 J0.727589
G02 X56.153878 Y138.909747 Z-0.125000 I0.927415 J0.113638
G02 X57.552333 Y139.388115 Z-0.125000 I1.422135 J-1.874156
G03 X57.958778 Y139.554394 Z-0.125000 I-0.005940 J0.594407
G03 X58.064258 Y139.881222 Z-0.125000 I-0.252203 J0.261831
G02 X58.184951 Y140.109051 Z-0.125000 I0.205023 J0.037271
G02 X58.590160 Y140.113932 Z-0.125000 I0.208304 J-0.470697
G03 X58.864434 Y140.169078 Z-0.125000 I0.096038 J0.231984
G03 X58.903041 Y140.429273 Z-0.125000 I-0.157579 J0.156343
G02 X58.944574 Y140.534108 Z-0.125000 I0.065531 J0.034683
G02 X59.102371 Y140.497459 Z-0.125000 I0.049528 J-0.144783
G03 X59.662614 Y140.355067 Z-0.125000 I0.399668 J0.399159
G03 X59.778939 Y140.698072 Z-0.125000 I-0.063040 J0.212606
G02 X59.769702 Y140.861609 Z-0.125000 I0.122336 J0.088939
G02 X59.883189 Y140.881941 Z-0.125000 I0.065186 J-0.036959
G02 X60.282806 Y140.251338 Z-0.125000 I-0.799888 J-0.948816
G02 X60.755830 Y137.592606 Z-0.125000 I-15.696323 J-4.164028
G03 X61.352743 Y135.068017 Z-0.125000 I9.298563 J0.865687
G03 X62.000743 Y134.397348 Z-0.125000 I1.124521 J0.438128
G01 X62.987674 Y133.973178 Z-0.125000
G01 X61.927465 Y134.193960 Z-0.125000
G03 X60.878238 Y134.246722 Z-0.125000 I-0.693338 J-3.328872
G03 X59.510016 Y133.940082 Z-0.125000 I0.636077 J-6.043969
G03 X56.338035 Y132.310983 Z-0.125000 I4.277868 J-12.231932
G03 X56.269517 Y131.663225 Z-0.125000 I0.248588 J-0.353798
G03 X56.479178 Y131.624742 Z-0.125000 I0.130588 J0.121086
G03 X57.146202 Y132.097628 Z-0.125000 I-1.163709 J2.348329
G02 X60.176800 Y134.030016 Z-0.125000 I6.144732 J-6.294228
G02 X61.287766 Y133.665397 Z-0.125000 I0.329574 J-0.870637
G02 X61.498720 Y133.336790 Z-0.125000 I-40.781392 J-26.412245
G02 X62.760504 Y131.350925 Z-0.125000 I-1510.642911 J-961.229793
G03 X64.084466 Y129.418819 Z-0.125000 I27.955012 J17.736311
G03 X64.598182 Y128.862712 Z-0.125000 I2.782286 J2.054863
G02 X64.542289 Y128.597104 Z-0.125000 I-0.101873 J-0.117247
G02 X62.965782 Y128.356800 Z-0.125000 I-1.587218 J5.121429
G03 X60.762955 Y128.276693 Z-0.125000 I0.063331 J-32.068861
G03 X59.340313 Y128.100016 Z-0.125000 I0.959170 J-13.539492
G02 X58.163144 Y128.213327 Z-0.125000 I-0.385740 J2.163976
G02 X57.710798 Y128.728920 Z-0.125000 I0.266213 J0.689783
G01 X57.710828 Y128.728902 Z-0.125000
G00 Z5.000000

(End cutting path id: path10)


(Start cutting path id: path10)
(Change tool to Default tool)

G00 Z5.000000
G00 X56.737835 Y121.964808

G01 Z-0.125000 F100.0(Penetrate)
G02 X56.727554 Y122.489620 Z-0.125000 I1.177800 J0.285581 F400.000000
G02 X56.854024 Y122.541908 Z-0.125000 I0.080768 J-0.016263
G03 X57.089112 Y122.536281 Z-0.125000 I0.121992 J0.183008
G03 X57.306181 Y122.813005 Z-0.125000 I-0.252973 J0.421936
G02 X57.539162 Y123.044987 Z-0.125000 I0.335050 J-0.103509
G02 X57.895818 Y122.992407 Z-0.125000 I0.122731 J-0.403407
G02 X58.135451 Y122.416048 Z-0.125000 I-0.311745 J-0.467610
G02 X57.632943 Y121.659560 Z-0.125000 I-1.167247 J0.230217
G02 X57.083230 Y121.586519 Z-0.125000 I-0.348427 J0.517177
G02 X56.737839 Y121.964795 Z-0.125000 I0.171764 J0.503652
G01 X56.737835 Y121.964808 Z-0.125000
G00 Z5.000000

(End cutting path id: path10)


(Start cutting path id: path10)
(Change tool to Default tool)

G00 Z5.000000
G00 X60.330804 Y122.216787

G01 Z-0.125000 F100.0(Penetrate)
G02 X60.090873 Y122.486461 Z-0.125000 I0.142942 J0.368749 F400.000000
G02 X60.059494 Y123.265159 Z-0.125000 I1.785043 J0.461912
G03 X59.992952 Y123.390847 Z-0.125000 I-0.114308 J0.019941
G03 X59.880019 Y123.346229 Z-0.125000 I-0.034823 J-0.077092
G03 X59.880765 Y121.888334 Z-0.125000 I1.751181 J-0.728052
G03 X60.530268 Y121.786662 Z-0.125000 I0.355941 J0.148409
G03 X60.559712 Y122.002153 Z-0.125000 I-0.153435 J0.130722
G03 X60.330808 Y122.216775 Z-0.125000 I-0.380387 J-0.176321
G01 X60.330804 Y122.216787 Z-0.125000
G00 Z5.000000

(End cutting path id: path10)


(Start cutting path id: path10)
(Change tool to Default tool)

G00 Z5.000000
G00 X62.801750 Y121.818122

G01 Z-0.125000 F100.0(Penetrate)
G03 X62.657822 Y122.201173 Z-0.125000 I-0.581692 J0.000000 F400.000000
G03 X62.336853 Y122.349382 Z-0.125000 I-0.326705 J-0.285873
G02 X62.232951 Y122.464494 Z-0.125000 I0.001305 J0.105626
G02 X62.368003 Y122.694739 Z-0.125000 I0.311709 J-0.028105
G03 X62.486192 Y122.994655 Z-0.125000 I-0.162178 J0.237155
G03 X62.233645 Y123.294928 Z-0.125000 I-0.415324 J-0.092971
G03 X61.910310 Y123.193861 Z-0.125000 I-0.101117 J-0.244249
G03 X61.815087 Y122.645330 Z-0.125000 I0.600190 J-0.386721
G02 X61.881087 Y121.756193 Z-0.125000 I-2.822481 J-0.656528
G02 X61.695047 Y121.155459 Z-0.125000 I-1.436453 J0.115677
G03 X61.503661 Y120.576136 Z-0.125000 I1.324655 J-0.758890
G03 X61.581324 Y120.195318 Z-0.125000 I0.615195 J-0.072867
G03 X62.245764 Y120.153885 Z-0.125000 I0.345868 J0.198147
G03 X62.801715 Y121.818113 Z-0.125000 I-2.212940 J1.664228
G01 X62.801750 Y121.818122 Z-0.125000
G00 Z5.000000

(End cutting path id: path10)


(Start cutting path id: path10)
(Change tool to Default tool)

G00 Z5.000000
G00 X66.759984 Y117.328273

G01 Z-0.125000 F100.0(Penetrate)
G03 X66.145162 Y117.799626 Z-0.125000 I-1.686902 J-1.563702 F400.000000
G03 X65.617673 Y117.930071 Z-0.125000 I-0.527489 J-1.001295
G02 X65.245169 Y118.295008 Z-0.125000 I0.000000 J0.372582
G02 X65.572123 Y120.149546 Z-0.125000 I4.857644 J0.099691
G02 X66.430817 Y121.113644 Z-0.125000 I1.717442 J-0.665219
G02 X67.450675 Y121.139656 Z-0.125000 I0.536208 J-1.017358
G02 X67.499889 Y120.938105 Z-0.125000 I-0.055818 J-0.120413
G02 X67.162538 Y120.766669 Z-0.125000 I-0.349405 J0.269920
G03 X66.327238 Y120.468496 Z-0.125000 I0.039112 J-1.428659
G03 X65.757451 Y119.679831 Z-0.125000 I1.052206 J-1.360347
G03 X65.888347 Y118.892738 Z-0.125000 I0.779624 J-0.274777
G03 X66.365343 Y118.910091 Z-0.125000 I0.232144 J0.183330
G02 X66.759125 Y119.216426 Z-0.125000 I0.668612 J-0.453213
G02 X66.917978 Y119.110053 Z-0.125000 I0.040356 J-0.111532
G03 X67.042110 Y119.049754 Z-0.125000 I0.078365 J0.003402
G03 X67.337055 Y119.411167 Z-0.125000 I-0.522886 J0.727777
G02 X68.293249 Y120.245613 Z-0.125000 I1.382764 J-0.619438
G02 X68.953265 Y119.885362 Z-0.125000 I0.149746 J-0.510383
G02 X69.073508 Y119.101084 Z-0.125000 I-2.848812 J-0.838127
G02 X68.972295 Y118.835971 Z-0.125000 I-0.379777 J-0.006888
G02 X68.851978 Y118.852686 Z-0.125000 I-0.054323 J0.050357
G02 X68.752374 Y119.267385 Z-0.125000 I0.813490 J0.414699
G03 X68.323016 Y119.558946 Z-0.125000 I-0.313673 J0.000000
G03 X67.461586 Y118.755227 Z-0.125000 I0.596141 J-1.502449
G03 X67.547620 Y117.676472 Z-0.125000 I0.970816 J-0.465383
G03 X68.206937 Y117.679958 Z-0.125000 I0.328464 J0.227706
G02 X68.607296 Y117.907623 Z-0.125000 I0.431061 J-0.292181
G02 X68.890089 Y117.720298 Z-0.125000 I0.016654 J-0.281980
G02 X68.888733 Y117.377058 Z-0.125000 I-0.477108 J-0.169737
G02 X68.748118 Y117.331001 Z-0.125000 I-0.088411 J0.032243
G03 X68.502879 Y117.347358 Z-0.125000 I-0.136858 J-0.205299
G03 X68.380473 Y117.151252 Z-0.125000 I0.095888 J-0.196106
G02 X67.924597 Y116.742440 Z-0.125000 I-0.411242 J0.000000
G02 X66.759986 Y117.328182 Z-0.125000 I0.202299 J1.852873
G01 X66.759984 Y117.328273 Z-0.125000
G00 Z5.000000

(End cutting path id: path10)


(Start cutting path id: path10)
(Change tool to Default tool)

G00 Z5.000000
G00 X67.078770 Y115.923978

G01 Z-0.125000 F100.0(Penetrate)
G02 X67.362253 Y116.232629 Z-0.125000 I0.823649 J-0.471979 F400.000000
G02 X67.658588 Y116.325159 Z-0.125000 I0.296335 J-0.428253
G02 X67.899165 Y116.215766 Z-0.125000 I0.000000 J-0.319235
G02 X68.008540 Y115.923978 Z-0.125000 I-0.334526 J-0.291788
G02 X67.870575 Y115.660752 Z-0.125000 I-0.320089 J0.000000
G02 X67.428722 Y115.522796 Z-0.125000 I-0.441853 J0.638616
G02 X67.103814 Y115.670524 Z-0.125000 I0.000000 J0.431160
G02 X67.078770 Y115.923978 Z-0.125000 I0.165428 J0.144311
G01 X67.078770 Y115.923978 Z-0.125000
G00 Z5.000000

(End cutting path id: path10)


(Start cutting path id: path10)
(Change tool to Default tool)

G00 Z5.000000
G00 X68.701489 Y115.079136

G01 Z-0.125000 F100.0(Penetrate)
G03 X68.866794 Y115.392330 Z-0.125000 I-0.214043 J0.313194 F400.000000
G03 X68.701489 Y115.643115 Z-0.125000 I-0.272887 J-0.000000
G02 X68.536658 Y115.804516 Z-0.125000 I0.125894 J0.293438
G02 X68.588328 Y115.892265 Z-0.125000 I0.056651 J0.025729
G02 X68.950386 Y115.822019 Z-0.125000 I0.054892 J-0.685252
G02 X69.704071 Y115.334901 Z-0.125000 I-1.816892 J-3.637774
G02 X69.757872 Y114.981620 Z-0.125000 I-0.168389 J-0.206381
G02 X69.310255 Y114.739245 Z-0.125000 I-0.450822 J0.298059
G02 X68.709889 Y114.893638 Z-0.125000 I-0.006817 J1.217968
G02 X68.701485 Y115.079136 Z-0.125000 I0.053212 J0.095350
G01 X68.701489 Y115.079136 Z-0.125000
G00 Z5.000000

(End cutting path id: path10)


(Start cutting path id: path10)
(Change tool to Default tool)

G00 Z5.000000
G00 X69.496215 Y116.157989

G01 Z-0.125000 F100.0(Penetrate)
G02 X69.087969 Y116.573106 Z-0.125000 I0.594121 J0.992590 F400.000000
G02 X69.172173 Y116.720450 Z-0.125000 I0.085163 J0.049063
G03 X69.635126 Y116.931974 Z-0.125000 I-0.006008 J0.625534
G03 X70.240060 Y117.929962 Z-0.125000 I-2.466230 J2.177250
G02 X70.817570 Y118.451231 Z-0.125000 I0.801952 J-0.307934
G02 X71.169848 Y118.181628 Z-0.125000 I0.072974 J-0.269603
G02 X70.954841 Y117.548067 Z-0.125000 I-1.040962 J0.000000
G02 X70.611975 Y117.454344 Z-0.125000 I-0.233124 J0.178821
G03 X70.465097 Y117.364190 Z-0.125000 I-0.040053 J-0.099469
G03 X70.571745 Y116.992884 Z-0.125000 I0.536747 J-0.046802
G02 X70.605240 Y116.678329 Z-0.125000 I-0.245548 J-0.185208
G02 X70.385782 Y116.591702 Z-0.125000 I-0.155229 J0.071955
G03 X70.163698 Y116.507031 Z-0.125000 I-0.065510 J-0.161760
G03 X70.192767 Y116.199673 Z-0.125000 I0.264179 J-0.130069
G02 X70.104852 Y116.009233 Z-0.125000 I-0.095018 J-0.071649
G02 X69.496379 Y116.158033 Z-0.125000 I-0.063349 J1.059436
G01 X69.496215 Y116.157989 Z-0.125000
G00 Z5.000000

(End cutting path id: path10)


(Start cutting path id: path10)
(Change tool to Default tool)

G00 Z5.000000
G00 X69.448437 Y118.609876

G01 Z-0.125000 F100.0(Penetrate)
G02 X69.936731 Y119.434048 Z-0.125000 I5.006899 J-2.409684 F400.000000
G02 X70.266789 Y119.753344 Z-0.125000 I1.038392 J-0.743152
G02 X70.445479 Y119.617482 Z-0.125000 I0.065872 J-0.098804
G02 X69.931458 Y118.732516 Z-0.125000 I-2.344970 J0.770283
G02 X69.540653 Y118.497093 Z-0.125000 I-0.584769 J0.528643
G02 X69.448419 Y118.609893 Z-0.125000 I-0.019784 J0.077932
G01 X69.448437 Y118.609876 Z-0.125000
G00 Z5.000000

(End cutting path id: path10)


(Start cutting path id: path10)
(Change tool to Default tool)

G00 Z5.000000
G00 X71.637041 Y118.196679

G01 Z-0.125000 F100.0(Penetrate)
G03 X71.891436 Y118.470407 Z-0.125000 I-0.186156 J0.428085 F400.000000
G03 X71.858519 Y118.828788 Z-0.125000 I-0.408624 J0.143171
G02 X71.887295 Y118.963954 Z-0.125000 I0.089902 J0.051507
G02 X72.048246 Y118.967417 Z-0.125000 I0.082955 J-0.113535
G02 X72.233860 Y118.338661 Z-0.125000 I-0.283700 J-0.425526
G02 X71.612800 Y117.961826 Z-0.125000 I-0.576268 J0.249545
G02 X71.533910 Y118.055768 Z-0.125000 I0.006059 J0.085184
G02 X71.637020 Y118.196705 Z-0.125000 I0.172130 J-0.017745
G01 X71.637041 Y118.196679 Z-0.125000
G00 Z5.000000

(End cutting path id: path10)


(Start cutting path id: path10)
(Change tool to Default tool)

G00 Z5.000000
G00 X72.926510 Y120.566789

G01 Z-0.125000 F100.0(Penetrate)
G02 X72.921308 Y121.476326 Z-0.125000 I6.407347 J0.491428 F400.000000
G02 X72.990190 Y121.540863 Z-0.125000 I0.068882 J-0.004491
G02 X73.754047 Y120.884054 Z-0.125000 I0.000000 J-0.772581
G02 X73.259337 Y119.764791 Z-0.125000 I-1.127036 J-0.170816
G02 X73.107456 Y119.810895 Z-0.125000 I-0.056990 J0.085482
G02 X72.926515 Y120.566789 Z-0.125000 I2.275575 J0.944315
