%
(Header)
(Generated by gcodetools from Inkscape.)
(Using default header. To add your own header create file "header" in the output dir.)
M3
(Header end.)
G21 (All units in mm)

(Start cutting path id: path9)
(Change tool to Default tool)

G00 Z5.000000
G00 X10.826658 Y3.898540

G01 Z-0.125000 F100.0(Penetrate)
G01 X4.039214 Y4.007850 Z-0.125000 F400.000000
G01 X4.039214 Y75.813313 Z-0.125000
G01 X4.039214 Y147.618742 Z-0.125000
G01 X64.289406 Y147.618742 Z-0.125000
G01 X124.539600 Y147.618742 Z-0.125000
G01 X124.539600 Y75.804264 Z-0.125000
G01 X124.539600 Y3.989790 Z-0.125000
G01 X114.404920 Y3.993790 Z-0.125000
G03 X104.270258 Y3.986949 Z-0.125000 I-2.248149 J-4176.684628
G03 X60.942174 Y3.893550 Z-0.125000 I153.041892 J-81037.466533
G02 X17.614472 Y3.843049 Z-0.125000 I-41.705679 J17194.918449
G02 X10.826658 Y3.897550 Z-0.125000 I0.040347 J427.742245
G01 X10.826658 Y3.898540 Z-0.125000
G00 Z5.000000

(End cutting path id: path9)


(Start cutting path id: path9)
(Change tool to Default tool)

G00 Z5.000000
G00 X17.829423 Y4.892480

G01 Z-0.125000 F100.0(Penetrate)
G02 X17.921337 Y4.979198 Z-0.125000 I0.091914 J-0.005352 F400.000000
G02 X18.046359 Y4.892480 Z-0.125000 I0.000000 J-0.133481
G03 X18.404316 Y4.636591 Z-0.125000 I0.369160 J0.138095
G03 X35.682952 Y4.390990 Z-0.125000 I17.278636 J607.675469
G03 X52.808874 Y4.734562 Z-0.125000 I-0.000000 J427.007077
G03 X53.175094 Y5.093080 Z-0.125000 I-0.015332 J0.381964
G02 X53.272210 Y5.184411 Z-0.125000 I0.097116 J-0.005968
G02 X53.388310 Y5.093080 Z-0.125000 I0.000000 J-0.119459
G03 X53.831083 Y4.737617 Z-0.125000 I0.451977 J0.109497
G03 X88.856519 Y4.390990 Z-0.125000 I35.025436 J1769.424502
G01 X124.154650 Y4.390990 Z-0.125000
G01 X124.161650 Y75.804264 Z-0.125000
G01 X124.168650 Y147.217544 Z-0.125000
G01 X64.227726 Y147.217544 Z-0.125000
G03 X4.477629 Y147.135203 Z-0.125000 I-0.000000 J-21678.556995
G01 X4.442123 Y147.052760 Z-0.125000
G03 X4.601587 Y146.892461 Z-0.125000 I2.928707 J2.753986
G03 X16.684317 Y135.419842 Z-0.125000 I15056.401718 J15844.998741
G03 X28.826562 Y124.281967 Z-0.125000 I336.744364 J354.923147
G03 X29.329419 Y124.206883 Z-0.125000 I0.309079 J0.348555
G02 X32.711769 Y125.281153 Z-0.125000 I6.091564 J-13.317532
G02 X35.418701 Y125.353167 Z-0.125000 I1.577337 J-8.379076
G02 X41.342967 Y123.294586 Z-0.125000 I-2.075229 J-15.526009
G02 X45.260640 Y119.507172 Z-0.125000 I-6.038604 J-10.166201
G03 X46.493614 Y118.399396 Z-0.125000 I2.625331 J1.681990
G03 X48.390050 Y117.945302 Z-0.125000 I1.927160 J3.861314
G03 X49.825393 Y118.676210 Z-0.125000 I0.012348 J1.750556
G03 X50.147300 Y120.397674 Z-0.125000 I-1.682224 J1.205399
G03 X49.400583 Y121.593325 Z-0.125000 I-2.263995 J-0.582928
G03 X44.565091 Y125.159773 Z-0.125000 I-27.565104 J-32.312285
G02 X39.419454 Y128.514146 Z-0.125000 I126.406499 J199.532566
G02 X39.180517 Y128.770530 Z-0.125000 I0.428261 J0.638648
G02 X39.344131 Y128.994263 Z-0.125000 I0.131639 J0.075425
G02 X47.442362 Y126.989253 Z-0.125000 I-28.964708 J-134.345262
G02 X52.214650 Y124.891790 Z-0.125000 I-5.000588 J-17.855513
G02 X54.281000 Y122.748048 Z-0.125000 I-3.188369 J-5.141013
G03 X55.506195 Y121.109157 Z-0.125000 I7.209557 J4.112282
G03 X55.868010 Y121.096689 Z-0.125000 I0.187326 J0.180027
G03 X57.754678 Y123.581640 Z-0.125000 I-5.694482 J6.282155
G03 X57.561724 Y124.478189 Z-0.125000 I-0.654996 J0.328071
G03 X57.397218 Y124.583867 Z-0.125000 I-0.554641 J-0.682517
G03 X51.830264 Y127.315086 Z-0.125000 I-392.036993 J-792.036974
G02 X46.292491 Y130.084093 Z-0.125000 I122.363872 J251.639105
G02 X45.959113 Y130.332443 Z-0.125000 I0.576602 J1.121949
G02 X46.012686 Y130.447003 Z-0.125000 I0.048893 J0.046942
G02 X47.818684 Y130.203705 Z-0.125000 I-0.971425 J-14.035502
G02 X49.102051 Y129.789764 Z-0.125000 I-1.177402 J-5.846791
G02 X49.080542 Y129.632148 Z-0.125000 I-0.034244 J-0.075602
G03 X49.026404 Y129.368689 Z-0.125000 I0.022020 J-0.141817
G03 X53.115425 Y127.106011 Z-0.125000 I22.991943 J36.724021
G03 X57.990867 Y125.071576 Z-0.125000 I20.536983 J42.356927
G03 X58.561528 Y125.184592 Z-0.125000 I0.189915 J0.538298
G03 X58.545741 Y126.593185 Z-0.125000 I-0.624350 J0.697387
G03 X54.861043 Y128.350996 Z-0.125000 I-5.111272 J-5.973362
G02 X52.218546 Y128.951340 Z-0.125000 I6.011190 J32.574914
G02 X52.182808 Y129.075868 Z-0.125000 I0.019775 J0.073067
G02 X52.402216 Y129.156855 Z-0.125000 I0.189488 J-0.175655
G02 X54.644418 Y128.789156 Z-0.125000 I-2.831018 J-24.283567
G03 X56.880638 Y128.440418 Z-0.125000 I4.318762 J20.349237
G03 X57.139091 Y128.538141 Z-0.125000 I0.031043 J0.308532
G03 X57.164809 Y128.772811 Z-0.125000 I-0.145278 J0.134666
G03 X56.324752 Y129.930529 Z-0.125000 I-6.276576 J-3.670740
G02 X55.535853 Y131.150779 Z-0.125000 I3.580465 J3.179933
G02 X55.471915 Y131.832035 Z-0.125000 I0.968915 J0.434564
G02 X55.584637 Y131.879504 Z-0.125000 I0.073776 J-0.017621
G02 X55.692225 Y131.700216 Z-0.125000 I-0.113821 J-0.190227
G03 X55.919392 Y130.917393 Z-0.125000 I1.763257 J0.087306
G03 X56.605324 Y130.088451 Z-0.125000 I2.675138 J1.515351
G02 X57.382555 Y129.289065 Z-0.125000 I-3.770119 J-4.443166
G02 X57.650047 Y128.784670 Z-0.125000 I-1.192459 J-0.955514
G03 X58.018221 Y128.479698 Z-0.125000 I0.417177 J0.128909
G03 X62.916723 Y128.189847 Z-0.125000 I5.162550 J45.710023
G01 X68.008627 Y128.160787 Z-0.125000
G01 X68.008592 Y129.608817 Z-0.125000
G03 X67.743766 Y130.969819 Z-0.125000 I-3.630120 J-0.000090
G03 X66.710463 Y132.818402 Z-0.125000 I-7.850638 J-3.175187
G02 X65.670854 Y134.665345 Z-0.125000 I6.988097 J5.149527
G02 X65.408082 Y135.984152 Z-0.125000 I3.231614 J1.329480
G01 X65.403782 Y137.388343 Z-0.125000
G01 X67.616879 Y137.253444 Z-0.125000
G01 X69.829980 Y137.118546 Z-0.125000
G01 X69.942017 Y135.272006 Z-0.125000
G03 X70.433379 Y133.662345 Z-0.125000 I3.597146 J0.218232
G03 X71.515458 Y132.598518 Z-0.125000 I2.524977 J1.486062
G02 X72.833772 Y131.660667 Z-0.125000 I-3.859887 J-6.821236
G02 X73.138774 Y131.169772 Z-0.125000 I-0.660754 J-0.750737
G02 X73.052497 Y131.080925 Z-0.125000 I-0.069598 J-0.018729
G02 X72.793104 Y131.252012 Z-0.125000 I0.104988 J0.441359
G03 X71.416329 Y132.283731 Z-0.125000 I-2.421359 J-1.796700
G03 X68.670491 Y132.774571 Z-0.125000 I-2.745838 J-7.434907
G03 X67.806041 Y132.468334 Z-0.125000 I-0.000000 J-1.373210
G03 X67.764915 Y132.040885 Z-0.125000 I0.189534 J-0.233938
G02 X68.284197 Y131.272180 Z-0.125000 I-3.425366 J-2.873680
G02 X68.380429 Y130.887440 Z-0.125000 I-0.720990 J-0.384740
G03 X68.542538 Y130.598576 Z-0.125000 I0.338420 J0.000000
G03 X69.444245 Y130.238168 Z-0.125000 I1.514950 J2.482068
G02 X70.430457 Y129.857673 Z-0.125000 I-0.718546 J-3.330757
G02 X71.675735 Y128.948757 Z-0.125000 I-3.626591 J-6.276193
G03 X72.661486 Y128.305630 Z-0.125000 I2.498552 J2.752634
G03 X72.849101 Y128.426029 Z-0.125000 I0.054267 J0.121813
G02 X72.966717 Y128.543046 Z-0.125000 I0.118282 J-0.001269
G02 X73.169379 Y128.427829 Z-0.125000 I0.001315 J-0.233532
G03 X73.863330 Y128.413152 Z-0.125000 I0.351499 J0.206549
G03 X75.845581 Y132.570524 Z-0.125000 I-15.078223 J9.740614
G02 X76.797269 Y135.047715 Z-0.125000 I24.973058 J-8.172757
G02 X77.003266 Y135.181720 Z-0.125000 I0.205997 J-0.091329
G02 X77.267360 Y134.906944 Z-0.125000 I0.000000 J-0.264302
G02 X76.962606 Y134.158662 Z-0.125000 I-1.186581 J0.047062
G03 X76.690516 Y133.735116 Z-0.125000 I1.154540 J-1.040856
G03 X75.866333 Y131.625065 Z-0.125000 I28.878984 J-12.496083
G03 X75.454646 Y129.508446 Z-0.125000 I7.078717 J-2.475171
G03 X75.715841 Y128.481246 Z-0.125000 I1.809747 J-0.086629
G02 X76.198506 Y127.446107 Z-0.125000 I-4.465366 J-2.712212
G02 X76.550064 Y126.019926 Z-0.125000 I-8.183301 J-2.773628
G01 X76.782140 Y124.549969 Z-0.125000
G01 X77.316196 Y125.552961 Z-0.125000
G03 X77.697151 Y126.601323 Z-0.125000 I-3.510048 J1.868884
G03 X78.077604 Y129.163745 Z-0.125000 I-20.983858 J4.425008
G01 X78.304965 Y131.771536 Z-0.125000
G01 X78.363495 Y129.444719 Z-0.125000
G02 X77.322475 Y125.532641 Z-0.125000 I-7.191490 J-0.180863
G02 X74.005903 Y122.261735 Z-0.125000 I-8.143485 J4.940288
G03 X73.023136 Y121.475407 Z-0.125000 I2.232069 J-3.796982
G03 X72.843291 Y121.020259 Z-0.125000 I0.486016 J-0.455148
G03 X73.039274 Y120.559123 Z-0.125000 I0.640504 J0.000000
G03 X75.632650 Y118.331394 Z-0.125000 I20.695705 J21.469200
G02 X78.313923 Y116.147121 Z-0.125000 I-33.585229 J-43.964885
G02 X78.422013 Y115.910166 Z-0.125000 I-0.205682 J-0.236955
G02 X78.290324 Y115.812936 Z-0.125000 I-0.101739 J0.000000
G02 X74.981799 Y116.969924 Z-0.125000 I13.728142 J44.566034
G03 X71.540538 Y118.316198 Z-0.125000 I-624.824919 J-1592.066570
G03 X71.505093 Y118.325733 Z-0.125000 I-0.061265 J-0.157101
G01 X71.479785 Y118.311992 Z-0.125000
G03 X70.796048 Y116.722513 Z-0.125000 I76.920916 J-34.030422
G02 X70.095861 Y115.269226 Z-0.125000 I-14.037003 J5.867648
G02 X69.991226 Y115.256317 Z-0.125000 I-0.056972 J0.031274
G02 X69.955366 Y115.416465 Z-0.125000 I0.119560 J0.110860
G02 X70.642168 Y117.309013 Z-0.125000 I23.396543 J-7.419660
G03 X71.217678 Y119.175242 Z-0.125000 I-10.051063 J4.121410
G03 X71.111576 Y119.521014 Z-0.125000 I-0.364427 J0.077339
G03 X70.756516 Y119.757837 Z-0.125000 I-0.835929 J-0.868700
G03 X67.822442 Y120.951669 Z-0.125000 I-26.482673 J-60.883893
G02 X64.902916 Y122.197277 Z-0.125000 I13.835864 J36.473551
G02 X62.176706 Y123.636938 Z-0.125000 I15.806922 J33.233805
G03 X59.519319 Y124.793184 Z-0.125000 I-6.232258 J-10.691684
G03 X58.736491 Y124.674951 Z-0.125000 I-0.266795 J-0.884220
G03 X58.047024 Y124.113608 Z-0.125000 I2.748856 J-4.080360
G03 X57.966700 Y123.922826 Z-0.125000 I0.186407 J-0.190782
G03 X58.043647 Y123.720025 Z-0.125000 I0.305724 J0.000000
G03 X61.074161 Y120.417368 Z-0.125000 I97.687873 J86.596545
G02 X64.018666 Y117.144443 Z-0.125000 I-59.131930 J-56.159346
G02 X64.014916 Y116.965599 Z-0.125000 I-0.102485 J-0.087313
G03 X64.210557 Y116.094585 Z-0.125000 I0.397242 J-0.368253
G03 X67.440977 Y115.591745 Z-0.125000 I2.704003 J6.743364
G02 X68.677304 Y115.561648 Z-0.125000 I0.463325 J-6.375503
G02 X68.987027 Y115.403451 Z-0.125000 I-0.061157 J-0.502028
G02 X69.004366 Y115.228229 Z-0.125000 I-0.106817 J-0.099038
G02 X68.814214 Y115.121813 Z-0.125000 I-0.190152 J0.116679
G03 X68.578817 Y114.923315 Z-0.125000 I0.000000 J-0.238826
G03 X68.380311 Y112.589086 Z-0.125000 I13.624813 J-2.334229
G03 X68.717160 Y110.195244 Z-0.125000 I8.674440 J0.000000
G03 X69.403077 Y109.026892 Z-0.125000 I2.618693 J0.751864
G03 X70.530467 Y108.193895 Z-0.125000 I3.276851 J3.255524
G03 X71.900651 Y107.713842 Z-0.125000 I2.305843 J4.385978
G02 X74.319514 Y106.829063 Z-0.125000 I-1.519851 J-7.903867
G02 X77.380496 Y104.638852 Z-0.125000 I-8.411085 J-14.989196
G01 X79.128342 Y103.072210 Z-0.125000
G01 X79.240076 Y105.385928 Z-0.125000
G02 X79.745868 Y107.235997 Z-0.125000 I4.416674 J-0.213304
G02 X80.397787 Y107.580232 Z-0.125000 I0.577817 J-0.304855
G03 X81.330055 Y107.798644 Z-0.125000 I0.161075 J1.411313
G03 X84.011217 Y109.916262 Z-0.125000 I-9.818686 J15.187801
G03 X89.654123 Y117.929480 Z-0.125000 I-17.554612 J18.355428
G03 X90.959841 Y125.501977 Z-0.125000 I-14.260311 J6.357711
G03 X90.585125 Y128.126967 Z-0.125000 I-20.694654 J-1.614911
G03 X89.819095 Y130.969143 Z-0.125000 I-25.044171 J-5.225646
G01 X88.885838 Y133.777529 Z-0.125000
G01 X91.185199 Y131.121296 Z-0.125000
G02 X96.662063 Y122.596054 Z-0.125000 I-26.977462 J-23.352978
G02 X100.419690 Y110.909230 Z-0.125000 I-47.634599 J-21.763301
G02 X101.460883 Y101.567087 Z-0.125000 I-55.886790 J-10.957743
G02 X100.976690 Y91.283058 Z-0.125000 I-68.291711 J-1.938099
G02 X100.265217 Y86.558336 Z-0.125000 I-87.833199 J10.810447
G02 X100.061140 Y86.148493 Z-0.125000 I-0.800100 J0.142670
G02 X99.878375 Y86.202051 Z-0.125000 I-0.078031 J0.072343
G02 X99.510096 Y89.220781 Z-0.125000 I26.707038 J4.790032
G03 X97.651767 Y99.320053 Z-0.125000 I-44.023095 J-2.879914
G03 X95.514600 Y102.200803 Z-0.125000 I-5.144783 J-1.583670
G03 X94.888371 Y102.163524 Z-0.125000 I-0.288712 J-0.428561
G03 X92.943284 Y99.982811 Z-0.125000 I7.323231 J-8.489773
G03 X91.177640 Y97.226794 Z-0.125000 I48.519946 J-33.027928
G03 X88.895870 Y93.259534 Z-0.125000 I98.318042 J-59.187434
G03 X87.074754 Y89.167568 Z-0.125000 I23.601260 J-12.954885
G03 X86.878880 Y87.474000 Z-0.125000 I3.683374 J-1.284122
G02 X86.906831 Y85.712537 Z-0.125000 I-9.823455 J-1.036833
G02 X86.591435 Y83.570566 Z-0.125000 I-14.848818 J1.092220
G02 X85.977580 Y82.135651 Z-0.125000 I-4.131989 J0.918898
G02 X85.628629 Y82.131505 Z-0.125000 I-0.175898 J0.117685
G03 X85.322722 Y82.069154 Z-0.125000 I-0.139317 J-0.098080
G03 X84.917261 Y78.814670 Z-0.125000 I18.384157 J-3.942897
G02 X84.493168 Y75.344260 Z-0.125000 I-20.581356 J0.753979
G02 X84.020967 Y74.537779 Z-0.125000 I-1.440350 J0.301856
G03 X83.472544 Y73.767622 Z-0.125000 I1.341349 J-1.535506
G03 X83.208039 Y72.530494 Z-0.125000 I3.383241 J-1.370198
G01 X83.111623 Y72.520052 Z-0.125000
G02 X82.872881 Y73.831602 Z-0.125000 I8.962843 J2.309017
G03 X81.758420 Y78.384997 Z-0.125000 I-17.692302 J-1.917176
G03 X79.596997 Y82.224802 Z-0.125000 I-14.649228 J-5.717806
G01 X78.830277 Y83.226580 Z-0.125000
G01 X79.370025 Y81.257126 Z-0.125000
G02 X79.820989 Y79.334366 Z-0.125000 I-25.664000 J-7.033498
G02 X79.858175 Y78.898576 Z-0.125000 I-1.988555 J-0.389163
G01 X79.789077 Y78.883393 Z-0.125000
G02 X79.341475 Y80.016995 Z-0.125000 I6.887056 J3.374517
G03 X79.000457 Y80.682378 Z-0.125000 I-2.029430 J-0.620030
G03 X78.858170 Y80.631438 Z-0.125000 I-0.063072 J-0.048017
G03 X78.948698 Y79.471808 Z-0.125000 I14.168776 J0.522759
G03 X79.527395 Y74.977782 Z-0.125000 I246.483044 J29.455404
G02 X80.425266 Y64.543704 Z-0.125000 I-101.052461 J-13.951416
G02 X79.974209 Y62.026835 Z-0.125000 I-6.077524 J-0.209678
G01 X79.203769 Y60.147993 Z-0.125000
G01 X80.465051 Y61.185764 Z-0.125000
G03 X81.481634 Y62.356885 Z-0.125000 I-2.956254 J3.592933
G03 X81.874265 Y63.497499 Z-0.125000 I-2.403802 J1.465340
G02 X81.974951 Y63.529593 Z-0.125000 I0.057590 J-0.006688
G02 X82.081728 Y63.266957 Z-0.125000 I-0.310180 J-0.279130
G03 X82.286650 Y61.913696 Z-0.125000 I6.196879 J0.246236
G03 X82.483546 Y61.762465 Z-0.125000 I0.196896 J0.052560
G03 X83.346720 Y62.534810 Z-0.125000 I0.000000 J0.868515
G03 X83.172377 Y67.944790 Z-0.125000 I-18.851255 J2.100294
G02 X83.330672 Y68.689861 Z-0.125000 I0.999234 J0.177058
G02 X83.965847 Y69.119316 Z-0.125000 I0.851752 J-0.575317
G03 X84.922419 Y69.357615 Z-0.125000 I-3.263563 J15.139524
G03 X86.465693 Y69.827237 Z-0.125000 I-11.318866 J39.966723
G02 X90.825505 Y69.719376 Z-0.125000 I2.027238 J-6.224850
G02 X100.750900 Y64.379903 Z-0.125000 I-15.578244 J-40.852712
G02 X104.218328 Y61.711165 Z-0.125000 I-38.484661 J-53.589146
G02 X106.306760 Y59.802567 Z-0.125000 I-17.539679 J-21.289228
G03 X108.366141 Y57.893422 Z-0.125000 I22.618393 J22.333006
G03 X108.888770 Y57.612826 Z-0.125000 I0.917468 J1.081831
G02 X108.896023 Y57.507687 Z-0.125000 I-0.015614 J-0.053897
G02 X108.361230 Y57.377426 Z-0.125000 I-0.623674 J1.397583
G03 X108.253644 Y57.105396 Z-0.125000 I0.009370 J-0.160995
G03 X109.485230 Y56.193518 Z-0.125000 I3.209269 J3.046821
G02 X112.525286 Y53.913142 Z-0.125000 I-4.736875 J-9.481504
G02 X114.178460 Y51.125005 Z-0.125000 I-5.657703 J-5.238808
G03 X115.006772 Y50.404018 Z-0.125000 I1.027839 J0.344542
G03 X115.814040 Y50.818730 Z-0.125000 I0.136281 J0.727779
G02 X117.113797 Y52.162248 Z-0.125000 I2.596542 J-1.211497
G02 X119.186180 Y52.530246 Z-0.125000 I1.644066 J-3.239253
G02 X121.706515 Y51.410588 Z-0.125000 I-0.550385 J-4.635359
G02 X122.934480 Y49.256370 Z-0.125000 I-2.482412 J-2.842141
G03 X123.266191 Y48.427763 Z-0.125000 I2.236614 J0.414670
G03 X123.507630 Y48.378250 Z-0.125000 I0.145236 J0.094792
G02 X123.583794 Y48.320213 Z-0.125000 I0.028086 J-0.042137
G02 X123.247920 Y47.592880 Z-0.125000 I-3.366394 J1.113344
G03 X122.091012 Y44.781442 Z-0.125000 I8.390440 J-5.096422
G03 X121.577440 Y40.613240 Z-0.125000 I18.220306 J-4.360699
G02 X121.332159 Y39.406292 Z-0.125000 I-3.266959 J0.035527
G02 X120.504400 Y38.005450 Z-0.125000 I-5.258259 J2.162128
G03 X119.584098 Y36.620274 Z-0.125000 I7.141399 J-5.743012
G03 X119.195610 Y35.584300 Z-0.125000 I3.568598 J-1.929043
G02 X118.827828 Y34.629576 Z-0.125000 I-3.436249 J0.775522
G02 X118.573480 Y34.481000 Z-0.125000 I-0.254348 J0.143422
G03 X118.247066 Y34.366993 Z-0.125000 I0.000000 J-0.524281
G03 X116.628010 Y32.933160 Z-0.125000 I12.769175 J-16.049723
G02 X113.937475 Y30.926567 Z-0.125000 I-8.636304 J8.772873
G02 X112.160620 Y30.469020 Z-0.125000 I-1.776855 J3.221374
G02 X110.347539 Y30.990800 Z-0.125000 I0.000000 J3.410935
G02 X106.885380 Y33.779490 Z-0.125000 I10.066535 J16.041087
G03 X106.073631 Y34.477331 Z-0.125000 I-4.472637 J-4.381655
G03 X104.751100 Y35.317660 Z-0.125000 I-7.840657 J-10.878945
G02 X103.554307 Y36.264502 Z-0.125000 I2.303014 J4.140756
G02 X102.373920 Y37.922480 Z-0.125000 I6.225531 J5.681401
G03 X101.354266 Y39.263536 Z-0.125000 I-4.874627 J-2.648187
G03 X101.023910 Y39.227060 Z-0.125000 I-0.150047 J-0.155274
G02 X100.897170 Y39.237720 Z-0.125000 I-0.060468 J0.039838
G02 X100.857800 Y39.604340 Z-0.125000 I0.557014 J0.245240
G03 X100.882408 Y40.503417 Z-0.125000 I-2.553618 J0.519767
G03 X100.503610 Y42.011530 Z-0.125000 I-7.704060 J-1.133424
G02 X100.295577 Y43.524321 Z-0.125000 I3.455442 J1.245878
G02 X100.875710 Y47.118730 Z-0.125000 I20.826822 J-1.517401
G02 X103.804367 Y56.170808 Z-0.125000 I70.359814 J-17.764009
G02 X104.942680 Y57.345436 Z-0.125000 I1.993121 J-0.792626
G03 X105.256932 Y57.603275 Z-0.125000 I-0.296004 J0.681191
G03 X105.199930 Y57.716255 Z-0.125000 I-0.059144 J0.041030
G03 X102.022377 Y56.609193 Z-0.125000 I-0.140417 J-4.710699
G03 X98.402048 Y51.987066 Z-0.125000 I9.246774 J-10.971525
G03 X97.350289 Y47.207776 Z-0.125000 I9.164053 J-4.522069
G03 X98.660987 Y41.702570 Z-0.125000 I13.661659 J0.343983
G03 X99.773912 Y39.538879 Z-0.125000 I33.545578 J15.886573
G03 X100.281180 Y38.791420 Z-0.125000 I4.470214 J2.487880
G02 X100.723815 Y38.091035 Z-0.125000 I-2.658603 J-2.170269
G02 X100.696710 Y37.914650 Z-0.125000 I-0.143833 J-0.068172
G02 X99.587512 Y37.520457 Z-0.125000 I-0.931540 J0.863557
G02 X89.858428 Y39.445540 Z-0.125000 I12.611122 J89.281942
G03 X87.810073 Y39.876326 Z-0.125000 I-6.022710 J-23.552227
G03 X87.719916 Y39.799880 Z-0.125000 I-0.012668 J-0.076446
G03 X87.774684 Y39.626048 Z-0.125000 I0.303254 J-0.000000
G03 X89.156577 Y37.746260 Z-0.125000 I40.704721 J28.475535
G02 X90.533721 Y35.843902 Z-0.125000 I-30.174983 J-23.293747
G02 X92.484192 Y32.838070 Z-0.125000 I-73.458214 J-49.802449
G02 X98.049721 Y22.954857 Z-0.125000 I-113.312813 J-70.318454
G02 X98.499260 Y21.006200 Z-0.125000 I-3.695457 J-1.878692
G01 X98.415861 Y20.986067 Z-0.125000
G02 X96.262030 Y25.194360 Z-0.125000 I118.687541 J63.400349
G03 X86.793966 Y40.919630 Z-0.125000 I-95.430755 J-46.745166
G03 X83.682144 Y42.504960 Z-0.125000 I-3.111822 J-2.261410
G02 X83.011706 Y43.066933 Z-0.125000 I0.000000 J0.680906
G02 X83.442887 Y43.853630 Z-0.125000 I0.705060 J0.125075
G03 X84.133504 Y44.958148 Z-0.125000 I-0.429054 J1.036441
G03 X83.329726 Y45.714540 Z-0.125000 I-0.803778 J-0.048871
G03 X81.631986 Y45.142900 Z-0.125000 I0.000000 J-2.806917
G03 X77.492233 Y41.280840 Z-0.125000 I16.957375 J-22.326396
G03 X76.167473 Y39.749235 Z-0.125000 I130.487025 J-114.203278
G03 X76.072467 Y39.591956 Z-0.125000 I0.428096 J-0.365933
G01 X76.109807 Y39.563421 Z-0.125000
G03 X77.120306 Y40.348410 Z-0.125000 I-25.353230 J33.679543
G02 X80.089273 Y42.515385 Z-0.125000 I25.478577 J-31.790751
G02 X81.585578 Y43.308300 Z-0.125000 I4.777434 J-7.207180
G02 X81.783646 Y43.151166 Z-0.125000 I0.054992 J-0.134082
G02 X81.490328 Y42.717090 Z-0.125000 I-0.614325 J0.098978
G01 X80.467563 Y42.101200 Z-0.125000
G01 X81.583306 Y42.312310 Z-0.125000
G02 X81.871227 Y42.253472 Z-0.125000 I0.072103 J-0.381049
G02 X81.861840 Y42.125750 Z-0.125000 I-0.040988 J-0.061194
G02 X81.018548 Y41.891824 Z-0.125000 I-1.091711 J2.298589
G02 X80.374183 Y41.979840 Z-0.125000 I-0.137176 J1.398441
G03 X80.037506 Y42.007417 Z-0.125000 I-0.214964 J-0.555442
G03 X80.001045 Y41.901940 Z-0.125000 I0.013284 J-0.063632
G02 X79.991493 Y41.607378 Z-0.125000 I-0.168754 J-0.141964
G02 X78.327429 Y40.155860 Z-0.125000 I-8.938372 J8.567597
G03 X76.469297 Y38.632441 Z-0.125000 I12.021682 J-16.557887
G03 X72.843306 Y35.092910 Z-0.125000 I61.724041 J-66.858823
G02 X64.905136 Y27.246061 Z-0.125000 I-185.855042 J180.079294
G02 X64.242041 Y26.949770 Z-0.125000 I-0.753256 J0.795633
G03 X63.737864 Y26.871662 Z-0.125000 I0.289436 J-3.534517
G03 X62.243735 Y26.491270 Z-0.125000 I7.310412 J-31.838901
G02 X60.742467 Y26.171632 Z-0.125000 I-3.280275 J11.721344
G02 X59.361394 Y26.065370 Z-0.125000 I-1.449462 J9.810503
G03 X58.276577 Y25.748067 Z-0.125000 I0.013975 J-2.060853
G03 X57.966715 Y25.186530 Z-0.125000 I0.353883 J-0.561537
G02 X57.873807 Y24.554197 Z-0.125000 I-2.198283 J-0.000000
G02 X57.769504 Y24.530000 Z-0.125000 I-0.059074 J0.017742
G02 X57.682541 Y24.777071 Z-0.125000 I0.241431 J0.223818
G02 X57.990074 Y27.647260 Z-0.125000 I39.944145 J-2.828338
G03 X58.055535 Y30.521339 Z-0.125000 I-11.876736 J1.708293
G03 X57.407085 Y33.619670 Z-0.125000 I-14.480231 J-1.413546
G03 X55.386038 Y38.592657 Z-0.125000 I-36.123500 J-11.783599
G03 X53.368171 Y41.839530 Z-0.125000 I-17.295345 J-8.498243
G01 X52.491754 Y42.979530 Z-0.125000
G01 X50.926779 Y42.118280 Z-0.125000
G02 X47.312470 Y40.952025 Z-0.125000 I-4.823451 J8.764593
G02 X44.686837 Y41.358520 Z-0.125000 I-0.591793 J4.860481
G02 X39.736143 Y44.838320 Z-0.125000 I6.857630 J15.017878
G02 X38.627152 Y47.560110 Z-0.125000 I2.785540 J2.721790
G02 X38.757115 Y47.991728 Z-0.125000 I0.781700 J0.000000
G02 X38.999080 Y48.121700 Z-0.125000 I0.241965 J-0.160243
G03 X39.217855 Y48.274856 Z-0.125000 I0.000000 J0.232832
G03 X39.371007 Y49.142930 Z-0.125000 I-2.383567 J0.868074
G02 X39.968488 Y50.978065 Z-0.125000 I3.117004 J0.000000
G02 X41.596497 Y52.198393 Z-0.125000 I2.800203 J-2.039573
G03 X41.914675 Y52.840596 Z-0.125000 I-0.174980 J0.486616
G03 X41.237158 Y53.337281 Z-0.125000 I-0.677517 J-0.213751
G03 X40.950912 Y53.246140 Z-0.125000 I-0.000000 J-0.495075
G03 X39.771449 Y52.298621 Z-0.125000 I7.260909 J-10.246168
G03 X38.928316 Y51.126605 Z-0.125000 I2.326127 J-2.562663
G03 X38.627170 Y49.690830 Z-0.125000 I3.272105 J-1.435775
G02 X38.177287 Y48.904492 Z-0.125000 I-0.912150 J0.000000
G02 X37.664152 Y49.124700 Z-0.125000 I-0.175618 J0.298735
G03 X37.236275 Y49.881539 Z-0.125000 I-1.501127 J-0.349290
G03 X36.634296 Y50.123927 Z-0.125000 I-0.597917 J-0.616234
G03 X34.218189 Y49.384048 Z-0.125000 I0.020162 J-4.380734
G03 X30.817870 Y46.232190 Z-0.125000 I8.205104 J-12.262022
G02 X30.098369 Y45.482876 Z-0.125000 I-4.109758 J3.226148
G02 X30.014290 Y45.546900 Z-0.125000 I-0.035087 J0.041143
G02 X30.468738 Y46.334541 Z-0.125000 I4.771741 J-2.228242
G02 X30.920715 Y46.844510 Z-0.125000 I2.425212 J-1.694154
G03 X31.213031 Y47.396690 Z-0.125000 I-0.601504 J0.671892
G03 X31.271316 Y49.462060 Z-0.125000 I-9.776512 J1.309401
G02 X31.274795 Y51.584587 Z-0.125000 I13.515577 J1.039111
G02 X31.509145 Y52.430782 Z-0.125000 I2.315203 J-0.185636
G03 X31.423686 Y53.106863 Z-0.125000 I-0.551695 J0.273705
G03 X29.485926 Y54.775119 Z-0.125000 I-6.564220 J-5.665130
G02 X21.437014 Y61.946093 Z-0.125000 I17.512191 J27.758855
G02 X15.263374 Y72.433277 Z-0.125000 I32.575007 J26.237146
G02 X13.087950 Y79.099401 Z-0.125000 I46.028101 J18.708844
G02 X12.593141 Y83.121430 Z-0.125000 I16.099020 J4.022029
G02 X13.203531 Y86.427535 Z-0.125000 I9.258749 J-0.000000
G02 X14.090349 Y87.037929 Z-0.125000 I0.886818 J-0.339014
G03 X14.292534 Y87.203158 Z-0.125000 I0.000000 J0.206318
G03 X14.518381 Y89.144215 Z-0.125000 I-11.323064 J2.301135
G02 X14.575812 Y90.586072 Z-0.125000 I83.400231 J-2.599851
G01 X14.604179 Y90.591439 Z-0.125000
G02 X14.636228 Y90.468414 Z-0.125000 I-0.347526 J-0.156221
G02 X14.797305 Y88.523671 Z-0.125000 I-211.408142 J-18.489286
G01 X15.010564 Y85.796835 Z-0.125000
G01 X16.675754 Y88.268964 Z-0.125000
G02 X22.605150 Y94.388581 Z-0.125000 I20.087234 J-13.530493
G02 X28.127141 Y96.519649 Z-0.125000 I6.831298 J-9.481375
G02 X32.388000 Y96.246315 Z-0.125000 I1.363476 J-12.092309
G02 X36.670049 Y94.425404 Z-0.125000 I-3.441367 J-14.037989
G03 X37.877454 Y94.496376 Z-0.125000 I0.554254 J0.876730
G03 X38.940059 Y96.265485 Z-0.125000 I-1.901536 J2.345824
G02 X39.207255 Y96.907214 Z-0.125000 I1.697321 J-0.330222
G02 X39.349058 Y96.867283 Z-0.125000 I0.064231 J-0.043653
G03 X39.633647 Y96.754585 Z-0.125000 I0.167797 J0.008050
G03 X40.593414 Y98.070879 Z-0.125000 I-3.308139 J3.420158
G03 X41.420909 Y100.561979 Z-0.125000 I-8.601890 J4.240370
G03 X41.784251 Y104.490049 Z-0.125000 I-21.296204 J3.950714
G03 X41.499710 Y108.439396 Z-0.125000 I-27.161676 J0.027989
G03 X40.921945 Y110.399958 Z-0.125000 I-7.160315 J-1.044686
G03 X38.250166 Y114.570152 Z-0.125000 I-15.972121 J-7.292110
G03 X34.758106 Y117.552191 Z-0.125000 I-11.433956 J-9.853843
G03 X32.770924 Y118.403401 Z-0.125000 I-3.821701 J-6.176723
G03 X30.259088 Y118.726586 Z-0.125000 I-2.517702 J-9.645163
G03 X26.118479 Y118.107107 Z-0.125000 I-0.008476 J-14.091032
G03 X23.295077 Y116.590575 Z-0.125000 I2.421619 J-7.894948
G03 X22.010830 Y115.114598 Z-0.125000 I3.747832 J-4.557688
G03 X21.502122 Y113.662886 Z-0.125000 I3.110705 J-1.905037
G01 X21.299201 Y112.042693 Z-0.125000
G01 X22.905557 Y113.365395 Z-0.125000
G02 X25.785077 Y114.947741 Z-0.125000 I5.635284 J-6.843754
G02 X29.329304 Y115.466291 Z-0.125000 I3.275254 J-10.014508
G01 X31.374836 Y115.414071 Z-0.125000
G01 X28.750485 Y115.115126 Z-0.125000
G03 X24.786573 Y113.995285 Z-0.125000 I1.445814 J-12.693230
G03 X22.188016 Y112.047651 Z-0.125000 I3.362496 J-7.193613
G03 X20.612190 Y109.593837 Z-0.125000 I7.285686 J-6.411729
G03 X17.199757 Y100.879265 Z-0.125000 I91.266124 J-40.763190
G02 X16.118475 Y97.952373 Z-0.125000 I-53.769943 J18.201066
G02 X15.988976 Y97.780403 Z-0.125000 I-0.382754 J0.153483
G01 X15.933147 Y97.816617 Z-0.125000
G02 X16.684202 Y100.478084 Z-0.125000 I39.854490 J-9.810063
G03 X17.413222 Y102.812595 Z-0.125000 I-191.879931 J61.201254
G03 X17.428031 Y102.911717 Z-0.125000 I-0.324324 J0.099122
G03 X17.360589 Y103.067253 Z-0.125000 I-0.213073 J0.000000
G03 X11.095558 Y108.886226 Z-0.125000 I-727.277520 J-776.745582
G03 X4.785532 Y114.653291 Z-0.125000 I-721.622788 J-783.226954
G03 X4.611026 Y114.720620 Z-0.125000 I-0.174506 J-0.192481
G03 X4.510837 Y114.620794 Z-0.125000 I0.000000 J-0.100189
G03 X4.411012 Y59.555869 Z-0.125000 I15187.237560 J-55.064925
G01 X4.411012 Y4.390990 Z-0.125000
G01 X11.105476 Y4.390990 Z-0.125000
G03 X17.572820 Y4.631868 Z-0.125000 I-0.000000 J86.941353
G03 X17.829304 Y4.892480 Z-0.125000 I-0.020651 J0.276841
G01 X17.829423 Y4.892480 Z-0.125000
G00 Z5.000000

(End cutting path id: path9)


(Start cutting path id: path9)
(Change tool to Default tool)

G00 Z5.000000
G00 X18.201337 Y6.229810

G01 Z-0.125000 F100.0(Penetrate)
G02 X18.311215 Y6.495013 Z-0.125000 I0.412805 J-0.015669 F400.000000
G02 X18.426016 Y6.472190 Z-0.125000 I0.050382 J-0.046714
G02 X18.506541 Y5.968443 Z-0.125000 I-1.223297 J-0.453856
G02 X18.396596 Y5.703220 Z-0.125000 I-0.412998 J0.015804
G02 X18.281784 Y5.726042 Z-0.125000 I-0.050388 J0.046719
G02 X18.201246 Y6.229790 Z-0.125000 I1.223848 J0.453977
G01 X18.201337 Y6.229810 Z-0.125000
G00 Z5.000000

(End cutting path id: path9)


(Start cutting path id: path9)
(Change tool to Default tool)

G00 Z5.000000
G00 X18.945166 Y9.038200

G01 Z-0.125000 F100.0(Penetrate)
G02 X19.055054 Y9.303407 Z-0.125000 I0.412765 J-0.015659 F400.000000
G02 X19.169888 Y9.280580 Z-0.125000 I0.050396 J-0.046734
G02 X19.250411 Y8.776839 Z-0.125000 I-1.223294 J-0.453851
G02 X19.140468 Y8.511620 Z-0.125000 I-0.412992 J0.015803
G02 X19.025655 Y8.534440 Z-0.125000 I-0.050389 J0.046717
G02 X18.945118 Y9.038200 Z-0.125000 I1.223911 J0.453988
G01 X18.945166 Y9.038200 Z-0.125000
G00 Z5.000000

(End cutting path id: path9)


(Start cutting path id: path9)
(Change tool to Default tool)

G00 Z5.000000
G00 X19.340019 Y10.408960

G01 Z-0.125000 F100.0(Penetrate)
G02 X19.406221 Y10.998066 Z-0.125000 I2.654233 J-0.000000 F400.000000
G02 X19.659648 Y11.813150 Z-0.125000 I5.365758 J-1.221392
G02 X19.874908 Y12.071485 Z-0.125000 I0.503257 J-0.200493
G02 X19.979277 Y12.013770 Z-0.125000 I0.036226 J-0.057715
G02 X19.913076 Y11.424660 Z-0.125000 I-2.654301 J-0.000000
G02 X19.659648 Y10.609570 Z-0.125000 I-5.365585 J1.221328
G02 X19.444397 Y10.351237 Z-0.125000 I-0.503178 J0.200420
G02 X19.340019 Y10.408960 Z-0.125000 I-0.036228 J0.057723
G01 X19.340019 Y10.408960 Z-0.125000
G00 Z5.000000

(End cutting path id: path9)


(Start cutting path id: path9)
(Change tool to Default tool)

G00 Z5.000000
G00 X20.083848 Y13.217320

G01 Z-0.125000 F100.0(Penetrate)
G02 X20.150050 Y13.806433 Z-0.125000 I2.654298 J-0.000000 F400.000000
G02 X20.403477 Y14.621510 Z-0.125000 I5.365354 J-1.221284
G02 X20.618729 Y14.879843 Z-0.125000 I0.503169 J-0.200414
G02 X20.723106 Y14.822120 Z-0.125000 I0.036228 J-0.057723
G02 X20.656904 Y14.233014 Z-0.125000 I-2.654233 J-0.000000
G02 X20.403477 Y13.417930 Z-0.125000 I-5.365758 J1.221392
G02 X20.188217 Y13.159603 Z-0.125000 I-0.503224 J0.200479
G02 X20.083848 Y13.217320 Z-0.125000 I-0.036226 J0.057717
G01 X20.083848 Y13.217320 Z-0.125000
G00 Z5.000000

(End cutting path id: path9)


(Start cutting path id: path9)
(Change tool to Default tool)

G00 Z5.000000
G00 X20.827689 Y16.025820

G01 Z-0.125000 F100.0(Penetrate)
G02 X20.893891 Y16.614933 Z-0.125000 I2.654298 J0.000000 F400.000000
G02 X21.147318 Y17.430010 Z-0.125000 I5.365354 J-1.221284
G02 X21.362578 Y17.688345 Z-0.125000 I0.503255 J-0.200491
G02 X21.466947 Y17.630630 Z-0.125000 I0.036226 J-0.057715
G02 X21.400746 Y17.041520 Z-0.125000 I-2.654301 J-0.000000
G02 X21.147318 Y16.226430 Z-0.125000 I-5.365585 J1.221328
G02 X20.932059 Y15.968103 Z-0.125000 I-0.503234 J0.200487
G02 X20.827689 Y16.025820 Z-0.125000 I-0.036226 J0.057717
G01 X20.827689 Y16.025820 Z-0.125000
G00 Z5.000000

(End cutting path id: path9)


(Start cutting path id: path9)
(Change tool to Default tool)

G00 Z5.000000
G00 X21.943432 Y20.037790

G01 Z-0.125000 F100.0(Penetrate)
G02 X22.009633 Y20.626900 Z-0.125000 I2.654288 J-0.000000 F400.000000
G02 X22.263061 Y21.441990 Z-0.125000 I5.365692 J-1.221359
G02 X22.478314 Y21.700322 Z-0.125000 I0.503173 J-0.200420
G02 X22.582690 Y21.642600 Z-0.125000 I0.036227 J-0.057722
G02 X22.516489 Y21.053490 Z-0.125000 I-2.654288 J0.000000
G02 X22.263061 Y20.238400 Z-0.125000 I-5.365692 J1.221359
G02 X22.047802 Y19.980073 Z-0.125000 I-0.503234 J0.200487
G02 X21.943432 Y20.037790 Z-0.125000 I-0.036226 J0.057717
G01 X21.943432 Y20.037790 Z-0.125000
G00 Z5.000000

(End cutting path id: path9)


(Start cutting path id: path9)
(Change tool to Default tool)

G00 Z5.000000
G00 X22.691573 Y22.846200

G01 Z-0.125000 F100.0(Penetrate)
G02 X22.764087 Y23.435456 Z-0.125000 I2.430428 J0.000000 F400.000000
G02 X23.192853 Y24.852190 Z-0.125000 I14.662051 J-3.664131
G02 X23.594870 Y25.683048 Z-0.125000 I4.041809 J-1.442970
G02 X23.694137 Y25.654590 Z-0.125000 I0.045554 J-0.028458
G02 X23.621623 Y25.065329 Z-0.125000 I-2.430473 J-0.000000
G02 X23.192853 Y23.648600 Z-0.125000 I-14.660170 J3.663621
G02 X22.790839 Y22.817742 Z-0.125000 I-4.041865 J1.442984
G02 X22.691573 Y22.846200 Z-0.125000 I-0.045554 J0.028458
G01 X22.691573 Y22.846200 Z-0.125000
G00 Z5.000000

(End cutting path id: path9)


(Start cutting path id: path9)
(Change tool to Default tool)

G00 Z5.000000
G00 X24.179230 Y28.061790

G01 Z-0.125000 F100.0(Penetrate)
G02 X24.251744 Y28.651051 Z-0.125000 I2.430464 J0.000000 F400.000000
G02 X24.680515 Y30.067780 Z-0.125000 I14.660308 J-3.663670
G02 X25.082532 Y30.898639 Z-0.125000 I4.041776 J-1.442952
G02 X25.181799 Y30.870180 Z-0.125000 I0.045554 J-0.028459
G02 X25.109285 Y30.280919 Z-0.125000 I-2.430465 J-0.000000
G02 X24.680515 Y28.864190 Z-0.125000 I-14.660463 J3.663707
G02 X24.278498 Y28.033331 Z-0.125000 I-4.041787 J1.442962
G02 X24.179230 Y28.061790 Z-0.125000 I-0.045554 J0.028459
G01 X24.179230 Y28.061790 Z-0.125000
G00 Z5.000000

(End cutting path id: path9)


(Start cutting path id: path9)
(Change tool to Default tool)

G00 Z5.000000
G00 X27.469874 Y39.012820

G01 Z-0.125000 F100.0(Penetrate)
G02 X28.260709 Y43.430659 Z-0.125000 I12.735096 J-0.000000 F400.000000
G02 X29.170989 Y43.611990 Z-0.125000 I0.510839 J-0.188945
G02 X29.213618 Y43.439785 Z-0.125000 I-0.134429 J-0.124657
G02 X28.544007 Y41.277420 Z-0.125000 I-28.812353 J7.737353
G02 X27.599602 Y38.983613 Z-0.125000 I-22.371869 J7.869614
G02 X27.469874 Y39.012820 Z-0.125000 I-0.061576 J0.029207
G01 X27.469874 Y39.012820 Z-0.125000
G00 Z5.000000

(End cutting path id: path9)


(Start cutting path id: path9)
(Change tool to Default tool)

G00 Z5.000000
G00 X35.327757 Y50.344511

G01 Z-0.125000 F100.0(Penetrate)
G03 X35.696798 Y50.706593 Z-0.125000 I-0.194138 J0.566977 F400.000000
G03 X35.626016 Y51.164315 Z-0.125000 I-0.451981 J0.164439
G03 X34.872679 Y51.413000 Z-0.125000 I-0.559917 J-0.430770
G03 X33.247469 Y50.487217 Z-0.125000 I1.075152 J-3.776844
G03 X32.046709 Y49.090316 Z-0.125000 I6.189757 J-6.535176
G03 X31.921819 Y48.684031 Z-0.125000 I0.573246 J-0.398550
G03 X32.093785 Y48.554468 Z-0.125000 I0.135925 J0.001506
G03 X33.262609 Y49.119270 Z-0.125000 I-0.951881 J3.461668
G02 X34.629368 Y50.021966 Z-0.125000 I10.037060 J-13.710929
G02 X35.327722 Y50.344511 Z-0.125000 I1.912395 J-3.223304
G01 X35.327757 Y50.344511 Z-0.125000
G00 Z5.000000

(End cutting path id: path9)


(Start cutting path id: path9)
(Change tool to Default tool)

G00 Z5.000000
G00 X36.647674 Y51.892323

G01 Z-0.125000 F100.0(Penetrate)
G02 X36.485501 Y52.463522 Z-0.125000 I4.300061 J1.529480 F400.000000
G02 X36.002213 Y54.898086 Z-0.125000 I77.897641 J16.728802
G02 X35.999477 Y57.289184 Z-0.125000 I6.596729 J1.203098
G02 X37.038687 Y60.655790 Z-0.125000 I14.329197 J-2.579466
G02 X43.766412 Y70.630239 Z-0.125000 I31.953060 J-14.296071
G02 X50.228191 Y74.364176 Z-0.125000 I9.706071 J-9.338682
G01 X52.202178 Y74.854069 Z-0.125000
G01 X49.784729 Y75.145553 Z-0.125000
G03 X47.370201 Y75.262499 Z-0.125000 I-2.022533 J-16.773943
G03 X44.721666 Y75.028049 Z-0.125000 I0.474233 J-20.434486
G03 X37.078596 Y71.008421 Z-0.125000 I2.031011 J-13.138061
G03 X33.431321 Y63.049705 Z-0.125000 I9.942586 J-9.371516
G03 X33.705295 Y57.038285 Z-0.125000 I20.142003 J-2.093969
G03 X35.563938 Y52.233833 Z-0.125000 I14.559634 J2.870775
G03 X36.367708 Y51.601924 Z-0.125000 I1.238844 J0.748633
G03 X36.647674 Y51.892293 Z-0.125000 I0.067714 J0.214864
G01 X36.647674 Y51.892323 Z-0.125000
G00 Z5.000000

(End cutting path id: path9)


(Start cutting path id: path9)
(Change tool to Default tool)

G00 Z5.000000
G00 X41.230693 Y54.340149

G01 Z-0.125000 F100.0(Penetrate)
G03 X41.166374 Y54.877595 Z-0.125000 I-2.277602 J-0.000000 F400.000000
G03 X41.084526 Y54.941947 Z-0.125000 I-0.081848 J-0.019875
G03 X40.980146 Y54.882782 Z-0.125000 I0.000000 J-0.121657
G03 X40.724279 Y54.340149 Z-0.125000 I2.607918 J-1.561349
G03 X40.700057 Y53.872307 Z-0.125000 I0.771647 J-0.274500
G03 X40.870445 Y53.738356 Z-0.125000 I0.170388 J0.041393
G03 X41.100348 Y53.868672 Z-0.125000 I0.000000 J0.267955
G03 X41.230693 Y54.340149 Z-0.125000 I-0.787527 J0.471477
G01 X41.230693 Y54.340149 Z-0.125000
G00 Z5.000000

(End cutting path id: path9)


(Start cutting path id: path9)
(Change tool to Default tool)

G00 Z5.000000
G00 X42.543443 Y54.786194

G01 Z-0.125000 F100.0(Penetrate)
G02 X42.882752 Y56.493201 Z-0.125000 I4.603293 J-0.027790 F400.000000
G02 X43.773130 Y57.808457 Z-0.125000 I3.550383 J-1.444469
G02 X45.080548 Y58.816512 Z-0.125000 I5.210293 J-5.405728
G02 X46.094288 Y59.220911 Z-0.125000 I1.705760 J-2.803158
G03 X46.870983 Y59.871098 Z-0.125000 I-0.229340 J1.062967
G03 X46.639418 Y60.549520 Z-0.125000 I-0.503878 J0.206742
G03 X43.854209 Y60.344736 Z-0.125000 I-1.241962 J-2.151248
G03 X41.759870 Y56.680790 Z-0.125000 I3.524211 J-4.445008
G03 X41.823709 Y53.439149 Z-0.125000 I10.216969 J-1.420243
G03 X42.431441 Y52.937247 Z-0.125000 I0.600010 J0.107637
G03 X42.483628 Y52.986994 Z-0.125000 I-0.000669 J0.052948
G03 X42.543434 Y54.786194 Z-0.125000 I-32.951721 J1.995928
G01 X42.543443 Y54.786194 Z-0.125000
G00 Z5.000000

(End cutting path id: path9)


(Start cutting path id: path9)
(Change tool to Default tool)

G00 Z5.000000
G00 X41.584556 Y57.891938

G01 Z-0.125000 F100.0(Penetrate)
G02 X42.892895 Y60.142371 Z-0.125000 I5.466141 J-1.672329 F400.000000
G02 X44.808254 Y61.308780 Z-0.125000 I3.085769 J-2.911330
G03 X45.537686 Y61.900069 Z-0.125000 I-0.331317 J1.154291
G03 X46.076103 Y63.697529 Z-0.125000 I-4.235747 J2.248160
G02 X46.524896 Y65.665832 Z-0.125000 I7.749653 J-0.731683
G02 X47.226257 Y66.807528 Z-0.125000 I3.215887 J-1.189291
G02 X49.435991 Y68.189630 Z-0.125000 I3.658098 J-3.391108
G02 X52.259105 Y68.334671 Z-0.125000 I1.703753 J-5.614865
G03 X53.132069 Y68.685977 Z-0.125000 I0.165160 J0.849865
G03 X54.065491 Y70.899186 Z-0.125000 I-4.611927 J3.248522
G02 X54.466074 Y72.142664 Z-0.125000 I5.066608 J-0.945931
G02 X55.242063 Y73.406676 Z-0.125000 I6.014400 J-2.822098
G01 X56.173403 Y74.600660 Z-0.125000
G01 X54.819079 Y74.600660 Z-0.125000
G03 X50.389658 Y73.948381 Z-0.125000 I-0.000000 J-15.365546
G03 X46.798415 Y72.186042 Z-0.125000 I3.536165 J-11.746126
G03 X45.224790 Y70.897662 Z-0.125000 I8.949423 J-12.536014
G03 X42.439418 Y68.107851 Z-0.125000 I39.537857 J-42.260316
G01 X39.743032 Y65.216600 Z-0.125000
G01 X39.743032 Y61.363108 Z-0.125000
G03 X40.254677 Y57.058359 Z-0.125000 I18.364939 J-0.000000
G03 X40.904316 Y56.546742 Z-0.125000 I0.649639 J0.156640
G03 X41.088981 Y56.660292 Z-0.125000 I0.000000 J0.206934
G03 X41.584556 Y57.891938 Z-0.125000 I-6.924813 J3.501848
G01 X41.584556 Y57.891938 Z-0.125000
G00 Z5.000000

(End cutting path id: path9)


(Start cutting path id: path9)
(Change tool to Default tool)

G00 Z5.000000
G00 X48.442361 Y65.161851

G01 Z-0.125000 F100.0(Penetrate)
G02 X50.195576 Y66.585713 Z-0.125000 I2.871097 J-1.743903 F400.000000
G02 X53.040749 Y66.784595 Z-0.125000 I1.782648 J-5.051527
G03 X53.796716 Y66.880775 Z-0.125000 I0.235838 J1.165345
G03 X53.868891 Y67.187468 Z-0.125000 I-0.088911 J0.182763
G03 X51.321764 Y68.292009 Z-0.125000 I-2.270561 J-1.746857
G03 X47.756908 Y66.594644 Z-0.125000 I0.559355 J-5.766965
G03 X46.598185 Y64.368198 Z-0.125000 I3.033850 J-2.993669
G03 X46.853032 Y61.655334 Z-0.125000 I4.941222 J-0.904223
G01 X47.353672 Y60.358125 Z-0.125000
G01 X47.611918 Y62.288970 Z-0.125000
G02 X48.007560 Y64.171305 Z-0.125000 I12.853219 J-1.718828
G02 X48.442361 Y65.161851 Z-0.125000 I3.941241 J-1.139311
G01 X48.442361 Y65.161851 Z-0.125000
G00 Z5.000000

(End cutting path id: path9)


(Start cutting path id: path9)
(Change tool to Default tool)

G00 Z5.000000
G00 X55.140737 Y68.713014

G01 Z-0.125000 F100.0(Penetrate)
G02 X56.603786 Y71.266292 Z-0.125000 I4.249046 J-0.738930 F400.000000
G02 X59.755078 Y72.617858 Z-0.125000 I3.782576 J-4.469865
G01 X61.871962 Y72.847402 Z-0.125000
G01 X60.095285 Y73.747607 Z-0.125000
G03 X57.727922 Y74.225856 Z-0.125000 I-2.048893 J-4.043729
G03 X55.983603 Y73.458032 Z-0.125000 I0.198306 J-2.815764
G03 X54.756317 Y71.592845 Z-0.125000 I3.372709 J-3.555597
G03 X54.247709 Y68.734268 Z-0.125000 I7.778849 J-2.858577
G03 X54.656590 Y68.315540 Z-0.125000 I0.418847 J0.000000
G03 X55.140737 Y68.713018 Z-0.125000 I0.011417 J0.479690
G01 X55.140737 Y68.713014 Z-0.125000
G00 Z5.000000

(End cutting path id: path9)


(Start cutting path id: path9)
(Change tool to Default tool)

G00 Z5.000000
G00 X57.432895 Y64.453102

G01 Z-0.125000 F100.0(Penetrate)
G02 X57.479319 Y64.677399 Z-0.125000 I0.208855 J0.073725 F400.000000
G02 X57.641093 Y64.677701 Z-0.125000 I0.081027 J-0.075112
G02 X57.941443 Y64.182588 Z-0.125000 I-1.034447 J-0.966181
G02 X57.895014 Y63.958299 Z-0.125000 I-0.208870 J-0.073713
G02 X57.733235 Y63.957993 Z-0.125000 I-0.081032 J0.075108
G02 X57.432878 Y64.453111 Z-0.125000 I1.034689 J0.966345
G01 X57.432895 Y64.453102 Z-0.125000
G00 Z5.000000

(End cutting path id: path9)


(Start cutting path id: path9)
(Change tool to Default tool)

G00 Z5.000000
G00 X63.855677 Y60.437129

G01 Z-0.125000 F100.0(Penetrate)
G03 X65.467343 Y62.301573 Z-0.125000 I-2.633783 J3.905502 F400.000000
G03 X66.140815 Y65.190249 Z-0.125000 I-6.149889 J2.956643
G03 X65.403175 Y68.016365 Z-0.125000 I-5.568620 J0.055865
G03 X62.751255 Y71.101594 Z-0.125000 I-9.374939 J-5.375913
G03 X61.693582 Y71.695528 Z-0.125000 I-2.371507 J-2.984447
G03 X60.064918 Y72.087944 Z-0.125000 I-2.506406 J-6.826487
G03 X58.512734 Y71.875324 Z-0.125000 I-0.371777 J-3.057923
G03 X56.980228 Y70.808202 Z-0.125000 I1.677033 J-4.042391
G03 X55.977297 Y69.365417 Z-0.125000 I4.614470 J-4.277660
G03 X56.071580 Y69.007687 Z-0.125000 I0.249004 J-0.125662
G02 X56.185558 Y68.729272 Z-0.125000 I-0.149037 J-0.223551
G02 X55.955607 Y68.451798 Z-0.125000 I-0.377372 J0.078719
G03 X55.102499 Y67.032178 Z-0.125000 I0.532333 J-1.286044
G03 X56.162377 Y66.307285 Z-0.125000 I0.832743 J0.080288
G02 X56.519810 Y66.228124 Z-0.125000 I0.105033 J-0.372282
G02 X56.598364 Y65.931782 Z-0.125000 I-0.176939 J-0.205485
G02 X56.321271 Y65.618662 Z-0.125000 I-0.527484 J0.187628
G02 X56.010855 Y65.637999 Z-0.125000 I-0.138551 J0.277081
G03 X55.889983 Y65.609836 Z-0.125000 I-0.047216 J-0.070818
G03 X55.889561 Y65.428538 Z-0.125000 I0.157164 J-0.091016
G03 X56.205325 Y65.156891 Z-0.125000 I0.541790 J0.310435
G03 X56.504898 Y65.189625 Z-0.125000 I0.118289 J0.304627
G02 X56.723417 Y65.181798 Z-0.125000 I0.103823 J-0.155717
G02 X56.851130 Y64.921130 Z-0.125000 I-0.202162 J-0.260668
G03 X57.506512 Y63.220092 Z-0.125000 I2.535205 J-0.000000
G03 X58.983439 Y62.564709 Z-0.125000 I1.476927 J1.336460
G03 X59.248850 Y62.721917 Z-0.125000 I-0.000000 J0.302649
G03 X59.258254 Y63.066205 Z-0.125000 I-0.330866 J0.181310
G01 X59.304796 Y63.100049 Z-0.125000
G02 X59.785908 Y62.564709 Z-0.125000 I-3.153587 J-3.317996
G02 X60.414109 Y61.518856 Z-0.125000 I-4.315322 J-3.303632
G02 X60.518866 Y60.959914 Z-0.125000 I-1.074241 J-0.490622
G02 X60.434066 Y60.902443 Z-0.125000 I-0.064425 J0.003764
G02 X60.320011 Y61.026064 Z-0.125000 I0.054938 J0.165112
G03 X60.036156 Y61.591034 Z-0.125000 I-1.377120 J-0.338106
G03 X59.566718 Y61.937942 Z-0.125000 I-0.931531 J-0.769478
G03 X59.428756 Y61.789225 Z-0.125000 I-0.041382 J-0.099962
G03 X60.512913 Y60.063715 Z-0.125000 I9.744620 J4.919304
G03 X61.591090 Y59.604612 Z-0.125000 I0.945828 J0.725654
G03 X63.855703 Y60.437136 Z-0.125000 I-0.561064 J5.022535
G01 X63.855677 Y60.437129 Z-0.125000
G00 Z5.000000

(End cutting path id: path9)


(Start cutting path id: path9)
(Change tool to Default tool)

G00 Z5.000000
G00 X65.072958 Y58.583241

G01 Z-0.125000 F100.0(Penetrate)
G03 X67.282189 Y61.401397 Z-0.125000 I-4.392476 J5.718402 F400.000000
G03 X67.298245 Y63.648571 Z-0.125000 I-2.599989 J1.142221
G03 X66.678535 Y63.874158 Z-0.125000 I-0.414671 J-0.175147
G03 X66.024552 Y62.996878 Z-0.125000 I0.564448 J-1.103179
G02 X64.684515 Y60.167263 Z-0.125000 I-6.010545 J1.114337
G02 X62.780039 Y59.154642 Z-0.125000 I-2.216751 J1.871907
G03 X61.871979 Y59.056144 Z-0.125000 I292.881823 J-2704.499874
G03 X61.403917 Y59.005126 Z-0.125000 I71.872040 J-661.538889
G03 X61.225155 Y58.805708 Z-0.125000 I0.021849 J-0.199418
G03 X61.403917 Y58.126865 Z-0.125000 I1.378323 J-0.000000
G03 X62.552623 Y57.549079 Z-0.125000 I1.006024 J0.569318
G03 X65.072958 Y58.583237 Z-0.125000 I-0.640469 J5.149099
G01 X65.072958 Y58.583241 Z-0.125000
G00 Z5.000000

(End cutting path id: path9)


(Start cutting path id: path9)
(Change tool to Default tool)

G00 Z5.000000
G00 X64.829384 Y53.976965

G01 Z-0.125000 F100.0(Penetrate)
G03 X65.884850 Y55.562404 Z-0.125000 I-4.378509 J4.058925 F400.000000
G03 X66.697810 Y58.081689 Z-0.125000 I-10.497144 J4.778185
G01 X66.964319 Y59.416036 Z-0.125000
G01 X65.347928 Y58.153085 Z-0.125000
G03 X63.599847 Y56.094988 Z-0.125000 I4.115024 J-5.266599
G03 X63.362746 Y54.525429 Z-0.125000 I2.026099 J-1.108754
G03 X63.999254 Y53.780227 Z-0.125000 I0.990600 J0.201677
G03 X64.829389 Y53.976965 Z-0.125000 I0.268328 J0.717536
G01 X64.829384 Y53.976965 Z-0.125000
G00 Z5.000000

(End cutting path id: path9)


(Start cutting path id: path9)
(Change tool to Default tool)

G00 Z5.000000
G00 X61.694178 Y49.734600

G01 Z-0.125000 F100.0(Penetrate)
G03 X62.522035 Y51.078455 Z-0.125000 I-2.463017 J2.444216 F400.000000
G03 X62.706912 Y52.763406 Z-0.125000 I-3.795404 J1.269059
G03 X62.437715 Y54.544418 Z-0.125000 I-19.522728 J-2.039976
G03 X62.299860 Y54.814696 Z-0.125000 I-0.546531 J-0.108463
G03 X62.087677 Y54.823741 Z-0.125000 I-0.110658 J-0.102593
G03 X60.489650 Y53.168469 Z-0.125000 I11.915780 J-13.102709
G02 X58.756561 Y51.488865 Z-0.125000 I-9.385229 J7.950150
G02 X57.466990 Y50.766552 Z-0.125000 I-2.870235 J3.612016
G01 X56.037320 Y50.245177 Z-0.125000
G01 X57.052251 Y49.383980 Z-0.125000
G03 X59.330325 Y48.643873 Z-0.125000 I2.040521 J2.404743
G03 X61.694191 Y49.734620 Z-0.125000 I-0.280623 J3.715023
G01 X61.694178 Y49.734600 Z-0.125000
G00 Z5.000000

(End cutting path id: path9)


(Start cutting path id: path9)
(Change tool to Default tool)

G00 Z5.000000
G00 X58.508408 Y52.125034

G01 Z-0.125000 F100.0(Penetrate)
G03 X59.872704 Y53.077951 Z-0.125000 I-3.006964 J5.758176 F400.000000
G03 X60.671361 Y54.092631 Z-0.125000 I-2.631968 J2.893282
G03 X61.393136 Y56.730487 Z-0.125000 I-5.174379 J2.833497
G03 X60.804594 Y58.108204 Z-0.125000 I-1.769385 J0.058710
G03 X60.475267 Y58.065692 Z-0.125000 I-0.146311 J-0.163427
G03 X60.060571 Y56.982077 Z-0.125000 I2.234549 J-1.476315
G02 X58.613831 Y53.843074 Z-0.125000 I-6.086320 J0.902237
G02 X56.003484 Y52.324314 Z-0.125000 I-3.542089 J3.085285
G03 X54.897337 Y51.922689 Z-0.125000 I0.788034 J-3.894464
G03 X54.830767 Y51.688367 Z-0.125000 I0.081171 J-0.149678
G03 X55.692434 Y51.254820 Z-0.125000 I0.758589 J0.434635
G03 X58.508391 Y52.125034 Z-0.125000 I-0.962314 J8.105223
G01 X58.508408 Y52.125034 Z-0.125000
G00 Z5.000000

(End cutting path id: path9)


(Start cutting path id: path9)
(Change tool to Default tool)

G00 Z5.000000
G00 X57.418469 Y53.744689

G01 Z-0.125000 F100.0(Penetrate)
G03 X59.153680 Y55.710103 Z-0.125000 I-2.833896 J4.250663 F400.000000
G03 X59.826431 Y58.559146 Z-0.125000 I-5.696352 J2.849043
G03 X59.486949 Y59.717980 Z-0.125000 I-2.147600 J0.000000
G03 X56.972575 Y63.011994 Z-0.125000 I-21.294334 J-13.647668
G01 X54.118720 Y66.175510 Z-0.125000
G01 X52.120777 Y66.175510 Z-0.125000
G03 X50.256767 Y65.868749 Z-0.125000 I-0.000000 J-5.816644
G03 X49.209955 Y65.190748 Z-0.125000 I0.812431 J-2.401490
G03 X48.295252 Y63.532823 Z-0.125000 I2.881142 J-2.670860
G03 X48.598404 Y62.899057 Z-0.125000 I0.522535 J-0.139440
G02 X48.846126 Y62.700327 Z-0.125000 I-0.252246 J-0.568194
G02 X52.329005 Y57.850644 Z-0.125000 I-176.631161 J-130.526015
G03 X55.804729 Y53.025012 Z-0.125000 I162.857206 J113.635490
G03 X55.981860 Y52.935967 Z-0.125000 I0.177131 J0.131654
G03 X56.189016 Y52.990269 Z-0.125000 I0.000000 J0.422290
G03 X57.418469 Y53.744689 Z-0.125000 I-9.398973 J16.696200
G01 X57.418469 Y53.744689 Z-0.125000
G00 Z5.000000

(End cutting path id: path9)


(Start cutting path id: path9)
(Change tool to Default tool)

G00 Z5.000000
G00 X52.541031 Y48.152370

G01 Z-0.125000 F100.0(Penetrate)
G03 X53.370171 Y50.894100 Z-0.125000 I-3.132741 J2.443625 F400.000000
G03 X52.104564 Y53.953117 Z-0.125000 I-5.292140 J-0.398198
G02 X50.731436 Y55.586008 Z-0.125000 I78.764495 J67.628291
G02 X49.333576 Y57.317900 Z-0.125000 I87.216231 J71.824817
G03 X47.783929 Y58.621089 Z-0.125000 I-3.950854 J-3.125083
G03 X46.562654 Y58.820415 Z-0.125000 I-0.896847 J-1.653953
G03 X43.765232 Y57.314616 Z-0.125000 I0.869452 J-4.966615
G03 X43.213029 Y55.271338 Z-0.125000 I1.627576 J-1.536115
G03 X43.913507 Y53.795456 Z-0.125000 I3.736963 J0.869454
G03 X46.811713 Y50.398364 Z-0.125000 I36.341196 J28.069411
G03 X50.053837 Y47.296182 Z-0.125000 I31.141443 J29.300977
G03 X51.072680 Y46.918000 Z-0.125000 I1.018843 J1.183317
G03 X51.501805 Y47.074407 Z-0.125000 I0.000000 J0.666886
G03 X52.541031 Y48.152370 Z-0.125000 I-4.611272 J5.485486
G01 X52.541031 Y48.152370 Z-0.125000
G00 Z5.000000

(End cutting path id: path9)


(Start cutting path id: path9)
(Change tool to Default tool)

G00 Z5.000000
G00 X53.912533 Y46.960420

G01 Z-0.125000 F100.0(Penetrate)
G03 X54.746572 Y48.297766 Z-0.125000 I-3.832999 J3.319206 F400.000000
G03 X54.991537 Y49.501350 Z-0.125000 I-2.834293 J1.203584
G03 X54.847428 Y50.886627 Z-0.125000 I-6.730191 J0.000000
G03 X54.688249 Y51.007898 Z-0.125000 I-0.149788 J-0.031505
G03 X54.487928 Y50.876216 Z-0.125000 I0.014797 J-0.240721
G03 X53.904872 Y49.434550 Z-0.125000 I8.187186 J-4.149896
G02 X53.049418 Y47.743191 Z-0.125000 I-5.391451 J1.664867
G02 X51.830264 Y46.630690 Z-0.125000 I-3.439348 J2.544805
G01 X50.342603 Y45.727600 Z-0.125000
G01 X51.588066 Y45.720600 Z-0.125000
G03 X52.705281 Y45.996654 Z-0.125000 I0.012777 J2.347052
G03 X53.912533 Y46.960030 Z-0.125000 I-1.990502 J3.732511
G01 X53.912533 Y46.960420 Z-0.125000
G00 Z5.000000

(End cutting path id: path9)


(Start cutting path id: path9)
(Change tool to Default tool)

G00 Z5.000000
G00 X55.903784 Y45.306010

G01 Z-0.125000 F100.0(Penetrate)
G03 X56.696374 Y45.859832 Z-0.125000 I-0.838094 J2.043479 F400.000000
G03 X57.241823 Y46.770720 Z-0.125000 I-1.966130 J1.796093
G03 X57.303397 Y47.781079 Z-0.125000 I-1.739324 J0.613055
G03 X56.797456 Y48.785000 Z-0.125000 I-2.221445 J-0.490082
G01 X55.975721 Y49.728570 Z-0.125000
G01 X54.921011 Y47.648030 Z-0.125000
G03 X54.181854 Y45.648250 Z-0.125000 I8.276506 J-4.195650
G03 X54.335941 Y45.245890 Z-0.125000 I0.368199 J-0.089679
G03 X54.890013 Y45.085929 Z-0.125000 I0.518884 J0.757730
G03 X55.903784 Y45.305990 Z-0.125000 I-0.113870 J2.969702
G01 X55.903784 Y45.306010 Z-0.125000
G00 Z5.000000

(End cutting path id: path9)


(Start cutting path id: path9)
(Change tool to Default tool)

G00 Z5.000000
G00 X52.040668 Y43.321330

G01 Z-0.125000 F100.0(Penetrate)
G03 X52.252337 Y44.015475 Z-0.125000 I-0.265795 J0.460396 F400.000000
G03 X51.458346 Y44.510800 Z-0.125000 I-0.793991 J-0.388711
G03 X50.235146 Y44.432295 Z-0.125000 I0.000000 J-9.568749
G03 X50.156648 Y44.343030 Z-0.125000 I0.011505 J-0.089265
G02 X50.134024 Y44.179121 Z-0.125000 I-0.605071 J0.000000
G02 X49.930888 Y43.540630 Z-0.125000 I-9.569640 J2.693025
G03 X50.302854 Y42.950927 Z-0.125000 I0.417816 J-0.148618
G03 X52.040655 Y43.321320 Z-0.125000 I0.297787 J2.864735
G01 X52.040668 Y43.321330 Z-0.125000
G00 Z5.000000

(End cutting path id: path9)


(Start cutting path id: path9)
(Change tool to Default tool)

G00 Z5.000000
G00 X47.718111 Y44.198880

G01 Z-0.125000 F100.0(Penetrate)
G03 X47.905012 Y45.508194 Z-0.125000 I-1.318699 J0.856238 F400.000000
G03 X46.899849 Y46.918000 Z-0.125000 I-2.580337 J-0.776495
G02 X45.582385 Y48.004111 Z-0.125000 I7.669850 J10.645705
G02 X43.750113 Y49.879180 Z-0.125000 I21.187917 J22.537089
G03 X41.926430 Y51.249906 Z-0.125000 I-4.385689 J-3.936418
G03 X41.059636 Y51.178000 Z-0.125000 I-0.372387 J-0.771393
G03 X40.075167 Y49.361167 Z-0.125000 I1.346188 J-1.904584
G03 X40.904731 Y47.063720 Z-0.125000 I3.256562 J-0.122611
G03 X44.519868 Y43.864565 Z-0.125000 I15.569411 J13.951702
G03 X46.294224 Y43.307210 Z-0.125000 I1.774356 J2.545677
G03 X47.025137 Y43.517172 Z-0.125000 I0.000000 J1.377195
G03 X47.718120 Y44.198880 Z-0.125000 I-1.194111 J1.906937
G01 X47.718111 Y44.198880 Z-0.125000
G00 Z5.000000

(End cutting path id: path9)


(Start cutting path id: path9)
(Change tool to Default tool)

G00 Z5.000000
G00 X47.531390 Y41.890830

G01 Z-0.125000 F100.0(Penetrate)
G03 X49.387745 Y43.880208 Z-0.125000 I-2.164920 J3.880961 F400.000000
G03 X49.045465 Y45.109560 Z-0.125000 I-0.884496 J0.416061
G03 X48.809760 Y45.084650 Z-0.125000 I-0.102863 J-0.154294
G03 X48.492012 Y44.541340 Z-0.125000 I0.936889 J-0.912498
G02 X48.135257 Y43.835095 Z-0.125000 I-2.101300 J0.618229
G02 X46.964636 Y42.529520 Z-0.125000 I-8.569080 J6.505720
G03 X46.076428 Y41.524605 Z-0.125000 I5.205211 J-5.495682
G03 X46.083998 Y41.357729 Z-0.125000 I0.106870 J-0.078761
G03 X46.259449 Y41.312852 Z-0.125000 I0.120907 J0.107289
G03 X47.531390 Y41.890830 Z-0.125000 I-2.866186 J7.996089
G01 X47.531390 Y41.890830 Z-0.125000
G00 Z5.000000

(End cutting path id: path9)


(Start cutting path id: path9)
(Change tool to Default tool)

G00 Z5.000000
G00 X57.591749 Y36.966680

G01 Z-0.125000 F100.0(Penetrate)
G03 X55.668228 Y42.734499 Z-0.125000 I-27.198816 J-5.865934 F400.000000
G03 X54.355969 Y43.996690 Z-0.125000 I-2.266627 J-1.043287
G03 X53.896526 Y44.022249 Z-0.125000 I-0.266213 J-0.643191
G03 X53.298490 Y43.691020 Z-0.125000 I0.426176 J-1.474957
G03 X53.190841 Y43.183433 Z-0.125000 I0.293087 J-0.327366
G03 X54.057848 Y42.002530 Z-0.125000 I3.194507 J1.436649
G02 X55.735680 Y39.894621 Z-0.125000 I-5.238652 J-5.891516
G02 X57.241178 Y36.183360 Z-0.125000 I-15.284386 J-8.361201
G03 X57.775123 Y34.715305 Z-0.125000 I9.579599 J2.653057
G03 X57.871930 Y34.715629 Z-0.125000 I0.048330 J0.022019
G03 X57.913882 Y34.983041 Z-0.125000 I-0.471347 J0.210943
G03 X57.591736 Y36.966690 Z-0.125000 I-19.431502 J-2.137705
G01 X57.591749 Y36.966680 Z-0.125000
G00 Z5.000000

(End cutting path id: path9)


(Start cutting path id: path9)
(Change tool to Default tool)

G00 Z5.000000
G00 X57.281779 Y23.247380

G01 Z-0.125000 F100.0(Penetrate)
G02 X57.372504 Y23.748875 Z-0.125000 I1.431401 J0.000000 F400.000000
G02 X57.469387 Y23.748880 Z-0.125000 I0.048442 J-0.018120
G02 X57.560106 Y23.247380 Z-0.125000 I-1.340798 J-0.501500
G02 X57.469387 Y22.745880 Z-0.125000 I-1.431517 J0.000000
G02 X57.372512 Y22.745878 Z-0.125000 I-0.048438 J0.018118
G02 X57.281779 Y23.247380 Z-0.125000 I1.340585 J0.501502
G01 X57.281779 Y23.247380 Z-0.125000
G00 Z5.000000

(End cutting path id: path9)


(Start cutting path id: path9)
(Change tool to Default tool)

G00 Z5.000000
G00 X56.553372 Y19.436000

G01 Z-0.125000 F100.0(Penetrate)
G02 X56.618331 Y20.228948 Z-0.125000 I4.872157 J-0.000000 F400.000000
G02 X56.851156 Y21.241390 Z-0.125000 I8.198217 J-1.352297
G02 X57.040712 Y21.499586 Z-0.125000 I0.454377 J-0.134903
G02 X57.148940 Y21.442000 Z-0.125000 I0.038794 J-0.057586
G02 X57.083979 Y20.649043 Z-0.125000 I-4.872199 J-0.000000
G02 X56.851156 Y19.636610 Z-0.125000 I-8.198070 J1.352278
G02 X56.661601 Y19.378414 Z-0.125000 I-0.454375 J0.134901
G02 X56.553372 Y19.436000 Z-0.125000 I-0.038794 J0.057586
G01 X56.553372 Y19.436000 Z-0.125000
G00 Z5.000000

(End cutting path id: path9)


(Start cutting path id: path9)
(Change tool to Default tool)

G00 Z5.000000
G00 X56.166037 Y17.630610

G01 Z-0.125000 F100.0(Penetrate)
G02 X56.256750 Y18.132109 Z-0.125000 I1.431607 J0.000000 F400.000000
G02 X56.353601 Y18.132110 Z-0.125000 I0.048426 J-0.018111
G02 X56.444321 Y17.630606 Z-0.125000 I-1.340807 J-0.501504
G02 X56.353601 Y17.129120 Z-0.125000 I-1.431433 J0.000000
G02 X56.256752 Y17.129120 Z-0.125000 I-0.048424 J0.018112
G02 X56.166037 Y17.630610 Z-0.125000 I1.340804 J0.501490
G01 X56.166037 Y17.630610 Z-0.125000
G00 Z5.000000

(End cutting path id: path9)


(Start cutting path id: path9)
(Change tool to Default tool)

G00 Z5.000000
G00 X55.764759 Y15.858540

G01 Z-0.125000 F100.0(Penetrate)
G02 X55.874634 Y16.123743 Z-0.125000 I0.412818 J-0.015669 F400.000000
G02 X55.989438 Y16.100920 Z-0.125000 I0.050384 J-0.046714
G02 X56.069964 Y15.597185 Z-0.125000 I-1.223228 J-0.453846
G02 X55.960018 Y15.331960 Z-0.125000 I-0.413001 J0.015804
G02 X55.845220 Y15.354776 Z-0.125000 I-0.050382 J0.046714
G02 X55.764668 Y15.858530 Z-0.125000 I1.223727 J0.453996
G01 X55.764759 Y15.858540 Z-0.125000
G00 Z5.000000

(End cutting path id: path9)


(Start cutting path id: path9)
(Change tool to Default tool)

G00 Z5.000000
G00 X55.392832 Y14.253750

G01 Z-0.125000 F100.0(Penetrate)
G02 X55.502708 Y14.518953 Z-0.125000 I0.412813 J-0.015669 F400.000000
G02 X55.617511 Y14.496130 Z-0.125000 I0.050384 J-0.046714
G02 X55.698037 Y13.992395 Z-0.125000 I-1.223228 J-0.453846
G02 X55.588091 Y13.727170 Z-0.125000 I-0.413001 J0.015804
G02 X55.473287 Y13.749978 Z-0.125000 I-0.050389 J0.046703
G02 X55.392741 Y14.253740 Z-0.125000 I1.223846 J0.454000
G01 X55.392832 Y14.253750 Z-0.125000
G00 Z5.000000

(End cutting path id: path9)


(Start cutting path id: path9)
(Change tool to Default tool)

G00 Z5.000000
G00 X55.020918 Y12.648980

G01 Z-0.125000 F100.0(Penetrate)
G02 X55.130793 Y12.914184 Z-0.125000 I0.412793 J-0.015659 F400.000000
G02 X55.245597 Y12.891360 Z-0.125000 I0.050383 J-0.046715
G02 X55.326128 Y12.387610 Z-0.125000 I-1.223397 J-0.453889
G02 X55.216187 Y12.122400 Z-0.125000 I-0.412944 J0.015791
G02 X55.101390 Y12.145216 Z-0.125000 I-0.050381 J0.046714
G02 X55.020836 Y12.648970 Z-0.125000 I1.223708 J0.453999
G01 X55.020918 Y12.648980 Z-0.125000
G00 Z5.000000

(End cutting path id: path9)


(Start cutting path id: path9)
(Change tool to Default tool)

G00 Z5.000000
G00 X54.108165 Y8.804190

G01 Z-0.125000 F100.0(Penetrate)
G02 X54.400942 Y10.192306 Z-0.125000 I16.926639 J-2.845179 F400.000000
G02 X54.669707 Y11.010770 Z-0.125000 I6.136548 J-1.561743
G01 X54.764770 Y10.999412 Z-0.125000
G02 X54.759167 Y10.408980 Z-0.125000 I-1.867040 J-0.277525
G02 X54.466389 Y9.020845 Z-0.125000 I-16.927333 J2.845281
G02 X54.197625 Y8.202380 Z-0.125000 I-6.136415 J1.561689
G01 X54.102561 Y8.213739 Z-0.125000
G02 X54.108165 Y8.804190 Z-0.125000 I1.867148 J0.277530
G01 X54.108165 Y8.804190 Z-0.125000
G00 Z5.000000

(End cutting path id: path9)


(Start cutting path id: path9)
(Change tool to Default tool)

G00 Z5.000000
G00 X53.533239 Y6.631030

G01 Z-0.125000 F100.0(Penetrate)
G02 X53.643113 Y6.896233 Z-0.125000 I0.412817 J-0.015670 F400.000000
G02 X53.757918 Y6.873410 Z-0.125000 I0.050384 J-0.046714
G02 X53.838450 Y6.369660 Z-0.125000 I-1.223380 J-0.453887
G02 X53.728508 Y6.104450 Z-0.125000 I-0.412945 J0.015792
G02 X53.613719 Y6.127261 Z-0.125000 I-0.050379 J0.046708
G02 X53.533158 Y6.631030 Z-0.125000 I1.223715 J0.454019
G01 X53.533239 Y6.631030 Z-0.125000
G00 Z5.000000

(End cutting path id: path9)


(Start cutting path id: path9)
(Change tool to Default tool)

G00 Z5.000000
G00 X68.990427 Y13.474110

G01 Z-0.125000 F100.0(Penetrate)
G02 X67.725323 Y16.931851 Z-0.125000 I73.870685 J28.987809 F400.000000
G02 X67.760100 Y17.095020 Z-0.125000 I0.154254 J0.052413
G02 X67.863484 Y17.078098 Z-0.125000 I0.046090 J-0.042682
G02 X69.258204 Y13.762970 Z-0.125000 I-67.537357 J-30.364858
G02 X70.523309 Y10.305236 Z-0.125000 I-73.867793 J-28.986829
G02 X70.488535 Y10.142070 Z-0.125000 I-0.154255 J-0.052414
G02 X70.385151 Y10.158992 Z-0.125000 I-0.046091 J0.042682
G02 X68.990427 Y13.474110 Z-0.125000 I67.541481 J30.366754
G01 X68.990427 Y13.474110 Z-0.125000
G00 Z5.000000

(End cutting path id: path9)


(Start cutting path id: path9)
(Change tool to Default tool)

G00 Z5.000000
G00 X67.124744 Y18.247910

G01 Z-0.125000 F100.0(Penetrate)
G02 X67.134672 Y18.694313 Z-0.125000 I0.590796 J0.210172 F400.000000
G02 X67.310145 Y18.703810 Z-0.125000 I0.089974 J-0.036591
G02 X67.583944 Y17.986999 Z-0.125000 I-2.614921 J-1.409512
G02 X67.530758 Y17.783810 Z-0.125000 I-0.216440 J-0.051901
G02 X67.395691 Y17.785765 Z-0.125000 I-0.066653 J0.061806
G02 X67.124744 Y18.247910 Z-0.125000 I1.076007 J0.941342
G01 X67.124744 Y18.247910 Z-0.125000
G00 Z5.000000

(End cutting path id: path9)


(Start cutting path id: path9)
(Change tool to Default tool)

G00 Z5.000000
G00 X65.629538 Y22.721800

G01 Z-0.125000 F100.0(Penetrate)
G02 X64.726724 Y25.865447 Z-0.125000 I79.006652 J24.391127 F400.000000
G02 X64.689352 Y26.257730 Z-0.125000 I1.159975 J0.308431
G01 X64.764471 Y26.268560 Z-0.125000
G02 X65.801530 Y23.276970 Z-0.125000 I-63.531366 J-23.699207
G02 X66.785880 Y19.918548 Z-0.125000 I-66.049943 J-21.182638
G02 X66.741717 Y19.741040 Z-0.125000 I-0.183114 J-0.048690
G02 X66.637805 Y19.761597 Z-0.125000 I-0.045620 J0.042308
G02 X65.629538 Y22.721800 Z-0.125000 I50.800043 J18.954684
G01 X65.629538 Y22.721800 Z-0.125000
G00 Z5.000000

(End cutting path id: path9)


(Start cutting path id: path9)
(Change tool to Default tool)

G00 Z5.000000
G00 X66.074834 Y48.141120

G01 Z-0.125000 F100.0(Penetrate)
G03 X68.821883 Y51.210501 Z-0.125000 I-2.345862 J4.863484 F400.000000
G03 X68.189702 Y54.144590 Z-0.125000 I-2.703988 J0.952546
G01 X66.883190 Y55.510619 Z-0.125000
G01 X65.793224 Y54.223291 Z-0.125000
G02 X64.624259 Y53.106356 Z-0.125000 I-5.854274 J4.956804
G02 X64.124414 Y52.935967 Z-0.125000 I-0.499845 J0.647968
G03 X63.730623 Y52.750537 Z-0.125000 I-0.000000 J-0.510855
G03 X63.544189 Y52.233872 Z-0.125000 I0.627150 J-0.518270
G02 X62.867562 Y49.962665 Z-0.125000 I-4.177320 J0.008094
G02 X61.127960 Y48.522720 Z-0.125000 I-3.179121 J2.069926
G03 X60.433428 Y47.983785 Z-0.125000 I0.623672 J-1.520726
G03 X60.198345 Y47.274590 Z-0.125000 I0.952202 J-0.709195
G03 X60.530868 Y46.793047 Z-0.125000 I0.514935 J0.000000
G03 X61.844294 Y46.651100 Z-0.125000 I0.929599 J2.454018
G03 X63.443372 Y47.047026 Z-0.125000 I-1.257897 J8.507595
G03 X66.074834 Y48.141120 Z-0.125000 I-8.550086 J24.275836
G01 X66.074834 Y48.141120 Z-0.125000
G00 Z5.000000

(End cutting path id: path9)


(Start cutting path id: path9)
(Change tool to Default tool)

G00 Z5.000000
G00 X70.908418 Y51.146765

G01 Z-0.125000 F100.0(Penetrate)
G03 X70.451853 Y53.321951 Z-0.125000 I-3.772857 J0.343597 F400.000000
G03 X68.293576 Y55.881178 Z-0.125000 I-7.523882 J-4.155442
G03 X67.215969 Y56.496953 Z-0.125000 I-2.508710 J-3.139452
G03 X67.084573 Y56.398644 Z-0.125000 I-0.034582 J-0.090743
G03 X67.216373 Y56.040813 Z-0.125000 I0.700230 J0.054727
G03 X68.386886 Y54.687380 Z-0.125000 I8.506071 J6.173582
G02 X69.528473 Y53.015420 Z-0.125000 I-3.570318 J-3.663463
G02 X69.765218 Y51.426235 Z-0.125000 I-2.967788 J-1.254346
G03 X69.874220 Y50.006239 Z-0.125000 I3.940578 J-0.411694
G03 X70.190655 Y49.809580 Z-0.125000 I0.262212 J0.069003
G03 X70.597884 Y50.112599 Z-0.125000 I-0.119522 J0.585775
G03 X70.908451 Y51.146765 Z-0.125000 I-2.383715 J1.279561
G01 X70.908418 Y51.146765 Z-0.125000
G00 Z5.000000

(End cutting path id: path9)


(Start cutting path id: path9)
(Change tool to Default tool)

G00 Z5.000000
G00 X70.611957 Y56.902227

G01 Z-0.125000 F100.0(Penetrate)
G03 X70.173888 Y58.995810 Z-0.125000 I-5.221776 J0.000000 F400.000000
G03 X69.280053 Y59.945497 Z-0.125000 I-1.778362 J-0.778298
G03 X67.967823 Y60.516077 Z-0.125000 I-5.181677 J-10.122677
G03 X67.809422 Y60.477647 Z-0.125000 I-0.050203 J-0.138736
G03 X67.719579 Y60.304574 Z-0.125000 I0.269032 J-0.249511
G03 X67.426291 Y58.679188 Z-0.125000 I25.777563 J-5.490507
G03 X67.508345 Y57.229149 Z-0.125000 I3.551057 J-0.526397
G03 X67.933861 Y56.772916 Z-0.125000 I0.640064 J0.170421
G02 X68.582336 Y56.386773 Z-0.125000 I-0.594360 J-1.735732
G02 X69.285560 Y55.528100 Z-0.125000 I-2.687206 J-2.918026
G03 X70.023736 Y55.445868 Z-0.125000 I0.400787 J0.243438
G03 X70.611957 Y56.902227 Z-0.125000 I-1.508766 J1.456359
G01 X70.611957 Y56.902227 Z-0.125000
G00 Z5.000000

(End cutting path id: path9)


(Start cutting path id: path9)
(Change tool to Default tool)

G00 Z5.000000
G00 X69.754409 Y61.173201

G01 Z-0.125000 F100.0(Penetrate)
G03 X68.196659 Y62.020531 Z-0.125000 I-2.364642 J-2.491643 F400.000000
G03 X67.848419 Y61.633798 Z-0.125000 I-0.069496 J-0.287577
G03 X68.585516 Y60.766426 Z-0.125000 I1.511698 J0.537767
G03 X70.426002 Y60.212882 Z-0.125000 I2.208290 J4.005876
G03 X70.488088 Y60.321209 Z-0.125000 I0.005541 J0.068779
G03 X69.754409 Y61.173201 Z-0.125000 I-4.587111 J-3.208220
G01 X69.754409 Y61.173201 Z-0.125000
G00 Z5.000000

(End cutting path id: path9)


(Start cutting path id: path9)
(Change tool to Default tool)

G00 Z5.000000
G00 X77.087306 Y57.763572

G01 Z-0.125000 F100.0(Penetrate)
G03 X79.606902 Y61.823094 Z-0.125000 I-12.966845 J10.859717 F400.000000
G03 X80.281741 Y65.038422 Z-0.125000 I-7.322436 J3.215328
G03 X80.216269 Y66.204425 Z-0.125000 I-10.415476 J-0.000000
G03 X79.328784 Y73.497010 Z-0.125000 I-409.341846 J-46.115325
G02 X78.499012 Y80.778681 Z-0.125000 I219.554200 J28.707071
G02 X78.550267 Y81.504930 Z-0.125000 I2.174902 J0.211441
G03 X78.532391 Y81.949741 Z-0.125000 I-0.788246 J0.191086
G03 X78.387490 Y81.999703 Z-0.125000 I-0.091449 J-0.030119
G02 X78.202555 Y82.059458 Z-0.125000 I-0.068785 J0.103173
G02 X78.050255 Y82.901846 Z-0.125000 I2.253519 J0.842388
G03 X77.795024 Y82.991125 Z-0.125000 I-0.143231 J-0.000003
G03 X76.330950 Y80.745040 Z-0.125000 I11.011437 J-8.777837
G02 X74.515894 Y77.524046 Z-0.125000 I-53.126361 J27.815247
G02 X73.540255 Y76.131265 Z-0.125000 I-10.854893 J6.565709
G02 X73.439290 Y76.184090 Z-0.125000 I-0.045236 J0.036441
G02 X73.787860 Y76.973463 Z-0.125000 I3.195867 J-0.939580
G03 X77.557537 Y83.942357 Z-0.125000 I-67.933497 J41.251212
G03 X77.446624 Y84.625959 Z-0.125000 I-0.547813 J0.261917
G03 X77.079492 Y84.892794 Z-0.125000 I-0.939779 J-0.907040
G03 X76.376647 Y85.147915 Z-0.125000 I-1.554122 J-3.185810
G01 X76.380556 Y85.200249 Z-0.125000
G02 X76.899599 Y85.196975 Z-0.125000 I0.243174 J-2.593119
G02 X78.061247 Y84.846534 Z-0.125000 I-0.346227 J-3.248221
G02 X79.187877 Y84.006249 Z-0.125000 I-2.023128 J-3.887974
G02 X81.217408 Y81.149366 Z-0.125000 I-8.356905 J-8.086082
G02 X83.064797 Y76.305784 Z-0.125000 I-22.728318 J-11.442895
G03 X83.577340 Y76.030283 Z-0.125000 I0.386032 J0.103656
G03 X84.000905 Y76.618132 Z-0.125000 I-0.196143 J0.587849
G03 X83.419163 Y79.287436 Z-0.125000 I-6.414881 J-0.000000
G03 X80.230005 Y84.858563 Z-0.125000 I-32.206307 J-14.737937
G03 X78.047674 Y86.536751 Z-0.125000 I-3.760229 J-2.631781
G03 X72.471546 Y87.698969 Z-0.125000 I-6.754731 J-18.450295
G03 X63.380559 Y87.552901 Z-0.125000 I-3.587437 J-59.700494
G03 X56.479212 Y86.221048 Z-0.125000 I3.288779 J-35.588182
G03 X48.661253 Y83.515529 Z-0.125000 I26.792185 J-90.067863
G03 X48.297085 Y82.979552 Z-0.125000 I0.212337 J-0.535977
G03 X48.362733 Y82.735677 Z-0.125000 I0.485806 J-0.000000
G03 X48.947936 Y81.858192 Z-0.125000 I7.330498 J4.254894
G01 X49.598787 Y81.002828 Z-0.125000
G01 X54.406554 Y82.625936 Z-0.125000
G02 X62.994423 Y84.964528 Z-0.125000 I23.850228 J-70.646102
G02 X67.636652 Y85.392578 Z-0.125000 I4.187108 J-20.022778
G02 X67.662912 Y85.236340 Z-0.125000 I-0.001805 J-0.080629
G02 X66.070370 Y84.811118 Z-0.125000 I-3.039277 J8.187897
G03 X51.010249 Y81.415867 Z-0.125000 I23.126413 J-137.678791
G03 X50.156661 Y80.285699 Z-0.125000 I0.321389 J-1.130168
G03 X50.271218 Y79.767096 Z-0.125000 I1.231142 J-0.000000
G03 X51.511223 Y77.369259 Z-0.125000 I28.844556 J13.396978
G01 X52.865786 Y75.001899 Z-0.125000
G01 X55.800191 Y75.001899 Z-0.125000
G02 X58.693935 Y74.813246 Z-0.125000 I0.000000 J-22.287819
G02 X59.931365 Y74.460957 Z-0.125000 I-0.569646 J-4.350318
G02 X60.981342 Y73.734395 Z-0.125000 I-1.462191 J-3.235016
G02 X63.357620 Y71.029641 Z-0.125000 I-19.974234 J-19.944705
G03 X65.697388 Y68.472741 Z-0.125000 I16.342544 J12.605746
G03 X66.276747 Y68.333814 Z-0.125000 I0.413776 J0.448050
G02 X66.734490 Y68.386454 Z-0.125000 I0.391490 J-1.387762
G01 X66.765314 Y68.311264 Z-0.125000
G03 X66.750736 Y68.087145 Z-0.125000 I0.130565 J-0.121027
G03 X69.951806 Y63.824965 Z-0.125000 I81.779626 J58.086673
G02 X73.244480 Y59.491857 Z-0.125000 I-101.796295 J-80.771312
G02 X74.297441 Y57.850495 Z-0.125000 I-13.493588 J-9.814785
G03 X75.311094 Y56.240430 Z-0.125000 I16.604646 J9.329716
G03 X75.493859 Y56.145403 Z-0.125000 I0.182765 J0.128241
G03 X75.693263 Y56.228895 Z-0.125000 I0.000000 J0.279866
G03 X77.087319 Y57.763427 Z-0.125000 I-18.343750 J18.064982
G01 X77.087306 Y57.763572 Z-0.125000
G00 Z5.000000

(End cutting path id: path9)


(Start cutting path id: path9)
(Change tool to Default tool)

G00 Z5.000000
G00 X81.498814 Y66.978015

G01 Z-0.125000 F100.0(Penetrate)
G02 X81.578774 Y67.880716 Z-0.125000 I5.135489 J0.000000 F400.000000
G01 X81.659991 Y67.880715 Z-0.125000
G02 X81.739932 Y66.978014 Z-0.125000 I-5.056748 J-0.902701
G02 X81.659991 Y66.075321 Z-0.125000 I-5.136587 J-0.000000
G01 X81.578773 Y66.075320 Z-0.125000
G02 X81.498814 Y66.978015 Z-0.125000 I5.055524 J0.902695
G01 X81.498814 Y66.978015 Z-0.125000
G00 Z5.000000

(End cutting path id: path9)


(Start cutting path id: path9)
(Change tool to Default tool)

G00 Z5.000000
G00 X81.111876 Y70.588799

G01 Z-0.125000 F100.0(Penetrate)
G02 X81.195702 Y71.290896 Z-0.125000 I2.982188 J0.000000 F400.000000
G01 X81.281964 Y71.290899 Z-0.125000
G02 X81.365812 Y70.588781 Z-0.125000 I-2.897720 J-0.702118
G02 X81.281964 Y69.886704 Z-0.125000 I-2.981228 J-0.000000
G01 X81.195707 Y69.886706 Z-0.125000
G02 X81.111876 Y70.588799 Z-0.125000 I2.898137 J0.702093
G01 X81.111876 Y70.588799 Z-0.125000
G00 Z5.000000

(End cutting path id: path9)


(Start cutting path id: path9)
(Change tool to Default tool)

G00 Z5.000000
G00 X80.726193 Y73.196590

G01 Z-0.125000 F100.0(Penetrate)
G02 X80.819764 Y73.696031 Z-0.125000 I1.472279 J-0.017348 F400.000000
G01 X80.911421 Y73.690452 Z-0.125000
G02 X80.991165 Y72.986326 Z-0.125000 I-2.778520 J-0.671252
G02 X80.897581 Y72.486856 Z-0.125000 I-1.469891 J0.016906
G01 X80.805893 Y72.492446 Z-0.125000
G02 X80.726152 Y73.196590 Z-0.125000 I2.778772 J0.671270
G01 X80.726193 Y73.196590 Z-0.125000
G00 Z5.000000

(End cutting path id: path9)


(Start cutting path id: path9)
(Change tool to Default tool)

G00 Z5.000000
G00 X80.132978 Y76.245581

G01 Z-0.125000 F100.0(Penetrate)
G02 X79.972983 Y77.890210 Z-0.125000 I16.290454 J2.414886 F400.000000
G02 X80.046508 Y78.091449 Z-0.125000 I0.276699 J0.012956
G02 X80.147390 Y78.067229 Z-0.125000 I0.043635 J-0.040458
G02 X80.467662 Y76.606662 Z-0.125000 I-11.891448 J-3.372943
G02 X80.632992 Y74.976639 Z-0.125000 I-14.923954 J-2.337104
G02 X80.554092 Y74.760794 Z-0.125000 I-0.296662 J-0.013902
G02 X80.446617 Y74.786593 Z-0.125000 I-0.046489 J0.043097
G02 X80.132938 Y76.245581 Z-0.125000 I11.118837 J3.153739
G01 X80.132978 Y76.245581 Z-0.125000
G00 Z5.000000

(End cutting path id: path9)


(Start cutting path id: path9)
(Change tool to Default tool)

G00 Z5.000000
G00 X87.034932 Y77.409059

G01 Z-0.125000 F100.0(Penetrate)
G02 X87.125658 Y77.910550 Z-0.125000 I1.431371 J0.000000 F400.000000
G02 X87.222539 Y77.910555 Z-0.125000 I0.048442 J-0.018120
G02 X87.313259 Y77.409056 Z-0.125000 I-1.340774 J-0.501499
G02 X87.222539 Y76.907558 Z-0.125000 I-1.431494 J0.000000
G02 X87.125669 Y76.907555 Z-0.125000 I-0.048436 J0.018117
G02 X87.034932 Y77.409059 Z-0.125000 I1.340542 J0.501504
G01 X87.034932 Y77.409059 Z-0.125000
G00 Z5.000000

(End cutting path id: path9)


(Start cutting path id: path9)
(Change tool to Default tool)

G00 Z5.000000
G00 X86.633676 Y79.247883

G01 Z-0.125000 F100.0(Penetrate)
G02 X86.743552 Y79.513088 Z-0.125000 I0.412818 J-0.015669 F400.000000
G02 X86.858355 Y79.490266 Z-0.125000 I0.050383 J-0.046713
G02 X86.938880 Y78.986518 Z-0.125000 I-1.223315 J-0.453858
G02 X86.828935 Y78.721302 Z-0.125000 I-0.412977 J0.015802
G02 X86.714133 Y78.744110 Z-0.125000 I-0.050388 J0.046704
G02 X86.633585 Y79.247874 Z-0.125000 I1.223837 J0.454003
G01 X86.633676 Y79.247883 Z-0.125000
G00 Z5.000000

(End cutting path id: path9)


(Start cutting path id: path9)
(Change tool to Default tool)

G00 Z5.000000
G00 X86.157568 Y83.906066

G01 Z-0.125000 F100.0(Penetrate)
G03 X86.057223 Y84.474158 Z-0.125000 I-0.824653 J0.147246 F400.000000
G03 X85.510986 Y85.018868 Z-0.125000 I-1.295103 J-0.752496
G03 X85.039380 Y84.950892 Z-0.125000 I-0.192615 J-0.333623
G03 X84.744720 Y84.214124 Z-0.125000 I0.773778 J-0.736768
G03 X84.997148 Y83.277241 Z-0.125000 I1.864829 J-0.000000
G03 X85.391302 Y83.101318 Z-0.125000 I0.319090 J0.185407
G03 X85.890571 Y83.378857 Z-0.125000 I-0.194959 J0.938556
G03 X86.157568 Y83.906066 Z-0.125000 I-0.743086 J0.707537
G01 X86.157568 Y83.906066 Z-0.125000
G00 Z5.000000

(End cutting path id: path9)


(Start cutting path id: path9)
(Change tool to Default tool)

G00 Z5.000000
G00 X86.232358 Y87.652498

G01 Z-0.125000 F100.0(Penetrate)
G03 X85.626362 Y90.844996 Z-0.125000 I-8.712336 J0.000000 F400.000000
G03 X84.736404 Y91.450994 Z-0.125000 I-0.889958 J-0.350490
G03 X84.500486 Y91.312340 Z-0.125000 I-0.000000 J-0.270032
G03 X84.457091 Y90.949494 Z-0.125000 I0.420819 J-0.234346
G02 X84.595521 Y90.447884 Z-0.125000 I-323.992481 J-89.682782
G02 X85.119371 Y88.542306 Z-0.125000 I-4345.360654 J-1195.576006
G03 X85.831929 Y87.459959 Z-0.125000 I2.021844 J0.555343
G03 X86.232366 Y87.652498 Z-0.125000 I0.153930 J0.192539
G01 X86.232358 Y87.652498 Z-0.125000
G00 Z5.000000

(End cutting path id: path9)


(Start cutting path id: path9)
(Change tool to Default tool)

G00 Z5.000000
G00 X83.931405 Y91.169352

G01 Z-0.125000 F100.0(Penetrate)
G03 X83.912162 Y92.685420 Z-0.125000 I-8.506111 J0.650190 F400.000000
G03 X83.466509 Y95.725746 Z-0.125000 I-34.851878 J-3.555785
G02 X82.817433 Y101.105497 Z-0.125000 I38.405775 J7.362751
G02 X83.174305 Y101.480948 Z-0.125000 I0.356872 J0.018120
G02 X83.440016 Y101.410926 Z-0.125000 I-0.000000 J-0.539156
G02 X84.329036 Y100.826947 Z-0.125000 I-3.982603 J-7.031599
G03 X84.658779 Y100.825897 Z-0.125000 I0.165571 J0.219131
G03 X84.732584 Y101.127844 Z-0.125000 I-0.145883 J0.195652
G03 X81.787007 Y106.210869 Z-0.125000 I-35.486085 J-17.168955
G03 X80.932577 Y106.684832 Z-0.125000 I-0.900105 J-0.615513
G03 X80.786043 Y106.558477 Z-0.125000 I-0.005982 J-0.141208
G03 X80.653653 Y104.045814 Z-0.125000 I23.778023 J-2.512663
G02 X80.356840 Y101.851669 Z-0.125000 I-8.258361 J-0.000000
G02 X80.002802 Y101.684141 Z-0.125000 I-0.249146 J0.068663
G03 X78.438900 Y101.996109 Z-0.125000 I-1.476112 J-3.323855
G03 X78.173930 Y101.639981 Z-0.125000 I0.006802 J-0.281698
G02 X78.367480 Y100.875477 Z-0.125000 I-19.674783 J-5.387838
G02 X79.330534 Y96.669501 Z-0.125000 I-594.013444 J-138.226115
G03 X80.521965 Y92.608845 Z-0.125000 I32.354572 J7.287991
G03 X81.117061 Y91.763742 Z-0.125000 I1.859041 J0.677005
G02 X81.104779 Y91.465000 Z-0.125000 I-0.120144 J-0.144684
G02 X80.662819 Y91.445712 Z-0.125000 I-0.236119 J0.337246
G02 X80.202509 Y92.006320 Z-0.125000 I0.515082 J0.892211
G02 X78.991980 Y96.360389 Z-0.125000 I37.860816 J12.871474
G03 X77.462895 Y101.988008 Z-0.125000 I-56.251641 J-12.262641
G03 X77.055609 Y102.283354 Z-0.125000 I-0.407286 J-0.133152
G03 X76.770789 Y102.090915 Z-0.125000 I0.000000 J-0.306993
G03 X76.773225 Y101.581259 Z-0.125000 I0.626161 J-0.251841
G02 X77.013889 Y100.863058 Z-0.125000 I-5.104848 J-2.110022
G02 X78.311965 Y95.671462 Z-0.125000 I-266.793469 J-69.465531
G03 X79.644467 Y90.510544 Z-0.125000 I149.243683 J35.780880
G03 X79.828141 Y90.193930 Z-0.125000 I0.697558 J0.193084
G03 X80.660442 Y89.739691 Z-0.125000 I1.177575 J1.168037
G03 X82.699192 Y89.582875 Z-0.125000 I1.605706 J7.544431
G03 X83.476578 Y89.990855 Z-0.125000 I-0.059505 J1.058008
G03 X83.931431 Y91.169361 Z-0.125000 I-1.732599 J1.345739
G01 X83.931405 Y91.169352 Z-0.125000
G00 Z5.000000

(End cutting path id: path9)


(Start cutting path id: path9)
(Change tool to Default tool)

G00 Z5.000000
G00 X73.012328 Y95.262377

G01 Z-0.125000 F100.0(Penetrate)
G03 X72.733575 Y97.621218 Z-0.125000 I-10.765079 J-0.076256 F400.000000
G03 X71.568253 Y101.480948 Z-0.125000 I-30.211306 J-7.015561
G03 X70.040515 Y105.241392 Z-0.125000 I-68.766271 J-25.746797
G03 X69.391657 Y106.440792 Z-0.125000 I-7.589603 J-3.330653
G03 X67.461719 Y108.220192 Z-0.125000 I-4.482943 J-2.925895
G03 X61.863756 Y110.525289 Z-0.125000 I-13.578618 J-25.025966
G02 X59.708010 Y111.457071 Z-0.125000 I2.663760 J9.122437
G02 X59.239329 Y112.069536 Z-0.125000 I0.519734 J0.883278
G03 X56.010028 Y120.039321 Z-0.125000 I-35.355605 J-9.686707
G03 X52.491237 Y124.347859 Z-0.125000 I-13.444755 J-7.389185
G03 X51.443653 Y125.013019 Z-0.125000 I-2.919884 J-3.441106
G03 X48.518204 Y126.159403 Z-0.125000 I-12.003274 J-26.325175
G03 X41.104259 Y128.350758 Z-0.125000 I-38.194054 J-115.583421
G03 X40.858757 Y128.161172 Z-0.125000 I-0.049548 J-0.189586
G03 X40.912304 Y128.061854 Z-0.125000 I0.118879 J0.000000
G03 X45.474998 Y125.124578 Z-0.125000 I151.045930 J229.618657
G01 X50.091243 Y122.216874 Z-0.125000
G01 X51.020823 Y118.568983 Z-0.125000
G02 X51.943299 Y114.919303 Z-0.125000 I-937.562438 J-238.915372
G02 X53.714860 Y107.822336 Z-0.125000 I-3541.363283 J-887.772505
G01 X55.479312 Y100.723587 Z-0.125000
G01 X57.187967 Y99.916401 Z-0.125000
G02 X58.887282 Y99.090149 Z-0.125000 I-35.907284 J-76.009491
G02 X65.219177 Y95.899205 Z-0.125000 I-529.751165 J-1059.080295
G03 X71.576558 Y92.881338 Z-0.125000 I59.915378 J118.011513
G03 X72.285556 Y92.772190 Z-0.125000 I0.556500 J1.257568
G03 X72.715745 Y93.133773 Z-0.125000 I-0.056175 J0.503531
G03 X73.012328 Y95.262377 Z-0.125000 I-7.113462 J2.076099
G01 X73.012328 Y95.262377 Z-0.125000
G00 Z5.000000

(End cutting path id: path9)


(Start cutting path id: path9)
(Change tool to Default tool)

G00 Z5.000000
G00 X71.169809 Y94.855427

G01 Z-0.125000 F100.0(Penetrate)
G02 X60.895096 Y99.162012 Z-0.125000 I29.215542 J84.112927 F400.000000
G02 X57.099324 Y101.817872 Z-0.125000 I6.828397 J13.799591
G02 X56.524074 Y102.538788 Z-0.125000 I2.350312 J2.465384
G02 X55.869685 Y103.879989 Z-0.125000 I7.661028 J4.568153
G02 X52.622554 Y113.851980 Z-0.125000 I88.309116 J34.270335
G02 X52.913317 Y115.019576 Z-0.125000 I1.205245 J0.319863
G02 X53.028973 Y114.995260 Z-0.125000 I0.050532 J-0.046861
G02 X53.871659 Y112.251427 Z-0.125000 I-38.422690 J-13.301691
G03 X56.001207 Y104.849740 Z-0.125000 I212.833249 J57.227310
G03 X56.693340 Y103.052170 Z-0.125000 I13.179018 J4.042391
G03 X57.390455 Y102.217243 Z-0.125000 I1.929217 J0.902294
G03 X61.090127 Y99.933812 Z-0.125000 I19.684537 J27.754513
G03 X70.345545 Y95.463152 Z-0.125000 I61.826554 J116.181019
G03 X72.271532 Y95.061774 Z-0.125000 I1.925987 J4.420173
G02 X72.706168 Y94.924532 Z-0.125000 I-0.000000 J-0.756852
G02 X72.843425 Y94.660592 Z-0.125000 I-0.185145 J-0.263940
G02 X72.800739 Y94.323818 Z-0.125000 I-1.349853 J-0.000000
G01 X72.750425 Y94.299056 Z-0.125000
G03 X72.656320 Y94.335544 Z-0.125000 I-0.629474 J-1.483864
G03 X71.169786 Y94.855440 Z-0.125000 I-122.517859 J-347.929002
G01 X71.169809 Y94.855427 Z-0.125000
G00 Z5.000000

(End cutting path id: path9)


(Start cutting path id: path9)
(Change tool to Default tool)

G00 Z5.000000
G00 X71.076853 Y85.725271

G01 Z-0.125000 F100.0(Penetrate)
G02 X72.471529 Y85.803686 Z-0.125000 I1.394676 J-12.363520 F400.000000
G02 X73.866212 Y85.725271 Z-0.125000 I0.000000 J-12.442064
G01 X73.866213 Y85.646345 Z-0.125000
G02 X72.471533 Y85.567904 Z-0.125000 I-1.394680 J12.359475
G02 X71.076852 Y85.646343 Z-0.125000 I-0.000000 J12.438217
G01 X71.076853 Y85.725271 Z-0.125000
G01 X71.076853 Y85.725271 Z-0.125000
G00 Z5.000000

(End cutting path id: path9)


(Start cutting path id: path9)
(Change tool to Default tool)

G00 Z5.000000
G00 X77.482134 Y103.633494

G01 Z-0.125000 F100.0(Penetrate)
G03 X76.713297 Y104.113658 Z-0.125000 I-3.264850 J-4.372054 F400.000000
G03 X75.818744 Y104.489209 Z-0.125000 I-2.861210 J-5.562156
G03 X75.533030 Y104.356966 Z-0.125000 I-0.072354 J-0.218445
G03 X75.597439 Y103.941453 Z-0.125000 I0.380566 J-0.153757
G03 X76.403554 Y103.293316 Z-0.125000 I1.984989 J1.643447
G03 X77.260829 Y103.085738 Z-0.125000 I0.857275 J1.666435
G03 X77.575910 Y103.298267 Z-0.125000 I0.000000 J0.339823
G03 X77.482134 Y103.633494 Z-0.125000 I-0.264325 J0.106788
G01 X77.482134 Y103.633494 Z-0.125000
G00 Z5.000000

(End cutting path id: path9)


(Start cutting path id: path9)
(Change tool to Default tool)

G00 Z5.000000
G00 X80.281723 Y104.690528

G01 Z-0.125000 F100.0(Penetrate)
G03 X80.110053 Y106.926026 Z-0.125000 I-14.641221 J-0.000000 F400.000000
G03 X79.909796 Y107.097720 Z-0.125000 I-0.200257 J-0.030939
G03 X79.709539 Y106.926026 Z-0.125000 I0.000000 J-0.202633
G03 X79.537869 Y104.690528 Z-0.125000 I14.469551 J-2.235498
G03 X79.709539 Y102.455034 Z-0.125000 I14.641144 J0.000000
G03 X79.909796 Y102.283341 Z-0.125000 I0.200257 J0.030939
G03 X80.110053 Y102.455034 Z-0.125000 I0.000000 J0.202632
G03 X80.281723 Y104.690528 Z-0.125000 I-14.469473 J2.235494
G01 X80.281723 Y104.690528 Z-0.125000
G00 Z5.000000

(End cutting path id: path9)


(Start cutting path id: path9)
(Change tool to Default tool)

G00 Z5.000000
G00 X68.008553 Y109.262750

G01 Z-0.125000 F100.0(Penetrate)
G03 X67.590936 Y110.239397 Z-0.125000 I-1.350809 J0.000000 F400.000000
G03 X65.328832 Y112.037816 Z-0.125000 I-10.990414 J-11.502185
G03 X62.775367 Y113.404436 Z-0.125000 I-8.905334 J-13.570363
G03 X61.648394 Y113.436506 Z-0.125000 I-0.604387 J-1.421270
G03 X61.596232 Y113.183057 Z-0.125000 I0.051297 J-0.142650
G03 X64.114258 Y110.999583 Z-0.125000 I30.916327 J33.109681
G03 X66.890995 Y108.905853 Z-0.125000 I34.620021 J43.025454
G03 X67.531748 Y108.702515 Z-0.125000 I0.640753 J0.907892
G03 X67.857856 Y108.853191 Z-0.125000 I-0.000000 J0.428236
G03 X68.008553 Y109.262750 Z-0.125000 I-0.481195 J0.409559
G01 X68.008553 Y109.262750 Z-0.125000
G00 Z5.000000

(End cutting path id: path9)


(Start cutting path id: path9)
(Change tool to Default tool)

G00 Z5.000000
G00 X67.935013 Y112.783260

G01 Z-0.125000 F100.0(Penetrate)
G03 X67.623463 Y114.716273 Z-0.125000 I-9.267461 J-0.502054 F400.000000
G03 X67.400013 Y114.986326 Z-0.125000 I-0.409461 J-0.111330
G03 X67.186551 Y114.901916 Z-0.125000 I-0.068159 J-0.139748
G03 X66.834860 Y113.319843 Z-0.125000 I5.235804 J-1.994034
G03 X67.115286 Y111.147876 Z-0.125000 I5.443531 J-0.401264
G03 X67.730457 Y110.708508 Z-0.125000 I0.615171 J0.210975
G03 X67.892445 Y110.855310 Z-0.125000 I0.000000 J0.162773
G03 X67.935021 Y112.783260 Z-0.125000 I-12.605165 J1.242812
G01 X67.935013 Y112.783260 Z-0.125000
G00 Z5.000000

(End cutting path id: path9)


(Start cutting path id: path9)
(Change tool to Default tool)

G00 Z5.000000
G00 X66.249669 Y114.614924

G01 Z-0.125000 F100.0(Penetrate)
G03 X65.938639 Y115.040894 Z-0.125000 I-0.871943 J-0.310128 F400.000000
G03 X64.802168 Y115.717963 Z-0.125000 I-3.529040 J-4.631226
G02 X63.701488 Y116.385086 Z-0.125000 I2.183385 J4.843904
G02 X63.545575 Y116.706012 Z-0.125000 I0.252333 J0.320926
G03 X63.181536 Y116.893878 Z-0.125000 I-0.230495 J0.000000
G03 X62.497483 Y115.960970 Z-0.125000 I1.064915 J-1.498091
G03 X62.604767 Y114.961435 Z-0.125000 I1.174282 J-0.379485
G03 X63.855778 Y113.623559 Z-0.125000 I3.542342 J2.058515
G03 X65.456059 Y112.986494 Z-0.125000 I2.261375 J3.352027
G03 X66.015841 Y113.265580 Z-0.125000 I0.087183 J0.526070
G03 X66.294577 Y114.088503 Z-0.125000 I-2.494457 J1.303576
G03 X66.249691 Y114.614942 Z-0.125000 I-1.025326 J0.177711
G01 X66.249669 Y114.614924 Z-0.125000
G00 Z5.000000

(End cutting path id: path9)


(Start cutting path id: path9)
(Change tool to Default tool)

G00 Z5.000000
G00 X67.155474 Y117.379145

G01 Z-0.125000 F100.0(Penetrate)
G02 X66.911173 Y119.007924 Z-0.125000 I1.071675 J0.993452 F400.000000
G02 X68.389907 Y119.936066 Z-0.125000 I1.478734 J-0.713904
G02 X68.764633 Y119.557153 Z-0.125000 I0.000000 J-0.374749
G02 X68.367417 Y117.903700 Z-0.125000 I-3.816477 J0.042409
G02 X67.695247 Y117.265611 Z-0.125000 I-1.207737 J0.599163
G02 X67.155617 Y117.379145 Z-0.125000 I-0.189603 J0.438015
G01 X67.155474 Y117.379145 Z-0.125000
G00 Z5.000000

(End cutting path id: path9)


(Start cutting path id: path9)
(Change tool to Default tool)

G00 Z5.000000
G00 X65.405042 Y118.505754

G01 Z-0.125000 F100.0(Penetrate)
G02 X65.880106 Y120.263404 Z-0.125000 I3.489021 J0.000000 F400.000000
G02 X66.707085 Y120.738463 Z-0.125000 I0.826979 J-0.482269
G02 X66.929822 Y120.515662 Z-0.125000 I0.000000 J-0.222737
G02 X66.706744 Y119.534867 Z-0.125000 I-2.270484 J0.000646
G02 X65.750341 Y118.338568 Z-0.125000 I-3.063053 J1.468357
G02 X65.405042 Y118.505754 Z-0.125000 I-0.132176 J0.167186
G01 X65.405042 Y118.505754 Z-0.125000
G00 Z5.000000

(End cutting path id: path9)


(Start cutting path id: path9)
(Change tool to Default tool)

G00 Z5.000000
G00 X63.006881 Y119.501203

G01 Z-0.125000 F100.0(Penetrate)
G02 X62.866135 Y121.434196 Z-0.125000 I1.942792 J1.113080 F400.000000
G02 X63.894471 Y121.756732 Z-0.125000 I0.644270 J-0.253533
G02 X64.050838 Y121.455574 Z-0.125000 I-0.194869 J-0.292353
G02 X63.858571 Y120.328398 Z-0.125000 I-3.985998 J0.099923
G02 X63.316990 Y119.457498 Z-0.125000 I-2.021607 J0.653319
G02 X63.006668 Y119.501203 Z-0.125000 I-0.138195 J0.142321
G01 X63.006881 Y119.501203 Z-0.125000
G00 Z5.000000

(End cutting path id: path9)


(Start cutting path id: path9)
(Change tool to Default tool)

G00 Z5.000000
G00 X61.917132 Y120.659424

G01 Z-0.125000 F100.0(Penetrate)
G02 X61.795210 Y121.854788 Z-0.125000 I1.282465 J0.734706 F400.000000
G02 X62.469512 Y122.343258 Z-0.125000 I0.674302 J-0.221180
G02 X62.800860 Y122.012130 Z-0.125000 I0.000000 J-0.331348
G02 X62.470512 Y120.795931 Z-0.125000 I-2.398070 J-0.001594
G02 X62.152447 Y120.558740 Z-0.125000 I-0.440402 J0.258711
G02 X61.917129 Y120.659424 Z-0.125000 I-0.050907 J0.206354
G01 X61.917132 Y120.659424 Z-0.125000
G00 Z5.000000

(End cutting path id: path9)


(Start cutting path id: path9)
(Change tool to Default tool)

G00 Z5.000000
G00 X61.000788 Y122.343258

G01 Z-0.125000 F100.0(Penetrate)
G02 X61.091514 Y122.844749 Z-0.125000 I1.431366 J-0.000000 F400.000000
G02 X61.188396 Y122.844754 Z-0.125000 I0.048442 J-0.018121
G02 X61.279116 Y122.343255 Z-0.125000 I-1.340774 J-0.501499
G02 X61.188396 Y121.841757 Z-0.125000 I-1.431494 J0.000000
G02 X61.091525 Y121.841754 Z-0.125000 I-0.048436 J0.018117
G02 X61.000788 Y122.343258 Z-0.125000 I1.340535 J0.501504
G01 X61.000788 Y122.343258 Z-0.125000
G00 Z5.000000

(End cutting path id: path9)


(Start cutting path id: path9)
(Change tool to Default tool)

G00 Z5.000000
G00 X59.855678 Y123.379684

G01 Z-0.125000 F100.0(Penetrate)
G02 X59.965554 Y123.644889 Z-0.125000 I0.412818 J-0.015669 F400.000000
G02 X60.080357 Y123.622067 Z-0.125000 I0.050383 J-0.046713
G02 X60.160887 Y123.118324 Z-0.125000 I-1.223347 J-0.453876
G02 X60.050937 Y122.853104 Z-0.125000 I-0.412953 J0.015794
G02 X59.936140 Y122.875919 Z-0.125000 I-0.050382 J0.046713
G02 X59.855587 Y123.379675 Z-0.125000 I1.223732 J0.453999
G01 X59.855678 Y123.379684 Z-0.125000
G00 Z5.000000

(End cutting path id: path9)


(Start cutting path id: path9)
(Change tool to Default tool)

G00 Z5.000000
G00 X58.338770 Y122.416085

G01 Z-0.125000 F100.0(Penetrate)
G03 X58.259799 Y122.654842 Z-0.125000 I-0.400409 J-0.000000 F400.000000
G03 X57.925272 Y122.972777 Z-0.125000 I-1.082578 J-0.804114
G03 X57.299021 Y122.875626 Z-0.125000 I-0.260134 J-0.390167
G03 X56.856801 Y121.637757 Z-0.125000 I1.575125 J-1.260628
G03 X57.029095 Y121.462726 Z-0.125000 I0.173182 J-0.001841
G03 X57.594937 Y121.633957 Z-0.125000 I0.005151 J1.003524
G03 X58.246159 Y122.184328 Z-0.125000 I-2.193808 J3.256270
G03 X58.338766 Y122.416071 Z-0.125000 I-0.243659 J0.231743
G01 X58.338770 Y122.416085 Z-0.125000
G00 Z5.000000

(End cutting path id: path9)


(Start cutting path id: path9)
(Change tool to Default tool)

G00 Z5.000000
G00 X58.639536 Y119.346678

G01 Z-0.125000 F100.0(Penetrate)
G03 X59.452776 Y121.048710 Z-0.125000 I-5.952368 J3.889375 F400.000000
G03 X59.298065 Y121.383563 Z-0.125000 I-0.258703 J0.083639
G03 X58.782584 Y121.428265 Z-0.125000 I-0.328492 J-0.793523
G03 X57.902940 Y121.072126 Z-0.125000 I0.628183 J-2.815985
G02 X57.016792 Y120.610145 Z-0.125000 I-3.778521 J6.166896
G02 X56.665155 Y120.532051 Z-0.125000 I-0.375738 J0.861135
G03 X56.351780 Y120.436527 Z-0.125000 I0.015580 J-0.612900
G03 X56.161751 Y120.212069 Z-0.125000 I0.265321 J-0.417293
G03 X56.129908 Y118.260720 Z-0.125000 I2.395882 J-1.015031
G03 X57.196555 Y117.528874 Z-0.125000 I1.066647 J0.411381
G03 X57.398891 Y117.626594 Z-0.125000 I0.000000 J0.258335
G03 X58.639536 Y119.346678 Z-0.125000 I-18.026718 J14.309596
G01 X58.639536 Y119.346678 Z-0.125000
G00 Z5.000000

(End cutting path id: path9)


(Start cutting path id: path9)
(Change tool to Default tool)

G00 Z5.000000
G00 X62.023680 Y116.574809

G01 Z-0.125000 F100.0(Penetrate)
G03 X62.074451 Y117.932870 Z-0.125000 I-2.283164 J0.765336 F400.000000
G03 X61.335935 Y119.282894 Z-0.125000 I-2.992393 J-0.759946
G03 X60.230255 Y120.019343 Z-0.125000 I-2.119973 J-1.984615
G03 X59.799596 Y119.855574 Z-0.125000 I-0.122004 J-0.327301
G02 X59.404877 Y119.195800 Z-0.125000 I-6.538979 J3.464081
G02 X58.981416 Y118.636462 Z-0.125000 I-5.121682 J3.437529
G03 X57.570961 Y116.562174 Z-0.125000 I8.881368 J-7.555749
G03 X57.662152 Y116.159466 Z-0.125000 I0.278873 J-0.148529
G03 X58.613546 Y115.692793 Z-0.125000 I1.758285 J2.381443
G03 X61.146398 Y115.172388 Z-0.125000 I4.803578 J16.955391
G03 X61.423075 Y115.303167 Z-0.125000 I0.036366 J0.281125
G03 X62.023680 Y116.574809 Z-0.125000 I-5.071994 J3.173190
G01 X62.023680 Y116.574809 Z-0.125000
G00 Z5.000000

(End cutting path id: path9)


(Start cutting path id: path9)
(Change tool to Default tool)

G00 Z5.000000
G00 X69.369307 Y117.930077

G01 Z-0.125000 F100.0(Penetrate)
G02 X70.327130 Y119.086431 Z-0.125000 I3.472777 J-1.901679 F400.000000
G02 X70.611845 Y118.951951 Z-0.125000 I0.110598 J-0.134480
G02 X70.117840 Y117.220482 Z-0.125000 I-3.281369 J0.000000
G02 X69.229421 Y116.726481 Z-0.125000 I-0.888419 J0.551873
G02 X69.050093 Y116.927860 Z-0.125000 I0.000000 J0.180535
G02 X69.369315 Y117.930077 Z-0.125000 I2.728551 J-0.317139
G01 X69.369307 Y117.930077 Z-0.125000
G00 Z5.000000

(End cutting path id: path9)


(Start cutting path id: path9)
(Change tool to Default tool)

G00 Z5.000000
G00 X75.049135 Y118.278678

G01 Z-0.125000 F100.0(Penetrate)
G03 X73.036490 Y119.454599 Z-0.125000 I-5.461083 J-7.036575 F400.000000
G03 X72.397698 Y119.392022 Z-0.125000 I-0.261463 J-0.622677
G03 X72.350897 Y118.812605 Z-0.125000 I0.207750 J-0.308379
G03 X74.345709 Y117.562499 Z-0.125000 I4.174850 J4.445237
G03 X76.454781 Y116.812507 Z-0.125000 I16.733334 J43.715757
G03 X76.620599 Y116.852790 Z-0.125000 I0.050500 J0.153548
G03 X76.615450 Y116.988143 Z-0.125000 I-0.066430 J0.065248
G03 X75.049135 Y118.278678 Z-0.125000 I-22.897708 J-26.195048
G01 X75.049135 Y118.278678 Z-0.125000
G00 Z5.000000

(End cutting path id: path9)


(Start cutting path id: path9)
(Change tool to Default tool)

G00 Z5.000000
G00 X72.843447 Y122.524958

G01 Z-0.125000 F100.0(Penetrate)
G03 X72.354441 Y124.261418 Z-0.125000 I-3.327585 J0.000000 F400.000000
G03 X71.482050 Y124.750424 Z-0.125000 I-0.872391 J-0.533673
G03 X71.113732 Y124.406774 Z-0.125000 I0.000000 J-0.369203
G03 X71.368888 Y123.119257 Z-0.125000 I2.500582 J-0.173484
G03 X72.362190 Y122.200039 Z-0.125000 I1.704644 J0.845742
G03 X72.843460 Y122.524958 Z-0.125000 I0.130954 J0.324919
G01 X72.843447 Y122.524958 Z-0.125000
G00 Z5.000000

(End cutting path id: path9)


(Start cutting path id: path9)
(Change tool to Default tool)

G00 Z5.000000
G00 X75.309829 Y123.513541

G01 Z-0.125000 F100.0(Penetrate)
G03 X76.066496 Y124.454138 Z-0.125000 I-1.082209 J1.645239 F400.000000
G03 X76.193232 Y125.818930 Z-0.125000 I-2.370678 J0.908424
G03 X74.922831 Y127.972622 Z-0.125000 I-3.565211 J-0.651483
G03 X73.698581 Y127.859711 Z-0.125000 I-0.554785 J-0.678169
G03 X72.551317 Y125.602573 Z-0.125000 I4.225857 J-3.568066
G03 X72.752044 Y123.980116 Z-0.125000 I2.240013 J-0.546516
G03 X73.805372 Y123.207479 Z-0.125000 I1.321448 J0.697201
G03 X75.309829 Y123.513541 Z-0.125000 I0.370340 J2.030214
G01 X75.309829 Y123.513541 Z-0.125000
G00 Z5.000000

(End cutting path id: path9)


(Start cutting path id: path9)
(Change tool to Default tool)

G00 Z5.000000
G00 X71.547096 Y125.559201

G01 Z-0.125000 F100.0(Penetrate)
G03 X71.818131 Y126.333989 Z-0.125000 I-0.888952 J0.745773 F400.000000
G03 X71.511626 Y126.977112 Z-0.125000 I-0.873829 J-0.021857
G03 X69.797023 Y128.110104 Z-0.125000 I-5.458959 J-6.397383
G03 X68.728037 Y128.361207 Z-0.125000 I-1.068986 J-2.149866
G03 X68.532682 Y128.208853 Z-0.125000 I0.000000 J-0.201423
G03 X68.380334 Y126.976952 Z-0.125000 I4.904456 J-1.231901
G03 X69.590315 Y125.109509 Z-0.125000 I2.046064 J0.000000
G03 X71.546963 Y125.559201 Z-0.125000 I0.680616 J1.520198
G01 X71.547096 Y125.559201 Z-0.125000
G00 Z5.000000

(End cutting path id: path9)


(Start cutting path id: path9)
(Change tool to Default tool)

G00 Z5.000000
G00 X67.636639 Y126.131868

G01 Z-0.125000 F100.0(Penetrate)
G03 X66.970116 Y127.293490 Z-0.125000 I-1.345503 J0.000000 F400.000000
G03 X64.508985 Y127.960013 Z-0.125000 I-2.461131 J-4.210588
G01 X63.034500 Y127.960013 Z-0.125000
G01 X64.103452 Y126.756417 Z-0.125000
G03 X66.670332 Y125.321391 Z-0.125000 I3.345807 J2.971511
G03 X67.636639 Y126.131868 Z-0.125000 I0.143265 J0.810477
G01 X67.636639 Y126.131868 Z-0.125000
G00 Z5.000000

(End cutting path id: path9)


(Start cutting path id: path9)
(Change tool to Default tool)

G00 Z5.000000
G00 X73.244613 Y129.798849

G01 Z-0.125000 F100.0(Penetrate)
G02 X73.354489 Y130.064054 Z-0.125000 I0.412818 J-0.015669 F400.000000
G02 X73.469292 Y130.041232 Z-0.125000 I0.050383 J-0.046713
G02 X73.549817 Y129.537485 Z-0.125000 I-1.223308 J-0.453857
G02 X73.439872 Y129.272269 Z-0.125000 I-0.412978 J0.015802
G02 X73.325075 Y129.295084 Z-0.125000 I-0.050382 J0.046713
G02 X73.244521 Y129.798845 Z-0.125000 I1.223745 J0.454004
G01 X73.244613 Y129.798849 Z-0.125000
G00 Z5.000000

(End cutting path id: path9)


(Start cutting path id: path9)
(Change tool to Default tool)

G00 Z5.000000
G00 X77.707583 Y132.240108

G01 Z-0.125000 F100.0(Penetrate)
G03 X77.646627 Y132.703254 Z-0.125000 I-3.387535 J-0.210257 F400.000000
G03 X77.464173 Y133.443700 Z-0.125000 I-8.929101 J-1.807529
G02 X77.528654 Y133.537564 Z-0.125000 I0.070621 J0.020566
G02 X77.676438 Y133.461480 Z-0.125000 I0.013080 J-0.156162
G02 X77.957853 Y132.731451 Z-0.125000 I-2.007078 J-1.192952
G02 X77.919847 Y132.257884 Z-0.125000 I-0.843459 J-0.170618
G02 X77.795680 Y132.164016 Z-0.125000 I-0.136324 J0.051270
G02 X77.707583 Y132.240104 Z-0.125000 I-0.006799 J0.081173
G01 X77.707583 Y132.240108 Z-0.125000
G00 Z5.000000

(End cutting path id: path9)


(Start cutting path id: path9)
(Change tool to Default tool)

G00 Z5.000000
G00 X69.490518 Y134.680079

G01 Z-0.125000 F100.0(Penetrate)
G03 X68.874293 Y136.235940 Z-0.125000 I-2.302389 J-0.011936 F400.000000
G03 X67.597638 Y136.715833 Z-0.125000 I-1.119963 J-1.041342
G03 X66.594547 Y136.318789 Z-0.125000 I0.204016 J-1.981053
G03 X66.213410 Y135.660993 Z-0.125000 I0.599486 J-0.786667
G03 X66.687304 Y134.232731 Z-0.125000 I1.711454 J-0.224894
G03 X68.240050 Y133.576785 Z-0.125000 I1.552746 J1.509848
G03 X69.150280 Y133.920931 Z-0.125000 I-0.000000 J1.375804
G03 X69.490518 Y134.680079 Z-0.125000 I-0.665216 J0.753958
G01 X69.490518 Y134.680079 Z-0.125000
G00 Z5.000000

(End cutting path id: path9)


(Start cutting path id: path9)
(Change tool to Default tool)

G00 Z5.000000
G00 X65.697617 Y140.397184

G01 Z-0.125000 F100.0(Penetrate)
G02 X65.688792 Y141.465325 Z-0.125000 I4.179719 J0.568638 F400.000000
G02 X65.841361 Y141.600780 Z-0.125000 I0.152569 J-0.018194
G02 X66.014454 Y141.466352 Z-0.125000 I0.000000 J-0.178653
G02 X66.148878 Y140.397184 Z-0.125000 I-4.184689 J-1.069168
G02 X66.081295 Y139.261195 Z-0.125000 I-9.581045 J0.000000
G02 X66.005134 Y139.193588 Z-0.125000 I-0.076161 J0.009094
G02 X65.919455 Y139.260129 Z-0.125000 I-0.000000 J0.088431
G02 X65.697617 Y140.397184 Z-0.125000 I9.772764 J2.496821
G01 X65.697617 Y140.397184 Z-0.125000
G00 Z5.000000

(End cutting path id: path9)


(Start cutting path id: path9)
(Change tool to Default tool)

G00 Z5.000000
G00 X61.220994 Y141.465287

G01 Z-0.125000 F100.0(Penetrate)
G02 X61.685887 Y141.562083 Z-0.125000 I0.464893 J-1.068000 F400.000000
G02 X62.150782 Y141.465287 Z-0.125000 I0.000000 J-1.164804
G02 X62.150780 Y141.359726 Z-0.125000 I-0.022975 J-0.052780
G02 X61.685886 Y141.262940 Z-0.125000 I-0.464894 J1.068123
G02 X61.220997 Y141.359725 Z-0.125000 I0.000000 J1.164903
G02 X61.220994 Y141.465287 Z-0.125000 I0.022973 J0.052782
G01 X61.220994 Y141.465287 Z-0.125000
G00 Z5.000000

(End cutting path id: path9)


(Start cutting path id: path9)
(Change tool to Default tool)

G00 Z5.000000
G00 X55.029491 Y135.669144

G01 Z-0.125000 F100.0(Penetrate)
G02 X55.743857 Y137.862185 Z-0.125000 I3.362621 J0.117522 F400.000000
G02 X58.753518 Y140.420819 Z-0.125000 I7.768314 J-6.088268
G02 X60.341704 Y141.196294 Z-0.125000 I8.721496 J-15.847740
G02 X60.420181 Y141.162777 Z-0.125000 I0.023253 J-0.054187
G02 X60.392107 Y141.065905 Z-0.125000 I-0.079058 J-0.029592
G02 X58.896527 Y140.038767 Z-0.125000 I-11.744441 J15.498265
G03 X56.314552 Y137.822899 Z-0.125000 I5.841564 J-9.418930
G03 X55.357547 Y135.900149 Z-0.125000 I3.356441 J-2.870131
G02 X55.160637 Y135.603996 Z-0.125000 I-0.479569 J0.105324
G02 X55.029483 Y135.669174 Z-0.125000 I-0.047936 J0.068087
G01 X55.029491 Y135.669144 Z-0.125000
G00 Z5.000000

(End cutting path id: path9)


(Start cutting path id: path9)
(Change tool to Default tool)

G00 Z5.000000
G00 X57.002025 Y132.552934

G01 Z-0.125000 F100.0(Penetrate)
G02 X58.883002 Y133.671162 Z-0.125000 I3.904941 J-4.427408 F400.000000
G02 X63.545461 Y134.941058 Z-0.125000 I9.869794 J-27.043101
G02 X64.258811 Y134.932621 Z-0.125000 I0.335174 J-1.822213
G02 X64.289290 Y134.785990 Z-0.125000 I-0.016669 J-0.079948
G02 X63.697548 Y134.496605 Z-0.125000 I-1.188750 J1.681093
G02 X62.966824 Y134.385372 Z-0.125000 I-0.751303 J2.479738
G03 X59.239219 Y133.670932 Z-0.125000 I0.084541 J-10.522743
G03 X57.201273 Y132.144513 Z-0.125000 I1.715680 J-4.414288
G02 X56.705372 Y131.686591 Z-0.125000 I-1.586716 J1.220838
G02 X56.340563 Y131.585271 Z-0.125000 I-0.343147 J0.528102
G02 X56.269986 Y131.724648 Z-0.125000 I0.003013 J0.089083
G02 X57.002025 Y132.552968 Z-0.125000 I3.682086 J-2.516459
G01 X57.002025 Y132.552934 Z-0.125000
G00 Z5.000000

(End cutting path id: path9)


(Start cutting path id: path9)
(Change tool to Default tool)

G00 Z5.000000
G00 X50.435469 Y129.429332

G01 Z-0.125000 F100.0(Penetrate)
G02 X50.900366 Y129.526129 Z-0.125000 I0.464897 J-1.068007 F400.000000
