%
(Header)
(Generated by gcodetools from Inkscape.)
(Using default header. To add your own header create file "header" in the output dir.)
M3
(Header end.)
G21 (All units in mm)

(Start cutting path id: path11)
(Change tool to Default tool)

G00 Z5.000000
G00 X75.454309 Y56.757045

G01 Z-0.125000 F100.0(Penetrate)
G03 X75.751862 Y57.360611 Z-0.125000 I-1.357308 J1.044271 F400.000000
G03 X75.685822 Y57.626310 Z-0.125000 I-0.273970 J0.072961
G03 X75.545163 Y57.633468 Z-0.125000 I-0.074002 J-0.068585
G03 X75.446868 Y57.416025 Z-0.125000 I0.191360 J-0.217443
G02 X75.315003 Y57.079819 Z-0.125000 I-0.494531 J-0.000000
G02 X75.012966 Y56.947962 Z-0.125000 I-0.302037 J0.280000
G02 X74.786833 Y57.038658 Z-0.125000 I-0.000000 J0.327259
G02 X74.782923 Y57.167877 Z-0.125000 I0.063659 J0.066595
G03 X74.821604 Y57.395101 Z-0.125000 I-0.154443 J0.143195
G03 X74.302887 Y58.271171 Z-0.125000 I-3.768270 J-1.639573
G02 X66.982590 Y67.873306 Z-0.125000 I642.814300 J497.648226
G02 X66.903828 Y68.127587 Z-0.125000 I0.316003 J0.237219
G02 X66.990781 Y68.351435 Z-0.125000 I0.373510 J-0.016278
G02 X70.738719 Y72.703869 Z-0.125000 I163.735536 J-137.204871
G03 X74.350729 Y77.034282 Z-0.125000 I-72.422875 J64.079721
G03 X74.353888 Y77.304424 Z-0.125000 I-0.174507 J0.137130
G01 X74.381496 Y77.335215 Z-0.125000
G02 X74.804530 Y77.038184 Z-0.125000 I-1.679476 J-2.841683
G03 X75.132327 Y76.966638 Z-0.125000 I0.233316 J0.282268
G03 X75.229621 Y77.151698 Z-0.125000 I-0.036690 J0.137395
G02 X75.450311 Y77.633603 Z-0.125000 I0.358237 J0.127430
G02 X75.984376 Y77.444571 Z-0.125000 I0.157144 J-0.404979
G03 X76.941885 Y76.912920 Z-0.125000 I0.918578 J0.526302
G03 X78.285636 Y77.529241 Z-0.125000 I-0.070935 J1.927697
G03 X78.294924 Y78.244818 Z-0.125000 I-0.391491 J0.362930
G03 X77.559664 Y78.354280 Z-0.125000 I-0.432424 J-0.380490
G02 X77.392391 Y78.319158 Z-0.125000 I-0.132251 J0.213967
G01 X77.368423 Y78.381170 Z-0.125000
G03 X77.407450 Y78.673856 Z-0.125000 I-0.213514 J0.177415
G03 X76.859629 Y79.495846 Z-0.125000 I-2.826267 J-1.290041
G02 X76.456610 Y80.272424 Z-0.125000 I1.207881 J1.119718
G02 X76.611678 Y80.659862 Z-0.125000 I0.366492 J0.078067
G03 X76.874873 Y80.934523 Z-0.125000 I-0.521681 J0.763338
G03 X76.831988 Y81.013720 Z-0.125000 I-0.043990 J0.027389
G02 X76.051554 Y82.228973 Z-0.125000 I0.018672 J0.870214
G02 X77.873856 Y83.427054 Z-0.125000 I1.822302 J-0.786836
G02 X78.197218 Y83.027296 Z-0.125000 I0.000000 J-0.330662
G02 X77.502750 Y81.690159 Z-0.125000 I-2.777039 J0.593397
G03 X77.265164 Y81.113947 Z-0.125000 I0.654937 J-0.607133
G03 X77.466410 Y80.641761 Z-0.125000 I0.605364 J-0.020972
G03 X77.910391 Y80.492562 Z-0.125000 I0.395507 J0.441747
G03 X78.203521 Y80.702231 Z-0.125000 I-0.028698 J0.349864
G01 X78.279948 Y80.688789 Z-0.125000
G02 X78.251881 Y79.932135 Z-0.125000 I-3.792749 J-0.238163
G03 X78.241920 Y78.719228 Z-0.125000 I4.682886 J-0.644952
G03 X78.437152 Y78.401990 Z-0.125000 I0.442353 J0.053536
G02 X78.638211 Y78.090313 Z-0.125000 I-0.258199 J-0.387250
G02 X78.636655 Y77.189368 Z-0.125000 I-2.709104 J-0.445796
G03 X78.629696 Y76.286090 Z-0.125000 I2.815842 J-0.473359
G03 X78.819634 Y75.987745 Z-0.125000 I0.432827 J0.065920
G02 X79.050972 Y75.696105 Z-0.125000 I-0.335975 J-0.504078
G02 X79.160113 Y75.078527 Z-0.125000 I-1.610370 J-0.603025
G02 X79.017268 Y74.904165 Z-0.125000 I-0.179639 J0.001475
G02 X78.793896 Y75.001887 Z-0.125000 I-0.043052 J0.205744
G03 X78.569439 Y75.103534 Z-0.125000 I-0.185591 J-0.111178
G03 X78.427679 Y74.935007 Z-0.125000 I0.031045 J-0.170000
G03 X78.567223 Y74.360644 Z-0.125000 I1.209842 J-0.010198
G03 X78.886878 Y74.063985 Z-0.125000 I0.582379 J0.306978
G02 X78.977012 Y73.926454 Z-0.125000 I-0.059859 J-0.137531
G02 X78.886878 Y73.829973 Z-0.125000 I-0.096705 J0.000000
G03 X78.546138 Y73.682367 Z-0.125000 I0.037581 J-0.553843
G03 X78.421982 Y73.397084 Z-0.125000 I0.265678 J-0.285283
G03 X78.551322 Y73.156783 Z-0.125000 I0.287899 J0.000000
G03 X78.878045 Y73.096188 Z-0.125000 I0.235046 J0.356220
G02 X79.805527 Y72.405148 Z-0.125000 I0.164359 J-0.747336
G02 X79.038486 Y70.921016 Z-0.125000 I-1.592080 J-0.117448
G03 X78.670714 Y70.470281 Z-0.125000 I0.446649 J-0.739845
G03 X78.502735 Y69.411765 Z-0.125000 I2.764127 J-0.981233
G03 X78.747348 Y68.811674 Z-0.125000 I0.917430 J0.024068
G03 X79.059319 Y68.811728 Z-0.125000 I0.155961 J0.144681
G03 X79.379269 Y69.402444 Z-0.125000 I-0.990989 J0.918755
G03 X79.317998 Y69.845214 Z-0.125000 I-0.580590 J0.145282
G02 X79.340544 Y70.001470 Z-0.125000 I0.111194 J0.063711
G02 X79.495354 Y70.015116 Z-0.125000 I0.085912 J-0.089689
G02 X79.913712 Y69.028252 Z-0.125000 I-0.540972 J-0.811441
G02 X79.077790 Y67.731371 Z-0.125000 I-1.987950 J0.363517
G03 X79.010846 Y67.475915 Z-0.125000 I0.115743 J-0.166831
G03 X79.477056 Y66.908410 Z-0.125000 I1.412817 J0.685390
G02 X80.525349 Y64.828870 Z-0.125000 I-1.591390 J-2.106208
G02 X79.507766 Y63.881072 Z-0.125000 I-0.941333 J-0.009510
G02 X79.070907 Y64.053557 Z-0.125000 I0.065131 J0.804429
G02 X79.031411 Y64.259351 Z-0.125000 I0.099992 J0.125877
G02 X79.252804 Y64.432984 Z-0.125000 I0.324617 J-0.185945
G02 X79.501532 Y64.394336 Z-0.125000 I0.082637 J-0.287864
G03 X79.826722 Y64.546456 Z-0.125000 I0.116458 J0.174689
G03 X79.688188 Y66.120422 Z-0.125000 I-4.043498 J0.437187
G03 X79.432923 Y66.331151 Z-0.125000 I-0.282516 J-0.082252
G03 X78.990840 Y66.185272 Z-0.125000 I-0.053898 J-0.579464
G03 X78.678034 Y65.610230 Z-0.125000 I0.650374 J-0.726383
G03 X78.574920 Y63.538074 Z-0.125000 I9.673992 J-1.520039
G02 X78.113139 Y60.950884 Z-0.125000 I-5.681007 J-0.320818
G02 X77.354416 Y60.727320 Z-0.125000 I-0.472793 J0.205303
G03 X77.068608 Y60.746392 Z-0.125000 I-0.159507 J-0.239270
G03 X76.809611 Y60.460950 Z-0.125000 I0.228650 J-0.467689
G02 X76.683921 Y60.372706 Z-0.125000 I-0.127191 J0.047529
G02 X76.591896 Y60.458550 Z-0.125000 I-0.001008 J0.091167
G03 X76.407206 Y60.787032 Z-0.125000 I-0.428686 J-0.024867
G03 X75.911686 Y60.928373 Z-0.125000 I-0.456475 J-0.661055
G03 X75.695082 Y60.817212 Z-0.125000 I0.014476 J-0.294820
G03 X75.725723 Y60.694318 Z-0.125000 I0.062509 J-0.049682
G02 X76.074536 Y60.415870 Z-0.125000 I-0.342427 J-0.786664
G02 X76.190619 Y60.062014 Z-0.125000 I-0.481290 J-0.353856
G02 X76.049934 Y59.965999 Z-0.125000 I-0.103107 J0.000000
G02 X75.455558 Y60.349682 Z-0.125000 I0.648386 J1.656661
G02 X74.951245 Y61.098903 Z-0.125000 I1.549821 J1.587550
G02 X74.979904 Y61.515155 Z-0.125000 I0.438421 J0.178928
G03 X75.301694 Y62.845290 Z-0.125000 I-2.087344 J1.208967
G03 X74.893474 Y63.233494 Z-0.125000 I-0.408220 J-0.020531
G03 X74.564335 Y63.117268 Z-0.125000 I-0.000000 J-0.524156
G03 X74.531236 Y62.941185 Z-0.125000 I0.086695 J-0.107449
G02 X74.515254 Y62.711532 Z-0.125000 I-0.179575 J-0.102886
G02 X74.118647 Y62.408780 Z-0.125000 I-0.768355 J0.595395
G02 X73.830076 Y62.492923 Z-0.125000 I-0.091855 J0.221884
G02 X73.759957 Y62.921024 Z-0.125000 I0.409748 J0.286906
G03 X73.737549 Y63.556740 Z-0.125000 I-0.965876 J0.284207
G03 X73.388030 Y63.918972 Z-0.125000 I-0.590448 J-0.219984
G03 X73.104831 Y63.694260 Z-0.125000 I-0.079109 J-0.191111
G03 X73.875173 Y60.960020 Z-0.125000 I12.601012 J2.074556
G02 X74.356436 Y59.547911 Z-0.125000 I-12.002652 J-4.878708
G02 X74.367507 Y59.187015 Z-0.125000 I-0.731218 J-0.203048
G03 X74.454371 Y59.103613 Z-0.125000 I0.069283 J-0.014777
G03 X74.834830 Y59.306775 Z-0.125000 I-0.225450 J0.880018
G02 X75.332778 Y59.499207 Z-0.125000 I0.503507 J-0.562430
G02 X75.657110 Y59.312875 Z-0.125000 I0.002730 J-0.370683
G02 X75.644850 Y59.139264 Z-0.125000 I-0.135561 J-0.077666
G02 X75.504282 Y59.116470 Z-0.125000 I-0.082548 J0.064234
G03 X75.240147 Y59.094049 Z-0.125000 I-0.117997 J-0.176968
G03 X75.074909 Y58.710387 Z-0.125000 I0.362788 J-0.383662
G03 X75.184531 Y58.297509 Z-0.125000 I0.832339 J-0.000000
G03 X75.319616 Y58.282009 Z-0.125000 I0.073232 J0.041837
G02 X75.572582 Y58.368351 Z-0.125000 I0.206576 J-0.191486
G02 X75.982942 Y58.171228 Z-0.125000 I-0.134545 J-0.805782
G03 X76.410277 Y58.018269 Z-0.125000 I0.401592 J0.448539
G03 X76.946947 Y58.212438 Z-0.125000 I-0.040713 J0.951271
G03 X76.976014 Y58.351228 Z-0.125000 I-0.065775 J0.086214
G03 X76.841485 Y58.402683 Z-0.125000 I-0.097853 J-0.054245
G02 X76.391492 Y58.459276 Z-0.125000 I-0.167756 J0.483439
G02 X76.190634 Y58.832883 Z-0.125000 I0.247035 J0.373607
G02 X76.298308 Y59.214413 Z-0.125000 I0.729788 J0.000000
G02 X76.432789 Y59.227731 Z-0.125000 I0.072291 J-0.044334
G03 X76.663987 Y59.191592 Z-0.125000 I0.138494 J0.128399
G03 X77.204198 Y59.662364 Z-0.125000 I-0.869233 J1.542778
G02 X77.412535 Y59.834408 Z-0.125000 I0.471001 J-0.358196
G01 X77.458898 Y59.788544 Z-0.125000
G03 X77.509761 Y59.526355 Z-0.125000 I0.201264 J-0.096984
G03 X77.803227 Y59.475068 Z-0.125000 I0.187138 J0.205557
G02 X78.005034 Y59.271995 Z-0.125000 I0.059191 J-0.142989
G02 X77.077130 Y57.751602 Z-0.125000 I-5.520131 J2.325618
G02 X75.659469 Y56.528930 Z-0.125000 I-4.451198 J3.727857
G02 X75.454250 Y56.757146 Z-0.125000 I-0.081535 J0.133059
G01 X75.454309 Y56.757045 Z-0.125000
G00 Z5.000000

(End cutting path id: path11)


(Start cutting path id: path11)
(Change tool to Default tool)

G00 Z5.000000
G00 X78.050255 Y60.309037

G01 Z-0.125000 F100.0(Penetrate)
G02 X78.098451 Y60.438988 Z-0.125000 I0.199293 J0.000000 F400.000000
G02 X78.616637 Y60.967579 Z-0.125000 I4.309515 J-3.706400
G02 X78.868390 Y61.005926 Z-0.125000 I0.155201 J-0.173350
G02 X78.948768 Y60.816111 Z-0.125000 I-0.063266 J-0.138716
G02 X78.366736 Y60.124249 Z-0.125000 I-1.216782 J0.432873
G02 X78.050259 Y60.309041 Z-0.125000 I-0.104288 J0.184792
G01 X78.050255 Y60.309037 Z-0.125000
G00 Z5.000000

(End cutting path id: path11)


(Start cutting path id: path11)
(Change tool to Default tool)

G00 Z5.000000
G00 X79.543609 Y60.810533

G01 Z-0.125000 F100.0(Penetrate)
G02 X79.947717 Y61.892597 Z-0.125000 I1.726097 J-0.028137 F400.000000
G02 X80.417115 Y61.850646 Z-0.125000 I0.220057 J-0.184803
G02 X80.448635 Y61.483887 Z-0.125000 I-0.379263 J-0.217328
G02 X80.091689 Y60.956292 Z-0.125000 I-1.229430 J0.447230
G02 X79.657226 Y60.721717 Z-0.125000 I-0.706735 J0.789337
G02 X79.543609 Y60.810550 Z-0.125000 I-0.023231 J0.087362
G01 X79.543609 Y60.810533 Z-0.125000
G00 Z5.000000

(End cutting path id: path11)


(Start cutting path id: path11)
(Change tool to Default tool)

G00 Z5.000000
G00 X79.051072 Y62.039569

G01 Z-0.125000 F100.0(Penetrate)
G02 X78.974497 Y62.402441 Z-0.125000 I0.523735 J0.300037 F400.000000
G02 X79.144032 Y62.927633 Z-0.125000 I1.329265 J-0.139135
G02 X79.444901 Y63.170751 Z-0.125000 I0.463063 J-0.265333
G02 X79.652825 Y63.089901 Z-0.125000 I0.053936 J-0.169079
G02 X79.729396 Y62.727036 Z-0.125000 I-0.523714 J-0.300025
G02 X79.559825 Y62.201837 Z-0.125000 I-1.329017 J0.139126
G02 X79.258956 Y61.958719 Z-0.125000 I-0.463063 J0.265333
G02 X79.051031 Y62.039569 Z-0.125000 I-0.053936 J0.169080
G01 X79.051072 Y62.039569 Z-0.125000
G00 Z5.000000

(End cutting path id: path11)


(Start cutting path id: path11)
(Change tool to Default tool)

G00 Z5.000000
G00 X80.726133 Y62.245820

G01 Z-0.125000 F100.0(Penetrate)
G02 X80.610150 Y62.676554 Z-0.125000 I0.351153 J0.325537 F400.000000
G02 X80.945534 Y63.220041 Z-0.125000 I0.957451 J-0.215615
G03 X81.216346 Y63.617257 Z-0.125000 I-0.540271 J0.659268
G03 X81.118564 Y63.755557 Z-0.125000 I-0.100685 J0.032530
G02 X80.838872 Y63.940028 Z-0.125000 I0.008561 J0.317247
G02 X80.696804 Y64.671013 Z-0.125000 I1.424481 J0.656149
G02 X80.804046 Y64.899340 Z-0.125000 I0.330348 J-0.015812
G02 X80.910928 Y64.866680 Z-0.125000 I0.043789 J-0.047917
G03 X81.179243 Y64.408646 Z-0.125000 I0.894299 J0.216272
G03 X81.425657 Y64.388858 Z-0.125000 I0.135744 J0.146222
G02 X81.622135 Y64.342827 Z-0.125000 I0.076683 J-0.115026
G02 X81.769423 Y63.791975 Z-0.125000 I-0.956441 J-0.550852
G02 X81.598310 Y63.134779 Z-0.125000 I-1.347604 J0.000000
G02 X81.304527 Y62.959757 Z-0.125000 I-0.298297 J0.166631
G03 X81.202554 Y62.844118 Z-0.125000 I0.001306 J-0.103933
G03 X81.344327 Y62.608718 Z-0.125000 I0.328053 J0.037183
G02 X81.586516 Y62.265330 Z-0.125000 I-0.339310 J-0.496414
G02 X81.496853 Y62.029076 Z-0.125000 I-0.210279 J-0.055336
G02 X81.166340 Y61.976770 Z-0.125000 I-0.222136 J0.333265
G02 X80.726257 Y62.245824 Z-0.125000 I0.257251 J0.915221
G01 X80.726133 Y62.245820 Z-0.125000
G00 Z5.000000

(End cutting path id: path11)


(Start cutting path id: path11)
(Change tool to Default tool)

G00 Z5.000000
G00 X78.794084 Y65.349434

G01 Z-0.125000 F100.0(Penetrate)
G02 X78.884540 Y65.678543 Z-0.125000 I0.643931 J0.000000 F400.000000
G02 X79.166011 Y65.974910 Z-0.125000 I0.793675 J-0.471938
G02 X79.392727 Y65.951618 Z-0.125000 I0.099258 J-0.148890
G02 X79.537938 Y65.597369 Z-0.125000 I-0.359496 J-0.354249
G02 X79.403089 Y65.106748 Z-0.125000 I-0.959939 J-0.000000
G02 X79.166011 Y64.971896 Z-0.125000 I-0.237078 J0.140973
G02 X78.903827 Y65.081652 Z-0.125000 I0.000000 J0.368028
G02 X78.794084 Y65.349438 Z-0.125000 I0.271842 J0.267786
G01 X78.794084 Y65.349434 Z-0.125000
G00 Z5.000000

(End cutting path id: path11)


(Start cutting path id: path11)
(Change tool to Default tool)

G00 Z5.000000
G00 X80.878585 Y66.819343

G01 Z-0.125000 F100.0(Penetrate)
G02 X81.128837 Y67.934268 Z-0.125000 I10.390424 J-1.746645 F400.000000
G02 X81.258428 Y68.165215 Z-0.125000 I0.544338 J-0.153613
G01 X81.338556 Y68.136557 Z-0.125000
G02 X81.311848 Y67.286724 Z-0.125000 I-4.610591 J-0.280437
G02 X81.100785 Y66.241640 Z-0.125000 I-6.988965 J0.867625
G02 X80.932005 Y65.940852 Z-0.125000 I-0.708958 J0.200066
G02 X80.833925 Y65.975919 Z-0.125000 I-0.041541 J0.038506
G02 X80.878585 Y66.819343 Z-0.125000 I3.716991 J0.226078
G01 X80.878585 Y66.819343 Z-0.125000
G00 Z5.000000

(End cutting path id: path11)


(Start cutting path id: path11)
(Change tool to Default tool)

G00 Z5.000000
G00 X80.281741 Y69.160817

G01 Z-0.125000 F100.0(Penetrate)
G02 X80.503315 Y69.509311 Z-0.125000 I0.384844 J0.000000 F400.000000
G02 X80.761322 Y69.385502 Z-0.125000 I0.078404 J-0.167350
G02 X80.798344 Y68.645034 Z-0.125000 I-1.928851 J-0.467599
G02 X80.618746 Y68.358827 Z-0.125000 I-0.408124 J0.056649
G02 X80.432063 Y68.415039 Z-0.125000 I-0.070130 J0.105191
G02 X80.281728 Y69.160825 Z-0.125000 I1.774693 J0.745786
G01 X80.281741 Y69.160817 Z-0.125000
G00 Z5.000000

(End cutting path id: path11)


(Start cutting path id: path11)
(Change tool to Default tool)

G00 Z5.000000
G00 X80.349911 Y71.076814

G01 Z-0.125000 F100.0(Penetrate)
G02 X80.011729 Y71.889201 Z-0.125000 I0.933125 J0.865026 F400.000000
G02 X80.303671 Y72.193481 Z-0.125000 I0.291942 J0.012088
G02 X80.494322 Y72.075696 Z-0.125000 I-0.000000 J-0.213190
G02 X80.487299 Y71.826566 Z-0.125000 I-0.235835 J-0.118015
G03 X80.475294 Y71.530065 Z-0.125000 I0.278908 J-0.159787
G03 X80.744291 Y71.279695 Z-0.125000 I0.446174 J0.209679
G02 X81.017086 Y71.050058 Z-0.125000 I-0.196624 J-0.510429
G02 X81.000764 Y70.850927 Z-0.125000 I-0.147374 J-0.088155
G02 X80.785771 Y70.792123 Z-0.125000 I-0.150366 J0.127332
G02 X80.349913 Y71.076827 Z-0.125000 I0.352778 J1.016054
G01 X80.349911 Y71.076814 Z-0.125000
G00 Z5.000000

(End cutting path id: path11)


(Start cutting path id: path11)
(Change tool to Default tool)

G00 Z5.000000
G00 X78.928575 Y71.992908

G01 Z-0.125000 F100.0(Penetrate)
G03 X78.672753 Y72.535508 Z-0.125000 I-2.864987 J-1.019160 F400.000000
G03 X78.568327 Y72.594706 Z-0.125000 I-0.104426 J-0.062506
G03 X78.486514 Y72.530389 Z-0.125000 I-0.000000 J-0.084193
G03 X78.422161 Y71.992908 Z-0.125000 I2.212366 J-0.537481
G03 X78.552505 Y71.521427 Z-0.125000 I0.917891 J0.000000
G03 X78.782408 Y71.391110 Z-0.125000 I0.229903 J0.137636
G03 X78.952797 Y71.525063 Z-0.125000 I0.000000 J0.175345
G03 X78.928575 Y71.992908 Z-0.125000 I-0.795888 J0.193343
G01 X78.928575 Y71.992908 Z-0.125000
G00 Z5.000000

(End cutting path id: path11)


(Start cutting path id: path11)
(Change tool to Default tool)

G00 Z5.000000
G00 X80.070339 Y72.951461

G01 Z-0.125000 F100.0(Penetrate)
G03 X80.167240 Y73.420104 Z-0.125000 I-0.667342 J0.382325 F400.000000
G03 X79.959254 Y73.934635 Z-0.125000 I-1.027545 J-0.116056
G02 X79.418832 Y75.611362 Z-0.125000 I2.070193 J1.592694
G02 X80.032364 Y76.205463 Z-0.125000 I0.613532 J-0.019749
G02 X80.198831 Y76.063214 Z-0.125000 I0.000000 J-0.168528
G02 X80.190729 Y75.202466 Z-0.125000 I-2.573040 J-0.406194
G03 X80.175845 Y74.336192 Z-0.125000 I2.707350 J-0.479783
G03 X80.333349 Y74.199470 Z-0.125000 I0.157504 J0.022362
G02 X80.783752 Y73.713744 Z-0.125000 I0.000000 J-0.451688
G02 X80.224297 Y72.756965 Z-0.125000 I-1.260822 J0.095284
G02 X80.083230 Y72.779235 Z-0.125000 I-0.058451 J0.087669
G02 X80.070344 Y72.951461 Z-0.125000 I0.120810 J0.095635
G01 X80.070339 Y72.951461 Z-0.125000
G00 Z5.000000

(End cutting path id: path11)


(Start cutting path id: path11)
(Change tool to Default tool)

G00 Z5.000000
G00 X79.165995 Y77.361701

G01 Z-0.125000 F100.0(Penetrate)
G02 X79.259464 Y77.712868 Z-0.125000 I0.706411 J0.000000 F400.000000
G02 X79.537922 Y78.010853 Z-0.125000 I0.771946 J-0.442264
G02 X79.790522 Y78.035834 Z-0.125000 I0.149750 J-0.224630
G02 X79.909849 Y77.857606 Z-0.125000 I-0.073438 J-0.178228
G02 X79.816381 Y77.506441 Z-0.125000 I-0.706408 J-0.000000
G02 X79.537922 Y77.208451 Z-0.125000 I-0.771975 J0.442280
G02 X79.285322 Y77.183470 Z-0.125000 I-0.149750 J0.224630
G02 X79.165995 Y77.361697 Z-0.125000 I0.073437 J0.178227
G01 X79.165995 Y77.361701 Z-0.125000
G00 Z5.000000

(End cutting path id: path11)


(Start cutting path id: path11)
(Change tool to Default tool)

G00 Z5.000000
G00 X79.006604 Y79.644306

G01 Z-0.125000 F100.0(Penetrate)
G02 X78.848419 Y80.689281 Z-0.125000 I6.577206 J1.530098 F400.000000
G02 X78.917274 Y80.885265 Z-0.125000 I0.260035 J0.018729
G02 X79.026353 Y80.867621 Z-0.125000 I0.048667 J-0.045126
G02 X79.325407 Y79.988188 Z-0.125000 I-4.271270 J-1.943021
G02 X79.483593 Y78.943208 Z-0.125000 I-6.577396 J-1.530126
G02 X79.414737 Y78.747224 Z-0.125000 I-0.260033 J-0.018729
G02 X79.305658 Y78.764868 Z-0.125000 I-0.048667 J0.045126
G02 X79.006604 Y79.644306 Z-0.125000 I4.271208 J1.942995
G01 X79.006604 Y79.644306 Z-0.125000
G00 Z5.000000

(End cutting path id: path11)


(Start cutting path id: path11)
(Change tool to Default tool)

G00 Z5.000000
G00 X77.434763 Y80.034174

G01 Z-0.125000 F100.0(Penetrate)
G03 X77.175216 Y80.462138 Z-0.125000 I-1.167228 J-0.415202 F400.000000
G03 X77.037270 Y80.462075 Z-0.125000 I-0.068944 J-0.064044
G03 X76.969944 Y80.258299 Z-0.125000 I0.189443 J-0.175600
G03 X77.105140 Y79.842975 Z-0.125000 I1.064313 J0.116787
G03 X77.341291 Y79.779543 Z-0.125000 I0.149620 J0.085723
G03 X77.434718 Y80.034174 Z-0.125000 I-0.106467 J0.183519
G01 X77.434763 Y80.034174 Z-0.125000
G00 Z5.000000

(End cutting path id: path11)


(Start cutting path id: path11)
(Change tool to Default tool)

G00 Z5.000000
G00 X75.654700 Y78.042165

G01 Z-0.125000 F100.0(Penetrate)
G02 X75.312456 Y78.480743 Z-0.125000 I0.727381 J0.920434 F400.000000
G02 X75.397708 Y78.612651 Z-0.125000 I0.085252 J0.038405
G03 X75.639972 Y78.741732 Z-0.125000 I-0.000000 J0.291885
G03 X75.648687 Y78.986115 Z-0.125000 I-0.192264 J0.129203
G02 X75.847964 Y79.467379 Z-0.125000 I0.285600 J0.163631
G02 X76.549830 Y79.231014 Z-0.125000 I0.174500 J-0.642087
G02 X76.790934 Y78.636853 Z-0.125000 I-0.951639 J-0.732163
G02 X76.684966 Y78.063151 Z-0.125000 I-0.987440 J-0.114248
G02 X76.301090 Y77.825006 Z-0.125000 I-0.392835 J0.204761
G02 X75.654717 Y78.042331 Z-0.125000 I-0.020412 J1.009179
G01 X75.654700 Y78.042165 Z-0.125000
G00 Z5.000000

(End cutting path id: path11)


(Start cutting path id: path11)
(Change tool to Default tool)

G00 Z5.000000
G00 X74.517063 Y75.804290

G01 Z-0.125000 F100.0(Penetrate)
G03 X74.535514 Y76.082966 Z-0.125000 I-0.276127 J0.158231 F400.000000
G03 X74.353074 Y76.205472 Z-0.125000 I-0.182440 J-0.074595
G03 X74.075631 Y76.089049 Z-0.125000 I0.000000 J-0.388793
G03 X73.959216 Y75.804290 Z-0.125000 I0.290063 J-0.284759
G03 X74.025103 Y75.468989 Z-0.125000 I0.886126 J0.000000
G03 X74.123205 Y75.403109 Z-0.125000 I0.098102 J0.040103
G03 X74.255122 Y75.458458 Z-0.125000 I-0.000000 J0.184877
G03 X74.517063 Y75.804290 Z-0.125000 I-1.212283 J1.190328
G01 X74.517063 Y75.804290 Z-0.125000
G00 Z5.000000

(End cutting path id: path11)


(Start cutting path id: path11)
(Change tool to Default tool)

G00 Z5.000000
G00 X75.446851 Y74.600699

G01 Z-0.125000 F100.0(Penetrate)
G03 X75.295654 Y75.251882 Z-0.125000 I-1.477873 J-0.000000 F400.000000
G03 X75.052992 Y75.403092 Z-0.125000 I-0.242662 J-0.119108
G03 X74.860306 Y75.286495 Z-0.125000 I0.000000 J-0.217513
G03 X74.864909 Y75.043941 Z-0.125000 I0.223547 J-0.117079
G02 X74.860092 Y74.756697 Z-0.125000 I-0.243643 J-0.139577
G02 X74.495621 Y74.446741 Z-0.125000 I-0.662268 J0.409482
G02 X74.225445 Y74.476905 Z-0.125000 I-0.107722 J0.260197
G02 X74.183302 Y74.667306 Z-0.125000 I0.083593 J0.118367
G03 X74.163762 Y74.823825 Z-0.125000 I-0.113922 J0.065257
G03 X74.016675 Y74.839638 Z-0.125000 I-0.083024 J-0.080279
G03 X73.846875 Y74.219839 Z-0.125000 I0.271751 J-0.407608
G03 X74.517085 Y73.798332 Z-0.125000 I0.670210 J0.322075
G03 X75.194854 Y74.050351 Z-0.125000 I0.000000 J1.037393
G03 X75.446873 Y74.600729 Z-0.125000 I-0.474971 J0.550378
G01 X75.446851 Y74.600699 Z-0.125000
G00 Z5.000000

(End cutting path id: path11)


(Start cutting path id: path11)
(Change tool to Default tool)

G00 Z5.000000
G00 X75.321249 Y71.892580

G01 Z-0.125000 F100.0(Penetrate)
G03 X75.224378 Y71.892583 Z-0.125000 I-0.048436 J-0.018117 F400.000000
G03 X75.133641 Y71.391084 Z-0.125000 I1.340510 J-0.501499
G03 X75.224367 Y70.889592 Z-0.125000 I1.431377 J0.000000
G03 X75.321249 Y70.889587 Z-0.125000 I0.048442 J0.018121
G03 X75.411969 Y71.391087 Z-0.125000 I-1.340778 J0.501500
G03 X75.321249 Y71.892580 Z-0.125000 I-1.431461 J0.000000
G01 X75.321249 Y71.892580 Z-0.125000
G00 Z5.000000

(End cutting path id: path11)


(Start cutting path id: path11)
(Change tool to Default tool)

G00 Z5.000000
G00 X74.565373 Y70.989885

G01 Z-0.125000 F100.0(Penetrate)
G01 X74.596327 Y71.015682 Z-0.125000 F400.000000
G03 X74.771365 Y72.112707 Z-0.125000 I-23.733748 J4.349352
G03 X74.582776 Y72.963363 Z-0.125000 I-1.247236 J0.169722
G03 X73.996015 Y73.318389 Z-0.125000 I-0.656148 J-0.422042
G03 X73.673809 Y73.160364 Z-0.125000 I-0.030780 J-0.344736
G03 X73.719730 Y72.887105 Z-0.125000 I0.173714 J-0.111296
G02 X74.276379 Y71.564648 Z-0.125000 I-0.919159 J-1.165273
G02 X73.542245 Y71.220531 Z-0.125000 I-0.471244 J0.050191
G02 X73.363972 Y71.484387 Z-0.125000 I0.233165 J0.349689
G02 X73.417187 Y71.820025 Z-0.125000 I0.468554 J0.097749
G03 X73.456752 Y72.091226 Z-0.125000 I-0.324261 J0.185792
G03 X73.330287 Y72.190366 Z-0.125000 I-0.125118 J-0.029371
G03 X73.104101 Y72.075106 Z-0.125000 I0.002931 J-0.285314
G03 X72.619148 Y71.232281 Z-0.125000 I3.362414 J-2.495631
G03 X72.737861 Y70.753126 Z-0.125000 I0.375402 J-0.161276
G03 X73.360524 Y70.633615 Z-0.125000 I0.423451 J0.524395
G02 X74.513291 Y70.982363 Z-0.125000 I28.343297 J-91.607522
G02 X74.565373 Y70.989902 Z-0.125000 I0.052082 J-0.176138
G01 X74.565373 Y70.989885 Z-0.125000
G00 Z5.000000

(End cutting path id: path11)


(Start cutting path id: path11)
(Change tool to Default tool)

G00 Z5.000000
G00 X71.969396 Y66.777620

G01 Z-0.125000 F100.0(Penetrate)
G02 X71.523248 Y67.371981 Z-0.125000 I0.920629 J1.155684 F400.000000
G02 X71.551011 Y67.796440 Z-0.125000 I0.447674 J0.183856
G02 X71.829937 Y67.936910 Z-0.125000 I0.245725 J-0.140766
G02 X72.174437 Y67.722830 Z-0.125000 I-0.055997 J-0.474337
G03 X72.321856 Y67.652641 Z-0.125000 I0.130928 J0.085082
G03 X72.386701 Y67.745380 Z-0.125000 I-0.007921 J0.074578
G03 X71.620985 Y68.423454 Z-0.125000 I-0.876911 J-0.218873
G03 X70.834015 Y67.937881 Z-0.125000 I-0.090895 J-0.733196
G03 X70.859687 Y67.446764 Z-0.125000 I0.603567 J-0.214679
G03 X71.329066 Y66.902947 Z-0.125000 I1.233150 J0.589882
G02 X71.791826 Y66.353090 Z-0.125000 I-0.730642 J-1.084567
G02 X71.821806 Y65.803253 Z-0.125000 I-0.700675 J-0.313941
G03 X71.903496 Y65.643652 Z-0.125000 I0.120654 J-0.038951
G03 X72.137845 Y65.701190 Z-0.125000 I0.070579 J0.218547
G03 X72.300689 Y66.208043 Z-0.125000 I-0.422388 J0.415293
G03 X71.969401 Y66.777791 Z-0.125000 I-0.896887 J-0.140318
G01 X71.969396 Y66.777620 Z-0.125000
G00 Z5.000000

(End cutting path id: path11)


(Start cutting path id: path11)
(Change tool to Default tool)

G00 Z5.000000
G00 X80.839614 Y89.722106

G01 Z-0.125000 F100.0(Penetrate)
G02 X80.129477 Y89.981974 Z-0.125000 I1.157714 J4.263891 F400.000000
G02 X79.828139 Y90.193921 Z-0.125000 I0.443541 J0.950799
G02 X79.644463 Y90.510507 Z-0.125000 I0.513718 J0.509623
G02 X78.311962 Y95.671453 Z-0.125000 I147.927378 J40.945761
G03 X77.013876 Y100.863079 Z-0.125000 I-268.114413 J-64.279792
G03 X76.773223 Y101.581250 Z-0.125000 I-5.345411 J-1.391794
G02 X76.763328 Y102.095900 Z-0.125000 I0.653200 J0.269979
G02 X77.032291 Y102.283345 Z-0.125000 I0.268963 J-0.099243
G02 X77.381580 Y102.032350 Z-0.125000 I0.000000 J-0.368536
G02 X78.753664 Y97.168069 Z-0.125000 I-48.227641 J-16.229384
G03 X80.657901 Y91.680236 Z-0.125000 I26.084975 J5.976994
G03 X81.654523 Y91.049796 Z-0.125000 I0.996622 J0.472529
G03 X81.816959 Y91.316075 Z-0.125000 I0.000000 J0.182684
G03 X81.249634 Y91.836561 Z-0.125000 I-0.989697 J-0.509327
G02 X80.651833 Y92.448651 Z-0.125000 I0.409107 J0.997524
G02 X79.372141 Y96.741309 Z-0.125000 I27.599420 J10.564788
G03 X78.363556 Y101.274291 Z-0.125000 I-447.634110 J-97.219545
G03 X78.212760 Y101.830200 Z-0.125000 I-6.870166 J-1.565197
G02 X78.418471 Y102.088141 Z-0.125000 I0.189548 J0.059832
G02 X80.002804 Y101.684154 Z-0.125000 I-0.396968 J-4.865476
G03 X80.356832 Y101.851672 Z-0.125000 I0.104892 J0.236180
G03 X80.653655 Y104.045823 Z-0.125000 I-7.961291 J2.194151
G02 X80.786083 Y106.558467 Z-0.125000 I23.903173 J-0.000000
G02 X80.932579 Y106.684840 Z-0.125000 I0.140573 J-0.014859
G02 X81.787037 Y106.210773 Z-0.125000 I-0.045871 J-1.089748
G02 X84.732591 Y101.127857 Z-0.125000 I-32.537333 J-22.250348
G02 X84.658783 Y100.825909 Z-0.125000 I-0.219695 J-0.106293
G02 X84.329042 Y100.826960 Z-0.125000 I-0.164170 J0.220176
G03 X83.439997 Y101.410953 Z-0.125000 I-4.870345 J-6.445679
G03 X83.174312 Y101.480965 Z-0.125000 I-0.265685 J-0.469112
G03 X82.817456 Y101.105529 Z-0.125000 I0.000000 J-0.357316
G03 X83.466516 Y95.725759 Z-0.125000 I39.058100 J1.983255
G02 X83.912171 Y92.685435 Z-0.125000 I-34.410902 J-6.596821
G02 X83.931407 Y91.169369 Z-0.125000 I-8.485782 J-0.865825
G02 X83.476547 Y89.990852 Z-0.125000 I-2.187548 J0.167268
G02 X82.699172 Y89.582879 Z-0.125000 I-0.836865 J0.649996
G02 X81.591074 Y89.593115 Z-0.125000 I-0.476287 J8.423036
G02 X80.839597 Y89.722115 Z-0.125000 I0.300847 J4.005889
G01 X80.839614 Y89.722106 Z-0.125000
G00 Z5.000000

(End cutting path id: path11)


(Start cutting path id: path11)
(Change tool to Default tool)

G00 Z5.000000
G00 X79.537912 Y104.690533

G01 Z-0.125000 F100.0(Penetrate)
G02 X79.709583 Y106.926032 Z-0.125000 I14.641174 J-0.000000 F400.000000
G02 X79.909839 Y107.097725 Z-0.125000 I0.200256 J-0.030939
G02 X80.110096 Y106.926031 Z-0.125000 I0.000000 J-0.202633
G02 X80.281766 Y104.690533 Z-0.125000 I-14.469560 J-2.235498
G02 X80.110096 Y102.455038 Z-0.125000 I-14.641152 J-0.000000
G02 X79.909839 Y102.283345 Z-0.125000 I-0.200257 J0.030939
G02 X79.709617 Y102.455004 Z-0.125000 I0.000000 J0.202599
G02 X79.537912 Y104.690533 Z-0.125000 I14.467004 J2.235529
G01 X79.537912 Y104.690533 Z-0.125000
G00 Z5.000000

(End cutting path id: path11)


(Start cutting path id: path11)
(Change tool to Default tool)

G00 Z5.000000
G00 X65.219194 Y95.899205

G01 Z-0.125000 F100.0(Penetrate)
G03 X58.887298 Y99.090150 Z-0.125000 I-535.995327 J-1055.715031 F400.000000
G03 X57.187989 Y99.916401 Z-0.125000 I-37.610575 J-75.191264
G01 X55.479334 Y100.723587 Z-0.125000
G01 X53.714877 Y107.822336 Z-0.125000
G03 X51.943319 Y114.919302 Z-0.125000 I-3544.542169 J-881.025559
G03 X51.020840 Y118.568983 Z-0.125000 I-937.729656 J-235.075536
G01 X50.091260 Y122.216874 Z-0.125000
G01 X45.475019 Y125.124578 Z-0.125000
G02 X40.912332 Y128.061837 Z-0.125000 I146.513467 J232.603927
G02 X40.858775 Y128.161172 Z-0.125000 I0.065343 J0.099335
G02 X41.104614 Y128.350895 Z-0.125000 I0.196127 J0.000000
G02 X48.587650 Y126.136054 Z-0.125000 I-31.399942 J-119.835964
G02 X52.347393 Y124.046940 Z-0.125000 I-3.613572 J-10.931016
G02 X54.819754 Y120.939062 Z-0.125000 I-6.285804 J-7.537784
G01 X55.834395 Y118.933073 Z-0.125000
G01 X54.282176 Y120.738463 Z-0.125000
G01 X52.729958 Y122.543857 Z-0.125000
G01 X53.320352 Y121.139662 Z-0.125000
G03 X53.932498 Y119.745537 Z-0.125000 I44.660685 J18.778574
G03 X54.451140 Y118.670573 Z-0.125000 I27.034679 J12.380943
G02 X55.029883 Y116.408479 Z-0.125000 I-4.789251 J-2.430381
G02 X54.607515 Y113.683092 Z-0.125000 I-7.489170 J-0.234785
G03 X54.518004 Y112.647144 Z-0.125000 I1.961622 J-0.691335
G03 X54.932076 Y111.751280 Z-0.125000 I1.847852 J0.310460
G02 X55.575136 Y110.872162 Z-0.125000 I-6.136733 J-5.163669
G02 X55.844625 Y110.307309 Z-0.125000 I-2.238837 J-1.414853
G03 X56.073738 Y110.332727 Z-0.125000 I0.111764 J0.037876
G03 X56.176107 Y113.429445 Z-0.125000 I-21.202420 J2.250948
G02 X56.507817 Y113.569658 Z-0.125000 I0.192261 J0.007636
G02 X57.574970 Y111.958078 Z-0.125000 I-4.017078 J-3.819134
G03 X58.756272 Y110.209791 Z-0.125000 I5.272168 J2.289116
G03 X61.365694 Y108.117161 Z-0.125000 I10.280613 J10.146258
G02 X65.725924 Y104.791952 Z-0.125000 I-15.910709 J-25.384467
G02 X68.120724 Y101.909755 Z-0.125000 I-9.466604 J-10.301755
G03 X68.792492 Y101.449012 Z-0.125000 I0.864986 J0.541063
G03 X69.464468 Y101.650586 Z-0.125000 I0.143318 J0.743081
G03 X70.035052 Y102.446341 Z-0.125000 I-1.960019 J2.007844
G03 X70.316007 Y103.428367 Z-0.125000 I-2.754133 J1.319154
G02 X70.556064 Y103.479098 Z-0.125000 I0.128403 J-0.014261
G02 X71.683076 Y101.079771 Z-0.125000 I-13.032439 J-7.585950
G02 X72.815334 Y97.641164 Z-0.125000 I-51.476938 J-18.855947
G02 X73.122332 Y96.168525 Z-0.125000 I-9.083261 J-2.661887
G01 X73.312448 Y94.667459 Z-0.125000
G01 X71.683266 Y95.208934 Z-0.125000
G02 X66.737391 Y97.136311 Z-0.125000 I16.509586 J49.675066
G02 X60.570260 Y100.202563 Z-0.125000 I36.121611 J80.386220
G01 X57.037068 Y102.134974 Z-0.125000
G01 X56.021959 Y105.117848 Z-0.125000
G02 X55.056321 Y108.115887 Z-0.125000 I90.794056 J30.898378
G02 X54.037673 Y111.643839 Z-0.125000 I124.721639 J37.922706
G03 X53.015385 Y114.970166 Z-0.125000 I-53.863767 J-14.733826
G03 X52.891836 Y114.996383 Z-0.125000 I-0.069604 J-0.023789
G03 X52.680689 Y114.146271 Z-0.125000 I0.664975 J-0.616441
G03 X55.805183 Y104.073137 Z-0.125000 I127.011162 J33.875289
G01 X56.608123 Y101.809713 Z-0.125000
G01 X61.843446 Y99.069618 Z-0.125000
G03 X67.136998 Y96.462257 Z-0.125000 I55.830458 J106.671617
G03 X70.161552 Y95.222840 Z-0.125000 I15.507160 J33.532060
G02 X72.926552 Y93.931789 Z-0.125000 I-5.600432 J-15.600631
G02 X73.133068 Y93.485676 Z-0.125000 I-0.217096 J-0.371355
G02 X72.371170 Y93.018499 Z-0.125000 I-0.587785 J0.103731
G02 X65.219194 Y95.899205 Z-0.125000 I12.959010 J42.492057
G01 X65.219194 Y95.899205 Z-0.125000
G00 Z5.000000

(End cutting path id: path11)


(Start cutting path id: path11)
(Change tool to Default tool)

G00 Z5.000000
G00 X69.031323 Y125.183777

G01 Z-0.125000 F100.0(Penetrate)
G02 X67.741492 Y127.275928 Z-0.125000 I1.480595 J2.356473 F400.000000
G02 X68.728175 Y128.361229 Z-0.125000 I0.986683 J0.094138
G02 X69.797153 Y128.110127 Z-0.125000 I0.000000 J-2.400950
G02 X71.511759 Y126.977129 Z-0.125000 I-3.744317 J-7.530293
G02 X71.818223 Y126.334015 Z-0.125000 I-0.567426 J-0.664973
G02 X71.547229 Y125.559223 Z-0.125000 I-1.160127 J-0.029019
G02 X70.374494 Y124.902543 Z-0.125000 I-1.452608 J1.218641
G02 X69.031452 Y125.183764 Z-0.125000 I-0.291699 J1.954553
G01 X69.031323 Y125.183777 Z-0.125000
G00 Z5.000000

(End cutting path id: path11)


(Start cutting path id: path11)
(Change tool to Default tool)

G00 Z5.000000
G00 X65.870045 Y125.829397

G01 Z-0.125000 F100.0(Penetrate)
G02 X66.520885 Y125.919366 Z-0.125000 I0.650840 J-2.309116 F400.000000
G02 X67.171747 Y125.829397 Z-0.125000 I0.000000 J-2.399249
G01 X67.171750 Y125.735913 Z-0.125000
G02 X66.520896 Y125.645918 Z-0.125000 I-0.650854 J2.308532
G02 X65.870049 Y125.735896 Z-0.125000 I0.000000 J2.398912
G01 X65.870045 Y125.829397 Z-0.125000
G01 X65.870045 Y125.829397 Z-0.125000
G00 Z5.000000

(End cutting path id: path11)


(Start cutting path id: path11)
(Change tool to Default tool)

G00 Z5.000000
G00 X53.252637 Y127.095597

G01 Z-0.125000 F100.0(Penetrate)
G02 X48.836112 Y129.377450 Z-0.125000 I81.055064 J162.297087 F400.000000
G02 X48.821871 Y129.462280 Z-0.125000 I0.025589 J0.047906
G02 X49.112658 Y129.555055 Z-0.125000 I0.227468 J-0.210861
G02 X53.394489 Y128.578494 Z-0.125000 I-24.042844 J-115.293627
G02 X57.608712 Y127.454111 Z-0.125000 I-29.381880 J-118.583898
G02 X58.164114 Y127.147518 Z-0.125000 I-0.389602 J-1.362137
G02 X58.792336 Y125.732240 Z-0.125000 I-1.258474 J-1.405688
G02 X58.152864 Y124.923991 Z-0.125000 I-0.835892 J0.004249
G02 X57.794801 Y124.956300 Z-0.125000 I-0.131430 J0.543697
G02 X53.252690 Y127.095597 Z-0.125000 I44.204182 J99.744909
G01 X53.252637 Y127.095597 Z-0.125000
G00 Z5.000000

(End cutting path id: path11)


(Start cutting path id: path11)
(Change tool to Default tool)

G00 Z5.000000
G00 X16.312403 Y130.919893

G01 Z-0.125000 F100.0(Penetrate)
G03 X16.262131 Y131.048069 Z-0.125000 I-0.188539 J-0.000000 F400.000000
G03 X15.661552 Y131.621988 Z-0.125000 I-5.033833 J-4.666472
G03 X15.529678 Y131.613995 Z-0.125000 I-0.061755 J-0.072996
G03 X15.521138 Y131.470521 Z-0.125000 I0.082987 J-0.076931
G03 X16.162967 Y130.841827 Z-0.125000 I2.184473 J1.588145
G03 X16.312407 Y130.919897 Z-0.125000 I0.054327 J0.078070
G01 X16.312403 Y130.919893 Z-0.125000
G00 Z5.000000

(End cutting path id: path11)


(Start cutting path id: path11)
(Change tool to Default tool)

G00 Z5.000000
G00 X11.455184 Y109.149379

G01 Z-0.125000 F100.0(Penetrate)
G02 X5.725032 Y114.423255 Z-0.125000 I1166.590244 J1273.269141 F400.000000
G02 X5.199427 Y114.933115 Z-0.125000 I10.365522 J11.211468
G02 X4.932394 Y115.555597 Z-0.125000 I0.665670 J0.654077
G02 X4.756631 Y128.004607 Z-0.125000 I315.128037 J10.674921
G02 X4.964117 Y140.519816 Z-0.125000 I571.597660 J-3.217035
G02 X5.117571 Y141.113255 Z-0.125000 I1.370091 J-0.037723
G02 X5.697566 Y141.231228 Z-0.125000 I0.337622 J-0.175153
G02 X12.741127 Y134.809677 Z-0.125000 I-62.856144 J-76.018252
G01 X15.366761 Y132.172612 Z-0.125000
G01 X13.701070 Y134.361099 Z-0.125000
G03 X12.000298 Y136.521510 Z-0.125000 I-66.958463 J-50.963021
G03 X8.372051 Y140.907347 Z-0.125000 I-279.648690 J-227.649767
G02 X4.922427 Y145.259926 Z-0.125000 I73.671055 J61.931062
G02 X4.935719 Y145.509984 Z-0.125000 I0.156775 J0.117049
G02 X5.167239 Y145.541747 Z-0.125000 I0.135124 J-0.125260
G02 X6.181604 Y144.745171 Z-0.125000 I-2.936797 J-4.783875
G03 X7.211201 Y143.746556 Z-0.125000 I47.012163 J47.440638
G03 X17.724792 Y133.787417 Z-0.125000 I4687.513758 J4937.951077
G01 X28.249091 Y123.839340 Z-0.125000
G01 X26.243811 Y121.911340 Z-0.125000
G03 X22.446181 Y117.050515 Z-0.125000 I15.122752 J-15.728900
G03 X20.845814 Y112.513898 Z-0.125000 I11.507555 J-6.610066
G02 X18.736623 Y104.759951 Z-0.125000 I-36.578918 J5.786181
G02 X17.457505 Y103.888140 Z-0.125000 I-1.279118 J0.502453
G02 X17.230740 Y103.973455 Z-0.125000 I-0.000000 J0.344023
G02 X11.455184 Y109.149379 Z-0.125000 I232.285440 J265.006084
G01 X11.455184 Y109.149379 Z-0.125000
G00 Z5.000000

(End cutting path id: path11)


(Start cutting path id: path11)
(Change tool to Default tool)

G00 Z5.000000
G00 X99.683788 Y91.563203

G01 Z-0.125000 F100.0(Penetrate)
G03 X98.001040 Y99.097209 Z-0.125000 I-43.354085 J-5.728366 F400.000000
G03 X96.426440 Y101.798028 Z-0.125000 I-6.834491 J-2.175154
G03 X95.113520 Y102.933899 Z-0.125000 I-5.796963 J-5.373821
G03 X94.699470 Y102.987609 Z-0.125000 I-0.259349 J-0.376509
G03 X93.874517 Y102.334769 Z-0.125000 I0.558585 J-1.553490
G03 X87.970036 Y92.650162 Z-0.125000 I160.833487 J-104.698674
G01 X86.546422 Y90.151890 Z-0.125000
G01 X85.504268 Y91.498508 Z-0.125000
G02 X84.729638 Y92.961832 Z-0.125000 I3.830453 J2.964392
G02 X83.839347 Y96.606272 Z-0.125000 I23.643067 J7.706670
G02 X83.310762 Y100.339133 Z-0.125000 I79.421849 J13.150238
G02 X83.376073 Y100.539475 Z-0.125000 I0.249706 J0.029413
G02 X83.542172 Y100.558864 Z-0.125000 I0.094395 J-0.087493
G02 X84.713726 Y99.642124 Z-0.125000 I-5.675994 J-8.460639
G03 X85.883204 Y98.773875 Z-0.125000 I4.981513 J5.488063
G03 X86.108051 Y98.805911 Z-0.125000 I0.092686 J0.154548
G03 X86.212378 Y99.536777 Z-0.125000 I-0.475448 J0.440747
G03 X83.222163 Y104.573019 Z-0.125000 I-36.488831 J-18.259029
G02 X81.824831 Y106.679475 Z-0.125000 I47.320016 J32.906746
G02 X81.769402 Y106.870874 Z-0.125000 I0.302739 J0.191399
G02 X81.838999 Y107.051547 Z-0.125000 I0.269311 J-0.000000
G02 X84.837698 Y110.262507 Z-0.125000 I102.817304 J-93.014837
G03 X89.028056 Y115.719359 Z-0.125000 I-22.117928 J21.321852
G03 X90.913201 Y120.337264 Z-0.125000 I-13.827018 J8.338272
G03 X91.394620 Y125.189699 Z-0.125000 I-17.809802 J4.217043
G03 X90.582109 Y129.868905 Z-0.125000 I-17.350991 J-0.602731
G02 X90.185262 Y131.457967 Z-0.125000 I12.120824 J3.871097
G02 X90.273986 Y131.559115 Z-0.125000 I0.084464 J0.015398
G02 X91.580875 Y130.795718 Z-0.125000 I-0.081870 J-1.640512
G02 X96.474430 Y121.741460 Z-0.125000 I-64.201425 J-40.548484
G02 X100.086580 Y110.135361 Z-0.125000 I-44.024521 J-20.066841
G02 X100.963600 Y96.465969 Z-0.125000 I-60.491894 J-10.743955
G02 X100.636699 Y91.259126 Z-0.125000 I-172.884838 J8.240544
G02 X100.432100 Y89.645601 Z-0.125000 I-16.772855 J1.307103
G02 X100.183287 Y89.620941 Z-0.125000 I-0.127862 J0.022538
G02 X99.683810 Y91.563203 Z-0.125000 I7.780907 J3.036311
G01 X99.683788 Y91.563203 Z-0.125000
G00 Z5.000000

(End cutting path id: path11)


(Footer)
M5
G00 X0.0000 Y0.0000
M2
(Using default footer. To add your own footer create file "footer" in the output dir.)
(end)
%