%
(Header)
(Generated by gcodetools from Inkscape.)
(Using default header. To add your own header create file "header" in the output dir.)
M3
(Header end.)
G21 (All units in mm)

(Start cutting path id: path1)
(Change tool to Default tool)

G00 Z5.000000
G00 X3.705282 Y48.119597

G01 Z-0.125000 F100.0(Penetrate)
G01 X3.682546 Y93.375217 Z-0.125000 F400.000000
G01 X48.335186 Y93.375217 Z-0.125000
G01 X92.987828 Y93.375217 Z-0.125000
G01 X92.965060 Y48.119597 Z-0.125000
G01 X92.942293 Y2.863975 Z-0.125000
G01 X92.919263 Y48.073347 Z-0.125000
G01 X92.896232 Y93.282717 Z-0.125000
G01 X48.335186 Y93.282717 Z-0.125000
G01 X3.774046 Y93.282717 Z-0.125000
G01 X3.751032 Y48.073347 Z-0.125000
G01 X3.728018 Y2.863975 Z-0.125000
G01 X3.705282 Y48.119597 Z-0.125000
G00 Z5.000000

(End cutting path id: path1)


(Start cutting path id: path1)
(Change tool to Default tool)

G00 Z5.000000
G00 X15.384307 Y48.264766

G01 Z-0.125000 F100.0(Penetrate)
G02 X15.232925 Y48.527433 Z-0.125000 I0.510477 J0.469157 F400.000000
G02 X15.085524 Y49.222448 Z-0.125000 I3.634969 J1.134055
G02 X14.918313 Y52.131810 Z-0.125000 I24.905723 J2.890907
G02 X15.089924 Y55.126474 Z-0.125000 I26.555743 J-0.019547
G02 X17.570034 Y62.347719 Z-0.125000 I17.608979 J-2.011224
G02 X21.991071 Y66.435101 Z-0.125000 I9.407904 J-5.741221
G02 X24.452064 Y67.296134 Z-0.125000 I4.448948 J-8.768414
G02 X27.332951 Y67.537907 Z-0.125000 I2.444184 J-11.839379
G02 X29.739783 Y67.197782 Z-0.125000 I-0.421887 J-11.671221
G02 X33.933686 Y65.890085 Z-0.125000 I-9.239370 J-37.010457
G03 X35.380719 Y65.378236 Z-0.125000 I13.595477 J36.133995
G03 X35.569723 Y65.347724 Z-0.125000 I0.189004 J0.570133
G03 X35.750342 Y65.394107 Z-0.125000 I0.000000 J0.374866
G03 X36.730964 Y65.986239 Z-0.125000 I-6.815889 J12.395760
G02 X38.663166 Y67.181476 Z-0.125000 I21.041527 J-31.856012
G02 X40.527852 Y68.181495 Z-0.125000 I16.573756 J-28.665761
G02 X41.981778 Y68.726196 Z-0.125000 I3.391820 J-6.840730
G02 X42.330874 Y68.654598 Z-0.125000 I0.102092 J-0.389077
G02 X43.501105 Y67.282620 Z-0.125000 I-2.740860 J-3.522887
G02 X45.287763 Y63.277969 Z-0.125000 I-23.128682 J-12.719641
G02 X45.377749 Y62.690033 Z-0.125000 I-1.529313 J-0.534923
G02 X45.253173 Y62.221394 Z-0.125000 I-1.076323 J0.035237
G02 X43.609662 Y60.041730 Z-0.125000 I-7.611499 J4.029773
G02 X40.419027 Y57.575227 Z-0.125000 I-13.024705 J13.551651
G02 X39.872952 Y57.335834 Z-0.125000 I-1.138411 J1.854286
G02 X39.298665 Y57.258259 Z-0.125000 I-0.559536 J1.977746
G02 X38.720842 Y57.339264 Z-0.125000 I0.016208 J2.216964
G02 X38.051727 Y57.605134 Z-0.125000 I0.903538 J3.248856
G03 X37.398866 Y57.935528 Z-0.125000 I-10.235657 J-19.415507
G03 X37.345802 Y57.947724 Z-0.125000 I-0.053064 J-0.109341
G02 X37.291651 Y57.957788 Z-0.125000 I0.000000 J0.150713
G02 X35.393191 Y58.699501 Z-0.125000 I74.135353 J192.554524
G03 X33.492709 Y59.440855 Z-0.125000 I-68.800384 J-173.564987
G03 X32.400890 Y59.847964 Z-0.125000 I-21.825576 J-56.866095
G02 X31.369363 Y60.285993 Z-0.125000 I3.519187 J9.721041
G02 X31.315935 Y60.379831 Z-0.125000 I0.042249 J0.086184
G02 X31.364190 Y60.499234 Z-0.125000 I0.214730 J-0.017329
G02 X32.959590 Y62.380918 Z-0.125000 I60.973121 J-50.079326
G03 X34.580806 Y64.253606 Z-0.125000 I-174.675734 J152.857608
G03 X34.616598 Y64.315715 Z-0.125000 I-0.147670 J0.126468
G03 X34.512207 Y64.542784 Z-0.125000 I-0.169672 J0.059527
G03 X31.024223 Y65.715471 Z-0.125000 I-14.154276 J-36.326227
G03 X26.516140 Y66.274750 Z-0.125000 I-4.059178 J-14.270717
G03 X22.911654 Y65.469904 Z-0.125000 I0.296726 J-9.802615
G03 X20.054834 Y63.502706 Z-0.125000 I3.580056 J-8.257035
G03 X17.781985 Y60.220317 Z-0.125000 I8.528038 J-8.333230
G03 X16.465331 Y55.890898 Z-0.125000 I14.463130 J-6.763417
G03 X16.251835 Y50.300241 Z-0.125000 I24.120351 J-3.720512
G01 X16.309955 Y49.544007 Z-0.125000
G01 X16.867659 Y49.894896 Z-0.125000
G02 X20.940787 Y52.210989 Z-0.125000 I28.009336 J-44.518202
G02 X23.568803 Y53.319735 Z-0.125000 I8.870047 J-17.355396
G02 X26.342059 Y54.076052 Z-0.125000 I7.707372 J-22.798676
G02 X27.998945 Y54.247725 Z-0.125000 I1.656886 J-7.909816
G02 X28.393922 Y53.994165 Z-0.125000 I0.000000 J-0.434413
G02 X28.381520 Y53.412197 Z-0.125000 I-0.607512 J-0.278170
G02 X27.989113 Y53.063160 Z-0.125000 I-0.643734 J0.328620
G02 X26.496596 Y52.713123 Z-0.125000 I-2.141518 J5.774211
G03 X23.922857 Y52.067026 Z-0.125000 I0.999337 J-9.430194
G03 X19.796062 Y49.987572 Z-0.125000 I10.835881 J-26.639080
G02 X16.742362 Y48.276488 Z-0.125000 I-24.991489 J41.020819
G02 X16.081423 Y48.080543 Z-0.125000 I-0.850869 J1.657381
G02 X15.631212 Y48.115789 Z-0.125000 I-0.128397 J1.252928
G02 X15.384338 Y48.264766 Z-0.125000 I0.131209 J0.496468
G01 X15.384307 Y48.264766 Z-0.125000
G00 Z5.000000

(End cutting path id: path1)


(Start cutting path id: path1)
(Change tool to Default tool)

G00 Z5.000000
G00 X17.166871 Y48.749565

G01 Z-0.125000 F100.0(Penetrate)
G03 X17.953786 Y49.187638 Z-0.125000 I-10.181788 J19.215473 F400.000000
G03 X19.960790 Y50.381616 Z-0.125000 I-73.745796 J126.245951
G02 X23.934866 Y52.353859 Z-0.125000 I13.700878 J-22.617303
G02 X26.459190 Y52.952165 Z-0.125000 I3.325864 J-8.407848
G03 X27.962278 Y53.370847 Z-0.125000 I-0.380254 J4.272549
G03 X28.246064 Y53.825390 Z-0.125000 I-0.222130 J0.454543
G03 X28.115975 Y53.952293 Z-0.125000 I-0.126942 J0.000000
G03 X26.317082 Y53.777550 Z-0.125000 I0.311282 J-12.551240
G03 X22.898610 Y52.738912 Z-0.125000 I2.387509 J-14.002939
G03 X16.449600 Y49.358459 Z-0.125000 I24.114605 J-53.846025
G02 X16.210126 Y49.256148 Z-0.125000 I-0.480712 J0.793757
G02 X16.140042 Y49.275129 Z-0.125000 I-0.018750 J0.069645
G02 X16.104040 Y49.352753 Z-0.125000 I0.090110 J0.088954
G02 X16.007241 Y50.753392 Z-0.125000 I33.952265 J3.050128
G02 X17.042311 Y58.942005 Z-0.125000 I23.789981 J1.152586
G02 X20.049969 Y63.827808 Z-0.125000 I10.994913 J-3.399728
G02 X22.125973 Y65.344355 Z-0.125000 I6.572606 J-6.818056
G02 X24.633730 Y66.300792 Z-0.125000 I4.900629 J-9.083481
G02 X27.071445 Y66.583393 Z-0.125000 I2.405098 J-10.091203
G02 X29.798406 Y66.284552 Z-0.125000 I-0.040759 J-12.963277
G02 X34.441336 Y64.923698 Z-0.125000 I-7.388889 J-33.809973
G02 X34.893706 Y64.395262 Z-0.125000 I-0.248709 J-0.670754
G02 X34.864649 Y64.275371 Z-0.125000 I-0.142549 J-0.028918
G02 X33.238000 Y62.329725 Z-0.125000 I-47.958993 J38.443096
G01 X31.554934 Y60.398978 Z-0.125000
G01 X32.395556 Y60.110381 Z-0.125000
G02 X33.231119 Y59.808084 Z-0.125000 I-8.780189 J-25.574778
G02 X35.252125 Y59.023506 Z-0.125000 I-57.245069 J-150.453652
G03 X37.269889 Y58.234761 Z-0.125000 I90.632197 J228.879569
G03 X37.321078 Y58.225228 Z-0.125000 I0.051189 J0.132669
G02 X37.371540 Y58.214241 Z-0.125000 I-0.000000 J-0.121380
G02 X38.154995 Y57.844029 Z-0.125000 I-14.200869 J-31.066422
G03 X39.414126 Y57.563129 Z-0.125000 I1.217158 J2.493428
G03 X40.420106 Y57.878299 Z-0.125000 I-0.028027 J1.852521
G03 X43.679591 Y60.514511 Z-0.125000 I-13.312654 J19.793291
G03 X45.011234 Y62.312892 Z-0.125000 I-4.722101 J4.888775
G03 X45.111631 Y62.805041 Z-0.125000 I-0.836285 J0.426915
G03 X44.928464 Y63.501355 Z-0.125000 I-1.924665 J-0.134040
G03 X42.900305 Y67.428393 Z-0.125000 I-62.705529 J-29.897665
G03 X42.197650 Y68.400104 Z-0.125000 I-4.466424 J-2.489816
G03 X42.008806 Y68.483101 Z-0.125000 I-0.189094 J-0.173909
G03 X41.579122 Y68.400707 Z-0.125000 I-0.001126 J-1.155719
G03 X39.694686 Y67.502313 Z-0.125000 I5.960628 J-14.928341
G03 X36.760043 Y65.706042 Z-0.125000 I21.310269 J-38.110830
G02 X35.792286 Y65.121118 Z-0.125000 I-6.976463 J10.449513
G02 X35.592436 Y65.070232 Z-0.125000 I-0.199850 J0.367007
G02 X35.383544 Y65.104768 Z-0.125000 I-0.000000 J0.649014
G02 X33.669050 Y65.724089 Z-0.125000 I15.484127 J45.548208
G03 X27.748286 Y67.213236 Z-0.125000 I-9.177931 J-23.976056
G03 X24.029050 Y66.957107 Z-0.125000 I-1.214526 J-9.495418
G03 X20.802346 Y65.470541 Z-0.125000 I2.796201 J-10.314553
G03 X18.162078 Y62.954358 Z-0.125000 I6.347729 J-9.304092
G03 X16.493216 Y59.948526 Z-0.125000 I9.830481 J-7.424161
G03 X15.413245 Y55.800121 Z-0.125000 I17.876909 J-6.868746
G03 X15.024579 Y49.763199 Z-0.125000 I38.308683 J-5.497343
G03 X15.514972 Y48.504628 Z-0.125000 I1.929267 J0.026901
G03 X15.945871 Y48.348694 Z-0.125000 I0.360076 J0.321686
G03 X17.166866 Y48.749577 Z-0.125000 I-0.557018 J3.756421
G01 X17.166871 Y48.749565 Z-0.125000
G00 Z5.000000

(End cutting path id: path1)


(Start cutting path id: path1)
(Change tool to Default tool)

G00 Z5.000000
G00 X28.395974 Y46.179015

G01 Z-0.125000 F100.0(Penetrate)
G02 X28.339336 Y46.413916 Z-0.125000 I0.336806 J0.205487 F400.000000
G02 X28.615391 Y49.113971 Z-0.125000 I49.638452 J-3.710920
G02 X29.030461 Y51.531916 Z-0.125000 I29.782614 J-3.867955
G02 X29.674634 Y54.062721 Z-0.125000 I33.276625 J-7.122608
G02 X31.037515 Y57.882557 Z-0.125000 I35.314836 J-10.446941
G02 X31.516458 Y58.445880 Z-0.125000 I1.128501 J-0.474202
G02 X31.598639 Y58.454578 Z-0.125000 I0.050006 J-0.079884
G02 X32.888330 Y57.947573 Z-0.125000 I-9.046160 J-24.904941
G03 X34.189247 Y57.420089 Z-0.125000 I17.665217 J41.699215
G03 X36.350084 Y56.606025 Z-0.125000 I44.275141 J114.248271
G02 X38.471200 Y55.742769 Z-0.125000 I-11.044215 J-30.174418
G02 X38.777817 Y55.515590 Z-0.125000 I-0.365572 J-0.813907
G02 X40.473696 Y53.042762 Z-0.125000 I-9.718691 J-8.483065
G02 X40.882198 Y51.518971 Z-0.125000 I-3.159710 J-1.663716
G02 X40.812559 Y51.265844 Z-0.125000 I-0.432902 J-0.017045
G02 X39.033698 Y48.674597 Z-0.125000 I-52.090978 J33.853643
G01 X37.174316 Y46.107721 Z-0.125000
G01 X32.806893 Y46.107721 Z-0.125000
G02 X28.459190 Y46.142862 Z-0.125000 I-0.000000 J268.968444
G02 X28.395974 Y46.179021 Z-0.125000 I0.001220 J0.075473
G01 X28.395974 Y46.179015 Z-0.125000
G00 Z5.000000

(End cutting path id: path1)


(Start cutting path id: path1)
(Change tool to Default tool)

G00 Z5.000000
G00 X29.711370 Y45.159555

G01 Z-0.125000 F100.0(Penetrate)
G02 X27.691023 Y45.239654 Z-0.125000 I0.498017 J38.081395 F400.000000
G02 X27.589713 Y45.300167 Z-0.125000 I0.008577 J0.129421
G02 X27.490408 Y45.672879 Z-0.125000 I0.553399 J0.347032
G02 X27.752254 Y49.431489 Z-0.125000 I62.279186 J-2.450290
G01 X27.988957 Y51.795792 Z-0.125000
G01 X28.579466 Y53.672946 Z-0.125000
G02 X29.579036 Y56.528186 Z-0.125000 I45.135170 J-14.198458
G02 X30.224270 Y57.929760 Z-0.125000 I11.481733 J-4.436464
G02 X31.085467 Y59.466645 Z-0.125000 I46.716647 J-25.168045
G02 X31.195367 Y59.597244 Z-0.125000 I0.430434 J-0.250672
G02 X31.333778 Y59.622637 Z-0.125000 I0.091501 J-0.108832
G02 X35.011063 Y58.263712 Z-0.125000 I-36.409392 J-104.179609
G02 X38.680514 Y56.783830 Z-0.125000 I-61.932750 J-158.854937
G02 X39.133789 Y56.545141 Z-0.125000 I-1.099678 J-2.638049
G02 X39.697062 Y55.997563 Z-0.125000 I-1.091242 J-1.686017
G02 X41.024614 Y53.797173 Z-0.125000 I-17.705936 J-12.183117
G02 X41.806041 Y51.611929 Z-0.125000 I-7.384150 J-3.872857
G02 X41.652020 Y50.761447 Z-0.125000 I-1.132589 J-0.234077
G02 X40.758702 Y49.415628 Z-0.125000 I-28.621869 J18.029025
G02 X38.232900 Y45.868129 Z-0.125000 I-201.540074 J140.822630
G01 X37.757135 Y45.212287 Z-0.125000
G01 X36.311739 Y45.151567 Z-0.125000
G02 X34.866047 Y45.111618 Z-0.125000 I-2.113346 J50.300682
G02 X33.314002 Y45.111797 Z-0.125000 I-0.769351 J58.008437
G03 X31.761658 Y45.132564 Z-0.125000 I-82.821593 J-6122.252470
G03 X29.711370 Y45.159557 Z-0.125000 I-158.732382 J-12010.523716
G01 X29.711370 Y45.159555 Z-0.125000
G00 Z5.000000

(End cutting path id: path1)


(Start cutting path id: path1)
(Change tool to Default tool)

G00 Z5.000000
G00 X37.636909 Y45.529597

G01 Z-0.125000 F100.0(Penetrate)
G03 X38.083259 Y46.018839 Z-0.125000 I-1.784475 J2.076260 F400.000000
G03 X41.371340 Y50.778972 Z-0.125000 I-170.246954 J121.114456
G03 X41.540528 Y51.598241 Z-0.125000 I-0.920515 J0.617200
G03 X40.848182 Y53.600221 Z-0.125000 I-6.987141 J-1.295661
G03 X39.602366 Y55.736702 Z-0.125000 I-24.160590 J-12.656950
G03 X39.152999 Y56.226031 Z-0.125000 I-1.653528 J-1.067493
G03 X38.735901 Y56.477819 Z-0.125000 I-1.296129 J-1.675733
G03 X36.906374 Y57.250588 Z-0.125000 I-14.606907 J-32.029693
G02 X35.049743 Y57.976057 Z-0.125000 I341.424635 J876.517134
G02 X33.816230 Y58.461821 Z-0.125000 I151.897699 J387.526966
G03 X32.582484 Y58.946965 Z-0.125000 I-116.497271 J-294.447315
G03 X31.965956 Y59.184934 Z-0.125000 I-28.655746 J-73.323366
G01 X31.348423 Y59.420315 Z-0.125000
G01 X31.117634 Y59.049975 Z-0.125000
G03 X29.959738 Y56.831919 Z-0.125000 I13.952495 J-8.694908
G03 X28.900621 Y53.877721 Z-0.125000 I23.771757 J-10.189421
G02 X28.608285 Y52.909459 Z-0.125000 I-50.122774 J14.604708
G02 X28.423639 Y52.351471 Z-0.125000 I-16.827590 J5.258945
G03 X27.212848 Y46.545896 Z-0.125000 I21.489177 J-7.510758
G03 X27.903636 Y45.428983 Z-0.125000 I1.113146 J-0.083618
G03 X28.022252 Y45.404989 Z-0.125000 I0.122225 J0.299036
G03 X32.733172 Y45.375023 Z-0.125000 I5.469867 J489.597560
G03 X37.419883 Y45.445217 Z-0.125000 I0.220854 J141.750499
G03 X37.636909 Y45.529597 Z-0.125000 I-0.011021 J0.349631
G01 X37.636909 Y45.529597 Z-0.125000
G00 Z5.000000

(End cutting path id: path1)


(Start cutting path id: path1)
(Change tool to Default tool)

G00 Z5.000000
G00 X38.380173 Y48.212096

G01 Z-0.125000 F100.0(Penetrate)
G02 X39.696416 Y50.036962 Z-0.125000 I601.583002 J-432.523653 F400.000000
G02 X40.188669 Y50.711425 Z-0.125000 I82.661453 J-59.813207
G03 X40.609980 Y51.398163 Z-0.125000 I-3.853647 J2.836799
G03 X40.630630 Y51.590176 Z-0.125000 I-0.245619 J0.123532
G03 X39.756953 Y53.804772 Z-0.125000 I-9.318344 J-2.396533
G03 X38.539617 Y55.419587 Z-0.125000 I-6.093206 J-3.327136
G03 X38.307798 Y55.574976 Z-0.125000 I-0.523960 J-0.531061
G03 X36.601313 Y56.244493 Z-0.125000 I-12.604083 J-29.616135
G02 X34.873758 Y56.887997 Z-0.125000 I27.941750 J77.653244
G02 X33.236327 Y57.540912 Z-0.125000 I27.126815 J70.410445
G01 X31.606311 Y58.213040 Z-0.125000
G01 X31.168618 Y57.271005 Z-0.125000
G03 X29.844794 Y53.756746 Z-0.125000 I22.820369 J-10.602924
G03 X28.936683 Y49.668971 Z-0.125000 I30.019997 J-8.813784
G03 X28.663189 Y47.539385 Z-0.125000 I44.394617 J-6.783780
G03 X28.611397 Y46.547097 Z-0.125000 I9.567071 J-0.996841
G03 X28.690747 Y46.464611 Z-0.125000 I0.082507 J-0.000039
G03 X32.839008 Y46.385222 Z-0.125000 I4.148261 J108.338234
G01 X37.066695 Y46.385222 Z-0.125000
G01 X38.380173 Y48.212096 Z-0.125000
G00 Z5.000000

(End cutting path id: path1)


(Start cutting path id: path1)
(Change tool to Default tool)

G00 Z5.000000
G00 X43.130277 Y51.752552

G01 Z-0.125000 F100.0(Penetrate)
G02 X42.840953 Y51.876654 Z-0.125000 I0.212410 J0.894507 F400.000000
G02 X42.582393 Y52.109366 Z-0.125000 I0.612606 J0.940647
G02 X42.382023 Y52.408413 Z-0.125000 I1.519260 J1.234596
G02 X41.316246 Y54.436671 Z-0.125000 I69.665934 J37.901108
G02 X40.355926 Y56.484771 Z-0.125000 I32.628898 J16.548337
G02 X40.357447 Y56.657695 Z-0.125000 I0.196301 J0.084742
G02 X42.141926 Y59.103552 Z-0.125000 I6.767957 J-3.063951
G02 X45.941060 Y61.707936 Z-0.125000 I11.534472 J-12.752685
G02 X46.298104 Y61.805384 Z-0.125000 I0.418684 J-0.831219
G02 X48.517814 Y61.878970 Z-0.125000 I2.219710 J-33.441723
G01 X50.755013 Y61.878970 Z-0.125000
G01 X51.165926 Y61.633433 Z-0.125000
G02 X52.070448 Y60.975739 Z-0.125000 I-3.188161 J-5.335493
G02 X54.820813 Y58.435712 Z-0.125000 I-45.864778 J-52.421891
G02 X55.876552 Y57.265096 Z-0.125000 I-8.546264 J-8.768957
G02 X56.168621 Y56.732491 Z-0.125000 I-1.425749 J-1.128236
G02 X56.349799 Y56.140178 Z-0.125000 I-7.926744 J-2.748522
G02 X56.371760 Y55.968638 Z-0.125000 I-0.632080 J-0.168094
G02 X55.830584 Y53.773807 Z-0.125000 I-4.819014 J0.024083
G02 X54.196267 Y51.773346 Z-0.125000 I-5.591656 J2.900391
G02 X54.033260 Y51.713956 Z-0.125000 I-0.168226 J0.208330
G02 X48.751476 Y51.667190 Z-0.125000 I-4.838481 J248.176077
G02 X43.454066 Y51.712140 Z-0.125000 I0.704854 J395.243798
G02 X43.130277 Y51.752550 Z-0.125000 I0.022781 J1.499930
G01 X43.130277 Y51.752552 Z-0.125000
G00 Z5.000000

(End cutting path id: path1)


(Start cutting path id: path1)
(Change tool to Default tool)

G00 Z5.000000
G00 X43.260977 Y52.746013

G01 Z-0.125000 F100.0(Penetrate)
G02 X42.045859 Y54.162426 Z-0.125000 I2.126764 J3.053938 F400.000000
G02 X41.577936 Y56.180794 Z-0.125000 I4.119112 J2.018368
G02 X41.670307 Y56.410560 Z-0.125000 I0.331949 J0.000000
G02 X43.672415 Y58.364717 Z-0.125000 I30.578426 J-29.326067
G02 X45.777274 Y60.265594 Z-0.125000 I166.740077 J-182.517076
G02 X46.067008 Y60.502439 Z-0.125000 I2.866261 J-3.210673
G02 X46.672429 Y60.762723 Z-0.125000 I0.844420 J-1.129873
G02 X48.597724 Y60.937527 Z-0.125000 I2.056781 J-11.963423
G02 X50.093606 Y60.857121 Z-0.125000 I0.125823 J-11.614128
G02 X50.635464 Y60.695471 Z-0.125000 I-0.195207 J-1.643334
G02 X51.121523 Y60.388893 Z-0.125000 I-1.267807 J-2.548623
G02 X52.054426 Y59.585471 Z-0.125000 I-8.050075 J-10.290772
G03 X52.962436 Y58.743574 Z-0.125000 I40.692928 J42.977884
G03 X53.792389 Y58.007538 Z-0.125000 I31.928949 J35.167083
G02 X54.567825 Y57.232282 Z-0.125000 I-5.027201 J-5.803804
G02 X54.907396 Y56.720889 Z-0.125000 I-1.818673 J-1.576056
G02 X55.141225 Y56.150754 Z-0.125000 I-4.004065 J-1.975204
G02 X55.183751 Y55.887361 Z-0.125000 I-0.794431 J-0.263393
G02 X55.008222 Y55.145066 Z-0.125000 I-1.657312 J-0.000000
G02 X53.702065 Y52.929596 Z-0.125000 I-16.845525 J8.438718
G01 X53.527660 Y52.675221 Z-0.125000
G01 X48.443111 Y52.676621 Z-0.125000
G02 X43.369002 Y52.711292 Z-0.125000 I0.107830 J387.094582
G02 X43.260977 Y52.745991 Z-0.125000 I0.002591 J0.193570
G01 X43.260977 Y52.746013 Z-0.125000
G00 Z5.000000

(End cutting path id: path1)


(Start cutting path id: path1)
(Change tool to Default tool)

G00 Z5.000000
G00 X42.354107 Y60.912370

G01 Z-0.125000 F100.0(Penetrate)
G03 X44.113420 Y62.620016 Z-0.125000 I-33.081243 J35.842264 F400.000000
G03 X44.151778 Y62.747220 Z-0.125000 I-0.102309 J0.100236
G03 X43.316728 Y65.142210 Z-0.125000 I-8.557042 J-1.640472
G03 X41.759458 Y67.324985 Z-0.125000 I-8.629592 J-4.509768
G03 X41.672686 Y67.343376 Z-0.125000 I-0.056708 J-0.053661
G03 X40.740051 Y66.899631 Z-0.125000 I4.076056 J-9.768746
G03 X37.560615 Y64.972864 Z-0.125000 I16.948204 J-31.553553
G03 X35.434623 Y63.295267 Z-0.125000 I10.680665 J-15.721355
G03 X33.340314 Y61.096789 Z-0.125000 I14.562945 J-15.969701
G03 X33.405316 Y60.840682 Z-0.125000 I0.126142 J-0.104287
G02 X33.496557 Y60.803732 Z-0.125000 I-9.984706 J-24.786546
G02 X36.509998 Y59.576706 Z-0.125000 I-10384.496216 J-25507.681680
G01 X39.523367 Y58.349504 Z-0.125000
G01 X40.025595 Y58.788137 Z-0.125000
G03 X40.523001 Y59.232138 Z-0.125000 I-20.262210 J23.199994
G03 X42.354107 Y60.912370 Z-0.125000 I-288.392099 J316.125723
G01 X42.354107 Y60.912370 Z-0.125000
G00 Z5.000000

(End cutting path id: path1)


(Start cutting path id: path1)
(Change tool to Default tool)

G00 Z5.000000
G00 X46.407029 Y62.700306

G01 Z-0.125000 F100.0(Penetrate)
G02 X46.228286 Y62.874142 Z-0.125000 I0.191041 J0.375246 F400.000000
G02 X44.284904 Y66.596470 Z-0.125000 I104.880613 J57.125363
G02 X42.688248 Y70.180016 Z-0.125000 I39.501879 J19.747612
G02 X41.392673 Y73.950219 Z-0.125000 I42.438398 J16.691035
G02 X40.862322 Y77.012367 Z-0.125000 I12.900227 J3.811267
G02 X41.161646 Y78.092191 Z-0.125000 I1.746075 J0.097391
G03 X41.451784 Y78.556477 Z-0.125000 I-5.961571 J4.048249
G03 X41.788104 Y79.184960 Z-0.125000 I-10.596737 J6.074869
G02 X43.226354 Y81.856182 Z-0.125000 I42.787756 J-21.315140
G02 X44.219192 Y83.375851 Z-0.125000 I14.803346 J-8.587247
G02 X45.272529 Y84.590233 Z-0.125000 I7.849196 J-5.744263
G02 X46.156104 Y85.267453 Z-0.125000 I3.259118 J-3.337186
G02 X48.857016 Y85.869396 Z-0.125000 I2.273950 J-3.842734
G02 X51.389217 Y84.764752 Z-0.125000 I-0.425568 J-4.430173
G02 X52.684092 Y83.278832 Z-0.125000 I-5.168576 J-5.811210
G02 X55.159799 Y79.130219 Z-0.125000 I-38.833925 J-25.987351
G02 X55.835216 Y77.391244 Z-0.125000 I-7.134276 J-3.771604
G02 X55.986695 Y75.953147 Z-0.125000 I-4.692389 J-1.221288
G02 X55.865739 Y75.029209 Z-0.125000 I-5.453648 J0.244070
G02 X55.507478 Y73.765219 Z-0.125000 I-10.600526 J2.321811
G03 X55.089261 Y72.510419 Z-0.125000 I41.488329 J-14.524890
G03 X54.642221 Y71.032762 Z-0.125000 I57.089761 J-18.077994
G02 X53.949901 Y69.093795 Z-0.125000 I-15.948571 J4.601448
G02 X53.402406 Y68.140756 Z-0.125000 I-4.347820 J1.863928
G03 X52.857935 Y67.258762 Z-0.125000 I4.914703 J-3.642989
G03 X51.938091 Y65.245441 Z-0.125000 I24.896338 J-12.591401
G02 X50.975673 Y63.141089 Z-0.125000 I-26.728138 J10.951765
G02 X50.687749 Y62.777940 Z-0.125000 I-1.033503 J0.523701
G02 X48.930102 Y62.119152 Z-0.125000 I-1.808631 J2.151332
G02 X46.407029 Y62.700310 Z-0.125000 I-0.096999 J5.346368
G01 X46.407029 Y62.700306 Z-0.125000
G00 Z5.000000

(End cutting path id: path1)


(Start cutting path id: path1)
(Change tool to Default tool)

G00 Z5.000000
G00 X47.269993 Y63.599173

G01 Z-0.125000 F100.0(Penetrate)
G02 X47.046171 Y63.765226 Z-0.125000 I0.113436 J0.386770 F400.000000
G02 X45.729850 Y65.952518 Z-0.125000 I28.298250 J18.519730
G02 X44.507932 Y68.229868 Z-0.125000 I98.115256 J54.110447
G02 X44.466533 Y68.373645 Z-0.125000 I0.332905 J0.173706
G02 X44.523786 Y68.476981 Z-0.125000 I0.106513 J0.008515
G02 X45.076048 Y68.690288 Z-0.125000 I1.237055 J-2.381226
G02 X47.538370 Y69.033741 Z-0.125000 I2.661826 J-10.085144
G02 X51.451050 Y68.812245 Z-0.125000 I0.495715 J-25.912335
G03 X51.804943 Y68.856258 Z-0.125000 I0.092860 J0.698115
G03 X51.934893 Y69.005327 Z-0.125000 I-0.080276 J0.201156
G03 X51.972110 Y69.247813 Z-0.125000 I-1.316379 J0.326137
G03 X51.953023 Y69.298736 Z-0.125000 I-0.066509 J0.004110
G03 X51.564438 Y69.504245 Z-0.125000 I-0.520250 J-0.513579
G03 X49.339644 Y69.777247 Z-0.125000 I-3.423463 J-18.697240
G03 X48.110452 Y69.777245 Z-0.125000 I-0.614580 J-9.726549
G03 X46.417590 Y69.592605 Z-0.125000 I1.179619 J-18.668056
G02 X44.728061 Y69.331507 Z-0.125000 I-154.482145 J994.035449
G02 X44.396510 Y69.282029 Z-0.125000 I-5.868934 J38.192035
G02 X44.084986 Y69.284167 Z-0.125000 I-0.148723 J1.026912
G02 X43.975338 Y69.348979 Z-0.125000 I0.027191 J0.171157
G02 X42.434806 Y72.351134 Z-0.125000 I7.173267 J5.577238
G02 X41.820915 Y76.639314 Z-0.125000 I14.361040 J4.243943
G02 X41.931648 Y77.124710 Z-0.125000 I1.134245 J-0.003425
G02 X43.114255 Y79.347298 Z-0.125000 I26.166441 J-12.496875
G02 X46.077701 Y83.794298 Z-0.125000 I41.575400 J-24.494614
G02 X47.019309 Y84.557159 Z-0.125000 I1.985617 J-1.488321
G02 X49.144895 Y84.822062 Z-0.125000 I1.475923 J-3.182512
G02 X50.973545 Y83.811987 Z-0.125000 I-0.617936 J-3.279060
G02 X52.137392 Y82.302062 Z-0.125000 I-7.684782 J-7.126920
G02 X54.708802 Y77.927720 Z-0.125000 I-62.685799 J-39.792137
G02 X55.127760 Y76.817129 Z-0.125000 I-3.832668 J-2.080149
G02 X55.136381 Y76.052742 Z-0.125000 I-1.763393 J-0.402132
G02 X55.061661 Y75.757509 Z-0.125000 I-3.226791 J0.659595
G02 X54.359390 Y73.487720 Z-0.125000 I-191.951940 J58.146219
G03 X53.648470 Y71.219935 Z-0.125000 I515.723816 J-162.917666
G03 X53.364346 Y70.288989 Z-0.125000 I86.607783 J-26.941507
G02 X53.015864 Y69.388300 Z-0.125000 I-5.912982 J1.770009
G02 X52.409500 Y68.299532 Z-0.125000 I-9.265945 J4.447218
G03 X51.784651 Y67.215193 Z-0.125000 I11.455963 J-7.323683
G03 X50.932394 Y65.439514 Z-0.125000 I29.923006 J-15.454254
G02 X50.107262 Y63.656206 Z-0.125000 I-59.377171 J26.391111
G02 X50.032094 Y63.568512 Z-0.125000 I-0.202304 J0.097346
G02 X49.190717 Y63.312433 Z-0.125000 I-0.825222 J1.201103
G02 X47.269994 Y63.599172 Z-0.125000 I0.078756 J7.103913
G01 X47.269993 Y63.599173 Z-0.125000
G00 Z5.000000

(End cutting path id: path1)


(Start cutting path id: path1)
(Change tool to Default tool)

G00 Z5.000000
G00 X50.777602 Y63.358970

G01 Z-0.125000 F100.0(Penetrate)
G03 X51.044142 Y63.838444 Z-0.125000 I-3.466788 J2.241013 F400.000000
G03 X51.628684 Y65.162720 Z-0.125000 I-25.993115 J12.264635
G02 X52.568608 Y67.227764 Z-0.125000 I28.639840 J-11.789261
G02 X53.144226 Y68.192852 Z-0.125000 I6.794537 J-3.398335
G03 X53.787724 Y69.340093 Z-0.125000 I-5.358614 J3.759787
G03 X54.361839 Y70.990219 Z-0.125000 I-10.588978 J4.609076
G02 X54.669009 Y72.046021 Z-0.125000 I22.135157 J-5.867304
G02 X55.051281 Y73.163969 Z-0.125000 I25.200366 J-7.992711
G03 X55.712753 Y75.289767 Z-0.125000 I-20.842915 J7.651378
G03 X55.821601 Y76.161891 Z-0.125000 I-3.351321 J0.861126
G03 X55.672538 Y77.188121 Z-0.125000 I-3.689509 J-0.011972
G03 X55.060733 Y78.756350 Z-0.125000 I-9.325113 J-2.734502
G03 X53.132795 Y82.159192 Z-0.125000 I-30.892621 J-15.255168
G03 X51.493816 Y84.293628 Z-0.125000 I-13.713361 J-8.833656
G03 X50.231733 Y85.163221 Z-0.125000 I-2.487532 J-2.259620
G03 X48.380844 Y85.512718 Z-0.125000 I-1.850889 J-4.726287
G03 X45.982459 Y84.447754 Z-0.125000 I0.000000 J-3.233162
G03 X41.198452 Y77.567808 Z-0.125000 I24.456248 J-22.109045
G03 X40.984541 Y77.057936 Z-0.125000 I2.959975 J-1.541629
G03 X40.938737 Y76.768871 Z-0.125000 I0.889220 J-0.289065
G03 X41.237303 Y74.775661 Z-0.125000 I6.802566 J-0.000000
G03 X43.191563 Y69.417720 Z-0.125000 I52.080930 J15.960675
G03 X45.532507 Y64.369142 Z-0.125000 I79.893867 J33.978476
G03 X46.439242 Y62.964077 Z-0.125000 I7.002758 J3.524007
G03 X46.560524 Y62.902805 Z-0.125000 I0.128678 J0.104038
G03 X48.506396 Y62.871577 Z-0.125000 I1.517442 J33.913048
G01 X50.478629 Y62.896467 Z-0.125000
G01 X50.777602 Y63.358970 Z-0.125000
G00 Z5.000000

(End cutting path id: path1)


(Start cutting path id: path1)
(Change tool to Default tool)

G00 Z5.000000
G00 X50.709355 Y65.547282

G01 Z-0.125000 F100.0(Penetrate)
G02 X51.539096 Y67.285094 Z-0.125000 I27.964180 J-12.284880 F400.000000
G02 X52.143765 Y68.322922 Z-0.125000 I10.556378 J-5.455386
G03 X52.719680 Y69.370418 Z-0.125000 I-6.643262 J4.334542
G03 X53.222851 Y70.692865 Z-0.125000 I-10.114710 J4.605444
G02 X53.649068 Y72.052270 Z-0.125000 I172.159890 J-53.231083
G02 X54.276753 Y74.008285 Z-0.125000 I357.040749 J-113.495671
G03 X54.861724 Y75.970196 Z-0.125000 I-41.460969 J13.430332
G03 X54.909808 Y76.329209 Z-0.125000 I-1.316226 J0.359013
G03 X54.784181 Y77.089434 Z-0.125000 I-2.363038 J-0.000000
G03 X54.262795 Y78.233423 Z-0.125000 I-5.956161 J-2.023779
G03 X51.561722 Y82.622741 Z-0.125000 I-93.085748 J-54.256829
G03 X50.722375 Y83.689863 Z-0.125000 I-6.271961 J-4.069565
G03 X48.996027 Y84.596214 Z-0.125000 I-2.186483 J-2.067361
G03 X46.976275 Y84.269513 Z-0.125000 I-0.506658 J-3.274374
G03 X46.201876 Y83.607215 Z-0.125000 I1.006467 J-1.960706
G03 X43.467890 Y79.457496 Z-0.125000 I42.354661 J-30.880285
G03 X42.165301 Y77.126370 Z-0.125000 I44.900787 J-26.619213
G03 X42.057760 Y76.774996 Z-0.125000 I0.874890 J-0.459910
G03 X42.108204 Y76.030335 Z-0.125000 I2.098786 J-0.231865
G03 X42.984548 Y72.837212 Z-0.125000 I71.235247 J17.833514
G03 X44.021066 Y69.657139 Z-0.125000 I64.922760 J19.402055
G03 X44.228827 Y69.510219 Z-0.125000 I0.207761 J0.073438
G03 X44.304196 Y69.516031 Z-0.125000 I-0.000000 J0.491574
G03 X46.068807 Y69.795701 Z-0.125000 I-42.113683 J271.428329
G02 X47.837254 Y70.007360 Z-0.125000 I3.444394 J-21.284790
G02 X49.043519 Y70.027621 Z-0.125000 I0.768965 J-9.863088
G02 X51.988172 Y69.623542 Z-0.125000 I-0.713758 J-16.132744
G02 X52.261696 Y69.279096 Z-0.125000 I-0.080117 J-0.344446
G02 X52.139898 Y68.794514 Z-0.125000 I-1.024869 J0.000000
G02 X51.876989 Y68.562152 Z-0.125000 I-0.445336 J0.238964
G02 X51.756475 Y68.542487 Z-0.125000 I-0.106936 J0.276229
G02 X51.211584 Y68.592692 Z-0.125000 I0.272609 J5.940740
G03 X48.888464 Y68.803301 Z-0.125000 I-3.378464 J-24.348255
G03 X47.118274 Y68.768592 Z-0.125000 I-0.608011 J-14.148989
G03 X44.905114 Y68.454732 Z-0.125000 I1.562777 J-18.979710
G03 X44.773933 Y68.294357 Z-0.125000 I0.032442 J-0.160375
G03 X45.331978 Y66.142892 Z-0.125000 I4.426358 J0.000000
G03 X47.223056 Y63.890850 Z-0.125000 I6.771542 J3.766172
G03 X47.383789 Y63.826615 Z-0.125000 I0.183779 J0.226646
G03 X48.649410 Y63.777855 Z-0.125000 I1.233616 J15.570306
G01 X49.933184 Y63.780455 Z-0.125000
G01 X50.709355 Y65.547282 Z-0.125000
G00 Z5.000000

(End cutting path id: path1)


(Start cutting path id: path1)
(Change tool to Default tool)

G00 Z5.000000
G00 X55.593355 Y59.829031

G01 Z-0.125000 F100.0(Penetrate)
G03 X53.856294 Y61.521814 Z-0.125000 I-419.799757 J-429.042839 F400.000000
G03 X53.197667 Y62.154232 Z-0.125000 I-59.231258 J-61.026762
G02 X52.568940 Y62.797716 Z-0.125000 I8.316066 J8.754241
G02 X52.534091 Y62.886047 Z-0.125000 I0.099643 J0.090352
G02 X52.554747 Y62.984097 Z-0.125000 I0.226850 J0.003410
G02 X53.652690 Y65.323151 Z-0.125000 I137.114684 J-62.933882
G02 X54.818440 Y67.585550 Z-0.125000 I40.457926 J-19.415282
G02 X54.941265 Y67.658776 Z-0.125000 I0.124038 J-0.068433
G02 X55.602896 Y67.504626 Z-0.125000 I0.012173 J-1.444729
G02 X58.334091 Y65.951305 Z-0.125000 I-13.884694 J-27.591153
G02 X59.937537 Y64.808514 Z-0.125000 I-10.346734 J-16.213755
G02 X61.428327 Y63.497800 Z-0.125000 I-12.145600 J-15.317418
G02 X63.458963 Y61.261638 Z-0.125000 I-17.133737 J-17.599052
G02 X63.565806 Y60.831416 Z-0.125000 I-0.412762 J-0.330885
G02 X63.488422 Y60.732047 Z-0.125000 I-0.135847 J0.025976
G02 X60.525631 Y59.413418 Z-0.125000 I-38.761016 J83.103232
G02 X57.508691 Y58.152525 Z-0.125000 I-123.135662 J290.387126
G02 X57.419639 Y58.134176 Z-0.125000 I-0.092886 J0.225527
G02 X57.339792 Y58.164797 Z-0.125000 I-0.001801 J0.114718
G02 X55.593355 Y59.829031 Z-0.125000 I62.124663 J66.941708
G01 X55.593355 Y59.829031 Z-0.125000
G00 Z5.000000

(End cutting path id: path1)


(Start cutting path id: path1)
(Change tool to Default tool)

G00 Z5.000000
G00 X60.479973 Y59.658087

G01 Z-0.125000 F100.0(Penetrate)
G03 X63.260492 Y60.842575 Z-0.125000 I-216.248756 J511.487767 F400.000000
G03 X63.299963 Y60.868465 Z-0.125000 I-0.053437 J0.124499
G03 X63.312701 Y61.060199 Z-0.125000 I-0.096802 J0.102722
G03 X61.461009 Y63.131510 Z-0.125000 I-22.900936 J-18.609444
G03 X59.951326 Y64.485833 Z-0.125000 I-11.485199 J-11.284119
G03 X58.010850 Y65.854719 Z-0.125000 I-13.676247 J-17.327071
G03 X55.790071 Y67.104179 Z-0.125000 I-14.097245 J-22.457992
G03 X55.104120 Y67.310871 Z-0.125000 I-0.938786 J-1.873977
G03 X54.949736 Y67.233960 Z-0.125000 I-0.018898 J-0.155468
G03 X53.837015 Y65.125546 Z-0.125000 I25.885142 J-15.008784
G01 X52.780569 Y62.914622 Z-0.125000
G01 X53.548417 Y62.169084 Z-0.125000
G02 X54.314914 Y61.422162 Z-0.125000 I-206.061309 J-212.228400
G02 X55.858798 Y59.909544 Z-0.125000 I-843.814908 J-862.800915
G03 X57.419230 Y58.466523 Z-0.125000 I25.034713 J25.506444
G03 X57.548111 Y58.438071 Z-0.125000 I0.090524 J0.103925
G03 X57.692024 Y58.488682 Z-0.125000 I-0.378170 J1.305245
G03 X60.479973 Y59.658087 Z-0.125000 I-205.093345 J492.865939
G01 X60.479973 Y59.658087 Z-0.125000
G00 Z5.000000

(End cutting path id: path1)


(Start cutting path id: path1)
(Change tool to Default tool)

G00 Z5.000000
G00 X55.127769 Y53.954422

G01 Z-0.125000 F100.0(Penetrate)
G01 X56.184700 Y55.973623 Z-0.125000 F400.000000
G01 X55.947805 Y56.594565 Z-0.125000
G03 X55.630528 Y57.162970 Z-0.125000 I-2.109780 J-0.804900
G03 X54.739646 Y58.171510 Z-0.125000 I-7.659912 J-5.868553
G03 X52.367282 Y60.393539 Z-0.125000 I-45.991559 J-46.725747
G03 X51.297194 Y61.239207 Z-0.125000 I-7.679849 J-8.618030
G03 X50.446369 Y61.576373 Z-0.125000 I-1.137778 J-1.629041
G03 X48.002711 Y61.720013 Z-0.125000 I-2.052880 J-14.066357
G03 X46.464884 Y61.580986 Z-0.125000 I0.338890 J-12.323318
G03 X45.976792 Y61.407970 Z-0.125000 I0.211094 J-1.370494
G03 X45.544941 Y61.099901 Z-0.125000 I1.469230 J-2.516281
G03 X43.354290 Y59.150221 Z-0.125000 I58.100681 J-67.487205
G02 X41.190463 Y57.163707 Z-0.125000 I-967.524998 J1051.713176
G02 X40.860156 Y56.865185 Z-0.125000 I-22.185359 J24.215503
G01 X40.527823 Y56.568899 Z-0.125000
G01 X41.567712 Y54.506435 Z-0.125000
G03 X42.826443 Y52.243583 Z-0.125000 I28.457650 J14.348295
G03 X43.084620 Y52.022666 Z-0.125000 I0.468370 J0.286047
G03 X43.274531 Y51.983409 Z-0.125000 I0.197440 J0.476161
G03 X48.669044 Y51.941086 Z-0.125000 I5.826868 J398.877367
G01 X54.070839 Y51.935186 Z-0.125000
G01 X55.127769 Y53.954422 Z-0.125000
G00 Z5.000000

(End cutting path id: path1)


(Start cutting path id: path1)
(Change tool to Default tool)

G00 Z5.000000
G00 X53.466231 Y53.022096

G01 Z-0.125000 F100.0(Penetrate)
G03 X53.586797 Y53.195148 Z-0.125000 I-0.856325 J0.725130 F400.000000
G03 X54.306860 Y54.509563 Z-0.125000 I-49.338199 J27.882901
G03 X54.897639 Y55.845664 Z-0.125000 I-9.015728 J4.785118
G03 X54.904644 Y56.174563 Z-0.125000 I-0.487144 J0.174899
G03 X54.558628 Y56.820904 Z-0.125000 I-1.858699 J-0.579258
G03 X53.420382 Y58.006500 Z-0.125000 I-7.602362 J-6.159547
G02 X52.497092 Y58.833080 Z-0.125000 I48.146696 J54.708826
G02 X51.749382 Y59.528261 Z-0.125000 I33.308001 J36.574495
G03 X50.441466 Y60.388194 Z-0.125000 I-3.047895 J-3.211097
G03 X48.987942 Y60.708515 Z-0.125000 I-1.573241 J-3.680914
G03 X46.971073 Y60.610150 Z-0.125000 I-0.384337 J-12.845694
G03 X46.335761 Y60.368859 Z-0.125000 I0.184919 J-1.443909
G03 X45.989376 Y60.100789 Z-0.125000 I2.055848 J-3.014276
G03 X43.990920 Y58.317721 Z-0.125000 I89.827016 J-102.689253
G03 X41.789694 Y56.275360 Z-0.125000 I104.586735 J-114.929409
G03 X41.759370 Y56.206738 Z-0.125000 I0.066661 J-0.070468
G03 X41.772383 Y56.147198 Z-0.125000 I0.131280 J-0.002499
G03 X42.558369 Y54.550132 Z-0.125000 I100.875717 J48.653377
G01 X43.358563 Y52.956293 Z-0.125000
G01 X48.061244 Y52.930533 Z-0.125000
G02 X52.763514 Y52.894994 Z-0.125000 I-6.195237 J-1130.827119
G02 X53.046543 Y52.882493 Z-0.125000 I-0.039569 J-4.105951
G03 X53.306680 Y52.914188 Z-0.125000 I0.051853 J0.657804
G03 X53.466231 Y53.022094 Z-0.125000 I-0.112550 J0.338327
G01 X53.466231 Y53.022096 Z-0.125000
G00 Z5.000000

(End cutting path id: path1)


(Start cutting path id: path1)
(Change tool to Default tool)

G00 Z5.000000
G00 X59.977746 Y44.936343

G01 Z-0.125000 F100.0(Penetrate)
G02 X59.225107 Y45.250473 Z-0.125000 I0.763562 J2.888164 F400.000000
G02 X58.590596 Y45.753427 Z-0.125000 I1.494356 J2.536948
G02 X58.218107 Y46.201633 Z-0.125000 I3.046505 J2.910730
G02 X56.136858 Y49.160221 Z-0.125000 I131.720632 J94.871572
G02 X55.682084 Y49.866833 Z-0.125000 I11.530041 J7.920359
G02 X55.366508 Y50.440068 Z-0.125000 I7.267717 J4.374492
G02 X55.134614 Y51.538056 Z-0.125000 I1.977080 J0.991040
G02 X55.491712 Y53.026095 Z-0.125000 I4.107597 J-0.198871
G02 X56.891614 Y55.357269 Z-0.125000 I10.521546 J-4.732416
G02 X58.303127 Y56.656645 Z-0.125000 I4.540699 J-3.516213
G02 X59.467368 Y57.303007 Z-0.125000 I5.229657 J-8.048060
G02 X61.848627 Y58.314481 Z-0.125000 I15.345644 J-32.818660
G03 X63.338546 Y58.909233 Z-0.125000 I-20.733235 J54.102601
G03 X63.854210 Y59.147449 Z-0.125000 I-2.786284 J6.708681
G02 X65.558077 Y59.824607 Z-0.125000 I4.459445 J-8.738647
G02 X65.865879 Y59.736174 Z-0.125000 I0.084070 J-0.287269
G02 X65.920969 Y59.650402 Z-0.125000 I-0.245929 J-0.218533
G02 X67.052831 Y57.044887 Z-0.125000 I-233.653129 J-103.049913
G02 X68.110595 Y54.426202 Z-0.125000 I-63.766473 J-27.280141
G02 X68.121104 Y54.236862 Z-0.125000 I-0.292249 J-0.111182
G03 X68.177476 Y54.136659 Z-0.125000 I0.080368 J-0.020745
G03 X68.558868 Y54.104664 Z-0.125000 I0.265904 J0.880507
G02 X70.008731 Y54.116459 Z-0.125000 I0.774784 J-6.121984
G02 X72.307672 Y53.692065 Z-0.125000 I-1.754924 J-15.945289
G02 X75.359114 Y52.535536 Z-0.125000 I-3.868024 J-14.809379
G02 X80.396016 Y49.592772 Z-0.125000 I-22.112299 J-43.629941
G01 X80.633850 Y49.434073 Z-0.125000
G01 X80.690110 Y50.060273 Z-0.125000
G03 X80.554279 Y55.564964 Z-0.125000 I-24.047859 J2.160629
G03 X79.330919 Y59.779220 Z-0.125000 I-15.186502 J-2.123810
G03 X76.474269 Y63.735583 Z-0.125000 I-11.224053 J-5.094720
G03 X72.624759 Y65.978825 Z-0.125000 I-6.975113 J-7.545033
G03 X69.793904 Y66.399040 Z-0.125000 I-2.703274 J-8.465709
G03 X66.369736 Y65.889015 Z-0.125000 I0.186691 J-13.002866
G03 X62.965513 Y64.750338 Z-0.125000 I12.033626 J-41.634105
G03 X62.137072 Y64.275420 Z-0.125000 I1.092498 J-2.865761
G01 X62.134464 Y64.247073 Z-0.125000
G03 X63.643757 Y62.522863 Z-0.125000 I97.315388 J83.662653
G02 X65.143668 Y60.777470 Z-0.125000 I-47.573084 J-42.399307
G02 X65.210397 Y60.631785 Z-0.125000 I-0.237917 J-0.197100
G02 X65.077690 Y60.355574 Z-0.125000 I-0.261829 J-0.044188
G02 X62.715446 Y59.243335 Z-0.125000 I-9.374052 J16.844542
G03 X61.722046 Y58.830255 Z-0.125000 I8.976742 J-22.988875
G03 X60.297342 Y58.175428 Z-0.125000 I21.177065 J-47.952084
G02 X58.264205 Y57.426540 Z-0.125000 I-5.037081 J10.540741
G02 X57.363916 Y57.394901 Z-0.125000 I-0.519286 J1.951617
G02 X56.478049 Y57.796666 Z-0.125000 I0.392445 J2.042840
G02 X53.744850 Y60.213965 Z-0.125000 I17.987285 J23.091759
G02 X51.794416 Y62.686430 Z-0.125000 I9.599751 J9.578425
G02 X51.712513 Y63.517370 Z-0.125000 I0.811961 J0.499538
G02 X53.445300 Y67.434220 Z-0.125000 I32.685943 J-12.118318
G02 X54.361782 Y68.631338 Z-0.125000 I3.835435 J-1.986933
G02 X54.805891 Y68.774195 Z-0.125000 I0.377485 J-0.411771
G02 X56.020690 Y68.432066 Z-0.125000 I-0.487578 J-4.059010
G02 X57.563403 Y67.605385 Z-0.125000 I-5.841289 J-12.753554
G02 X59.425208 Y66.324307 Z-0.125000 I-12.311125 J-19.885319
G03 X61.167410 Y65.565274 Z-0.125000 I2.421000 J3.177955
G03 X62.645596 Y65.769062 Z-0.125000 I0.418505 J2.427302
G02 X64.522459 Y66.553815 Z-0.125000 I8.987675 J-18.858689
G02 X66.331507 Y67.103339 Z-0.125000 I6.141955 J-16.966998
G02 X72.769390 Y67.101292 Z-0.125000 I3.214809 J-12.996362
G02 X77.667473 Y64.291597 Z-0.125000 I-2.479584 J-9.996819
G02 X80.215911 Y60.602436 Z-0.125000 I-9.615236 J-9.366913
G02 X81.708092 Y55.635216 Z-0.125000 I-16.275051 J-7.596858
G02 X82.055514 Y50.491284 Z-0.125000 I-32.109634 J-4.752389
G02 X81.620362 Y48.362496 Z-0.125000 I-5.764865 J0.069544
G02 X81.158223 Y48.077674 Z-0.125000 I-0.427520 J0.176339
G02 X79.503447 Y48.521412 Z-0.125000 I0.344809 J4.593193
G02 X78.675611 Y48.961762 Z-0.125000 I5.113999 J10.612391
G02 X75.649528 Y50.772617 Z-0.125000 I84.046002 J143.881378
G03 X72.782430 Y52.218032 Z-0.125000 I-10.133248 J-16.533846
G03 X70.709286 Y52.769170 Z-0.125000 I-3.243284 J-8.025138
G03 X69.137063 Y52.845051 Z-0.125000 I-1.219230 J-8.936136
G03 X68.626710 Y52.687600 Z-0.125000 I0.040641 J-1.037572
G03 X68.583197 Y52.599190 Z-0.125000 I0.049679 J-0.079363
G03 X68.700030 Y51.932256 Z-0.125000 I4.400318 J0.427141
G02 X69.133811 Y49.681535 Z-0.125000 I-18.618662 J-4.755537
G02 X69.283365 Y47.495220 Z-0.125000 I-17.414886 J-2.289527
G02 X69.262410 Y46.063840 Z-0.125000 I-34.964473 J-0.203962
G02 X69.217455 Y45.620343 Z-0.125000 I-3.382156 J0.118801
G02 X68.808178 Y45.211924 Z-0.125000 I-0.490989 J0.082743
G02 X64.559782 Y44.845474 Z-0.125000 I-4.444253 J26.714052
G02 X60.441363 Y44.871414 Z-0.125000 I-1.100696 J152.194279
G02 X59.977748 Y44.936344 Z-0.125000 I0.038989 J1.966006
G01 X59.977746 Y44.936343 Z-0.125000
G00 Z5.000000

(End cutting path id: path1)


(Start cutting path id: path1)
(Change tool to Default tool)

G00 Z5.000000
G00 X55.970573 Y41.459597

G01 Z-0.125000 F100.0(Penetrate)
G03 X57.769855 Y44.225005 Z-0.125000 I-156.562469 J103.833703 F400.000000
G03 X57.911561 Y44.500887 Z-0.125000 I-1.399537 J0.893200
G03 X57.921628 Y44.780881 Z-0.125000 I-0.384499 J0.154002
G03 X57.601426 Y45.472137 Z-0.125000 I-2.917235 J-0.931525
G03 X54.357561 Y50.439952 Z-0.125000 I-126.031753 J-78.752734
G03 X54.018610 Y50.726836 Z-0.125000 I-0.687816 J-0.468974
G03 X49.806979 Y51.652669 Z-0.125000 I-4.215242 J-9.132907
G03 X43.117742 Y50.730736 Z-0.125000 I-0.008854 J-24.664162
G03 X42.656423 Y50.442875 Z-0.125000 I0.263178 J-0.935340
G03 X41.259513 Y48.651471 Z-0.125000 I12.644619 J-11.300436
G02 X40.432538 Y47.457908 Z-0.125000 I-56.419452 J38.207667
G02 X39.504870 Y46.175790 Z-0.125000 I-66.026504 J46.796358
G03 X38.576808 Y44.898578 Z-0.125000 I81.904636 J-60.490244
G03 X38.564568 Y44.860408 Z-0.125000 I0.053396 J-0.038170
G03 X38.576037 Y44.821640 Z-0.125000 I0.071256 J-0.000000
G03 X40.573047 Y41.762965 Z-0.125000 I488.131790 J316.520126
G01 X42.581526 Y38.707722 Z-0.125000
G01 X48.363516 Y38.707722 Z-0.125000
G01 X54.145505 Y38.707722 Z-0.125000
G01 X55.970573 Y41.459597 Z-0.125000
G00 Z5.000000

(End cutting path id: path1)


(Start cutting path id: path1)
(Change tool to Default tool)

G00 Z5.000000
G00 X55.209767 Y42.171658

G01 Z-0.125000 F100.0(Penetrate)
G03 X56.891324 Y44.626717 Z-0.125000 I-132.490084 J92.550587 F400.000000
G03 X56.918721 Y44.716661 Z-0.125000 I-0.133946 J0.089944
G03 X56.892060 Y44.806962 Z-0.125000 I-0.166254 J0.000000
G03 X55.793669 Y46.455849 Z-0.125000 I-61.808817 J-39.983084
G02 X54.673157 Y48.099532 Z-0.125000 I298.039293 J204.379549
G02 X54.102001 Y48.952096 Z-0.125000 I79.622061 J53.958611
G01 X53.535385 Y49.807722 Z-0.125000
G01 X48.401317 Y49.805422 Z-0.125000
G01 X43.267249 Y49.803122 Z-0.125000
G01 X41.577936 Y47.385693 Z-0.125000
G03 X39.892478 Y44.965778 Z-0.125000 I777.696968 J-543.458913
G03 X39.822890 Y44.857497 Z-0.125000 I1.484510 J-1.030531
G03 X39.822005 Y44.748785 Z-0.125000 I0.092852 J-0.055116
G03 X40.553403 Y43.579849 Z-0.125000 I15.080479 J8.622506
G02 X41.348375 Y42.412104 Z-0.125000 I-534.542516 J-364.757854
G02 X42.258613 Y41.069156 Z-0.125000 I-705.791596 J-479.359094
G01 X43.167575 Y39.725343 Z-0.125000
G01 X48.334195 Y39.725343 Z-0.125000
G01 X53.500814 Y39.725343 Z-0.125000
G01 X55.209767 Y42.171658 Z-0.125000
G00 Z5.000000

(End cutting path id: path1)


(Start cutting path id: path1)
(Change tool to Default tool)

G00 Z5.000000
G00 X61.484430 Y31.642927

G01 Z-0.125000 F100.0(Penetrate)
G02 X58.334992 Y32.985609 Z-0.125000 I1049.630590 J2466.413192 F400.000000
G02 X58.242776 Y33.027370 Z-0.125000 I0.920236 J2.154720
G02 X56.501744 Y34.735697 Z-0.125000 I1.630430 J3.402990
G02 X55.819112 Y37.849055 Z-0.125000 I5.757135 J2.893819
G02 X55.860827 Y37.978420 Z-0.125000 I0.247472 J-0.008392
G02 X58.419572 Y41.733192 Z-0.125000 I230.047757 J-154.020185
G03 X58.880507 Y42.400919 Z-0.125000 I-151.847525 J105.313846
G03 X59.229880 Y42.912567 Z-0.125000 I-88.737728 J60.968766
G01 X59.577786 Y43.425222 Z-0.125000
G01 X63.955390 Y43.425222 Z-0.125000
G02 X68.260224 Y43.352449 Z-0.125000 I-0.000000 J-127.361703
G02 X68.332994 Y43.277177 Z-0.125000 I-0.002546 J-0.075272
G02 X68.270866 Y42.611700 Z-0.125000 I-3.595149 J0.000000
G02 X67.505910 Y38.886176 Z-0.125000 I-114.400397 J21.548355
G02 X66.713802 Y35.713212 Z-0.125000 I-61.891339 J13.765378
G02 X65.667807 Y32.255848 Z-0.125000 I-74.538823 J20.664156
G02 X64.959840 Y30.379842 Z-0.125000 I-21.796689 J7.154036
G02 X64.828713 Y30.296231 Z-0.125000 I-0.126855 J0.054318
G02 X64.642070 Y30.335403 Z-0.125000 I0.016845 J0.544495
G02 X61.484430 Y31.642927 Z-0.125000 I65.363602 J162.318166
G01 X61.484430 Y31.642927 Z-0.125000
G00 Z5.000000

(End cutting path id: path1)


(Start cutting path id: path1)
(Change tool to Default tool)

G00 Z5.000000
G00 X64.589113 Y29.246694

G01 Z-0.125000 F100.0(Penetrate)
G02 X60.298215 Y30.971087 Z-0.125000 I133.246770 J337.765815 F400.000000
G02 X58.743365 Y31.639286 Z-0.125000 I18.420759 J45.006858
G01 X57.417672 Y32.236543 Z-0.125000
G01 X56.026769 Y35.056279 Z-0.125000
G02 X54.656840 Y37.880907 Z-0.125000 I210.694650 J103.930267
G02 X54.635865 Y37.973639 Z-0.125000 I0.194501 J0.092732
G02 X54.662105 Y38.062905 Z-0.125000 I0.164955 J0.000000
G02 X55.305266 Y39.013868 Z-0.125000 I21.124148 J-13.593828
G03 X55.963235 Y39.964293 Z-0.125000 I-39.329472 J27.930319
G03 X57.349718 Y42.043990 Z-0.125000 I-186.968612 J126.149440
G02 X58.740173 Y44.119033 Z-0.125000 I132.057183 J-86.986121
G02 X58.879124 Y44.287869 Z-0.125000 I1.001344 J-0.682507
G02 X59.065025 Y44.368280 Z-0.125000 I0.192569 J-0.190100
G02 X64.253952 Y44.420352 Z-0.125000 I4.376539 J-177.556778
G01 X69.474422 Y44.396472 Z-0.125000
G01 X69.452522 Y44.026472 Z-0.125000
G02 X69.265808 Y42.593516 Z-0.125000 I-10.245804 J0.606384
G02 X68.157430 Y37.638355 Z-0.125000 I-124.204986 J25.180821
G02 X66.961743 Y33.265664 Z-0.125000 I-82.078473 J20.094065
G02 X65.802984 Y29.854973 Z-0.125000 I-51.070002 J15.448494
G02 X65.435144 Y29.061476 Z-0.125000 I-5.623355 J2.124800
G02 X65.330390 Y29.003884 Z-0.125000 I-0.098182 J0.054519
G02 X65.186767 Y29.031093 Z-0.125000 I0.032698 J0.565254
G02 X64.589114 Y29.246694 Z-0.125000 I3.349806 J10.221936
G01 X64.589113 Y29.246694 Z-0.125000
G00 Z5.000000

(End cutting path id: path1)


(Start cutting path id: path1)
(Change tool to Default tool)

G00 Z5.000000
G00 X65.451395 Y29.598129

G01 Z-0.125000 F100.0(Penetrate)
G03 X66.489312 Y32.483434 Z-0.125000 I-30.890532 J12.741443 F400.000000
G03 X67.820887 Y37.273973 Z-0.125000 I-83.953362 J25.915945
G03 X69.138071 Y43.041006 Z-0.125000 I-157.159095 J38.928915
G03 X69.246136 Y44.085044 Z-0.125000 I-4.989320 J1.044038
G01 X69.206362 Y44.125448 Z-0.125000
G03 X64.147273 Y44.165224 Z-0.125000 I-5.059089 J-321.715398
G01 X59.048411 Y44.165224 Z-0.125000
G01 X57.433364 Y41.737099 Z-0.125000
G02 X55.811080 Y39.313932 Z-0.125000 I-403.594491 J268.447489
G02 X55.343637 Y38.635943 Z-0.125000 I-32.057826 J21.602301
G01 X54.868956 Y37.962912 Z-0.125000
G01 X56.235074 Y35.190270 Z-0.125000
G01 X57.601190 Y32.417628 Z-0.125000
G01 X58.972096 Y31.804203 Z-0.125000
G03 X61.753249 Y30.617807 Z-0.125000 I35.230634 J78.734742
G03 X65.045683 Y29.338212 Z-0.125000 I44.287698 J109.077964
G03 X65.252786 Y29.360466 Z-0.125000 I0.081246 J0.218706
G03 X65.451395 Y29.598131 Z-0.125000 I-0.278275 J0.434364
G01 X65.451395 Y29.598129 Z-0.125000
G00 Z5.000000

(End cutting path id: path1)


(Start cutting path id: path1)
(Change tool to Default tool)

G00 Z5.000000
G00 X65.451224 Y32.371473

G01 Z-0.125000 F100.0(Penetrate)
G03 X66.433753 Y35.612457 Z-0.125000 I-75.554357 J24.674294 F400.000000
G03 X67.189393 Y38.578352 Z-0.125000 I-62.511984 J17.505791
G03 X67.989290 Y42.361653 Z-0.125000 I-107.474828 J24.699442
G03 X68.058690 Y43.078347 Z-0.125000 I-3.754350 J0.725252
G03 X67.979512 Y43.160860 Z-0.125000 I-0.082392 J0.000184
G03 X63.911920 Y43.240222 Z-0.125000 I-4.067592 J-104.200044
G01 X59.764788 Y43.240222 Z-0.125000
G01 X57.895427 Y40.534597 Z-0.125000
G01 X56.026067 Y37.828972 Z-0.125000
G01 X56.643836 Y36.626473 Z-0.125000
G02 X57.257619 Y35.421961 Z-0.125000 I-182.046164 J-93.523903
G02 X57.789237 Y34.360223 Z-0.125000 I-140.925228 J-71.225966
G03 X58.320129 Y33.298520 Z-0.125000 I164.752626 J81.719062
G03 X58.341300 Y33.265030 Z-0.125000 I0.182997 J0.092245
G03 X58.371800 Y33.241503 Z-0.125000 I0.060749 J0.047222
G03 X61.317623 Y31.992479 Z-0.125000 I208.541116 J487.745674
G02 X64.267503 Y30.746820 Z-0.125000 I-399.589906 J-950.395974
G02 X64.543455 Y30.624386 Z-0.125000 I-3.577918 J-8.436389
G03 X64.816205 Y30.506991 Z-0.125000 I2.262262 J4.880480
G01 X64.832228 Y30.509437 Z-0.125000
G01 X64.842581 Y30.524440 Z-0.125000
G03 X65.451224 Y32.371473 Z-0.125000 I-346.702266 J115.270755
G01 X65.451224 Y32.371473 Z-0.125000
G00 Z5.000000

(End cutting path id: path1)


(Start cutting path id: path1)
(Change tool to Default tool)

G00 Z5.000000
G00 X68.586517 Y45.153876

G01 Z-0.125000 F100.0(Penetrate)
G03 X68.829922 Y45.393631 Z-0.125000 I-0.077733 J0.322349 F400.000000
G03 X69.045949 Y46.940222 Z-0.125000 I-6.708987 J1.725491
G03 X68.948576 Y49.171940 Z-0.125000 I-16.094682 J0.415751
G03 X68.515723 Y51.611058 Z-0.125000 I-19.672321 J-2.233142
G02 X68.287522 Y52.775621 Z-0.125000 I12.894206 J3.131313
G02 X68.324281 Y52.888395 Z-0.125000 I0.131094 J0.019648
G02 X68.875805 Y53.126507 Z-0.125000 I0.570170 J-0.562862
G02 X71.108412 Y52.953215 Z-0.125000 I0.259108 J-11.130320
G02 X73.106660 Y52.332018 Z-0.125000 I-1.509338 J-8.379746
G02 X76.729811 Y50.411819 Z-0.125000 I-13.468696 J-29.791865
G03 X80.675078 Y48.224381 Z-0.125000 I26.902643 J43.870097
G03 X81.163204 Y48.201994 Z-0.125000 I0.269361 J0.540398
G03 X81.284219 Y48.279958 Z-0.125000 I-0.130289 J0.335134
G03 X81.395624 Y48.429122 Z-0.125000 I-0.420231 J0.430040
G03 X81.545517 Y48.954215 Z-0.125000 I-1.169143 J0.617685
G03 X81.662511 Y52.231112 Z-0.125000 I-47.560344 J3.338563
G03 X81.411550 Y55.781002 Z-0.125000 I-24.776514 J0.032231
G03 X80.736479 Y58.687724 Z-0.125000 I-17.246255 J-2.473602
G03 X78.234897 Y63.319958 Z-0.125000 I-13.891242 J-4.510208
G03 X74.724988 Y66.176846 Z-0.125000 I-8.416772 J-6.756115
G03 X72.471234 Y66.992432 Z-0.125000 I-4.378878 J-8.578643
G03 X69.804889 Y67.289851 Z-0.125000 I-2.662740 J-11.770795
G03 X66.683274 Y66.895873 Z-0.125000 I0.003765 J-12.593601
G03 X62.443229 Y65.403894 Z-0.125000 I6.378512 J-24.897916
G02 X61.053508 Y65.249729 Z-0.125000 I-0.931082 J2.052336
G02 X59.384203 Y66.039738 Z-0.125000 I0.800102 J3.849272
G03 X57.901797 Y67.113204 Z-0.125000 I-10.981276 J-13.604324
G03 X56.445622 Y67.941467 Z-0.125000 I-7.957936 J-12.296716
G03 X54.950611 Y68.521339 Z-0.125000 I-3.962764 J-7.999562
G03 X54.611411 Y68.469051 Z-0.125000 I-0.113046 J-0.393017
G03 X53.967421 Y67.760588 Z-0.125000 I1.082468 J-1.630884
G03 X52.034213 Y63.645413 Z-0.125000 I38.935159 J-20.802452
G03 X51.781733 Y62.825980 Z-0.125000 I4.477016 J-1.828049
G03 X51.812383 Y62.605237 Z-0.125000 I0.319502 J-0.068137
G03 X51.954071 Y62.408742 Z-0.125000 I0.774612 J0.409224
G03 X54.034688 Y60.283111 Z-0.125000 I95.427402 J91.325461
G03 X56.725937 Y57.945614 Z-0.125000 I18.093454 J18.113667
G03 X57.589632 Y57.605808 Z-0.125000 I1.044173 J1.386460
G03 X58.414682 Y57.683088 Z-0.125000 I0.219504 J2.099369
G03 X60.107607 Y58.359850 Z-0.125000 I-2.931349 J9.788596
G02 X61.084491 Y58.825618 Z-0.125000 I9.906139 J-19.519441
G02 X62.169286 Y59.280995 Z-0.125000 I10.552709 J-23.618776
G03 X64.848719 Y60.455473 Z-0.125000 I-13.942113 J35.450919
G03 X64.951628 Y60.630223 Z-0.125000 I-0.079874 J0.164713
G03 X64.928152 Y60.687942 Z-0.125000 I-0.095624 J-0.005258
G03 X62.735565 Y63.168953 Z-0.125000 I-203.699246 J-177.809372
G02 X61.898525 Y64.185029 Z-0.125000 I12.025498 J10.759375
G02 X61.868346 Y64.313806 Z-0.125000 I0.129839 J0.098353
G02 X62.352023 Y64.891738 Z-0.125000 I0.759687 J-0.144427
G02 X67.285597 Y66.383715 Z-0.125000 I12.910518 J-33.788663
G02 X70.005044 Y66.689787 Z-0.125000 I2.741752 J-12.126274
G02 X72.168191 Y66.392515 Z-0.125000 I0.014201 J-7.915537
G02 X74.726296 Y65.285229 Z-0.125000 I-2.842322 J-10.075041
G02 X77.053500 Y63.450557 Z-0.125000 I-6.103745 J-10.135659
G02 X79.237818 Y60.467749 Z-0.125000 I-9.081909 J-8.941900
G02 X80.600158 Y56.745261 Z-0.125000 I-12.951370 J-6.850421
G02 X80.924294 Y54.556448 Z-0.125000 I-15.877591 J-3.469683
G02 X80.991387 Y51.796596 Z-0.125000 I-25.220238 J-1.993852
G02 X80.813539 Y49.261263 Z-0.125000 I-31.962044 J0.968159
G02 X80.700792 Y49.160261 Z-0.125000 I-0.112747 J0.012428
G02 X80.587879 Y49.191399 Z-0.125000 I0.000000 J0.220293
G02 X79.409555 Y49.931054 Z-0.125000 I15.927875 J26.682660
G03 X74.816995 Y52.511984 Z-0.125000 I-20.455899 J-31.023131
G03 X71.606035 Y53.614831 Z-0.125000 I-6.588494 J-13.956718
G03 X68.664208 Y53.960604 Z-0.125000 I-3.133281 J-13.970472
G03 X67.667318 Y53.667501 Z-0.125000 I-0.023560 J-1.761709
G03 X67.474283 Y53.474270 Z-0.125000 I0.378578 J-0.571229
G03 X67.419853 Y53.293282 Z-0.125000 I0.273692 J-0.180988
G03 X67.436849 Y53.084537 Z-0.125000 I1.290385 J-0.000000
G03 X68.013394 Y49.672557 Z-0.125000 I347.601088 J56.981748
G02 X68.597816 Y46.261255 Z-0.125000 I-646.886780 J-112.579883
G02 X68.606937 Y46.152297 Z-0.125000 I-0.646220 J-0.108958
G02 X67.630405 Y45.158870 Z-0.125000 I-0.993573 J0.000000
G02 X60.083062 Y46.006082 Z-0.125000 I-0.506538 J29.528697
G02 X59.752247 Y46.129657 Z-0.125000 I0.361198 J1.471528
G02 X59.517125 Y46.296613 Z-0.125000 I0.461538 J0.899017
G02 X57.115304 Y49.119708 Z-0.125000 I12.164800 J12.782771
G02 X56.091503 Y51.306794 Z-0.125000 I6.182935 J4.227476
G02 X56.101804 Y51.831909 Z-0.125000 I0.867611 J0.245638
G02 X56.722069 Y53.241092 Z-0.125000 I7.367324 J-2.401695
G02 X58.578576 Y55.402617 Z-0.125000 I6.386421 J-3.607190
G02 X61.667058 Y57.124170 Z-0.125000 I6.975781 J-8.883455
G03 X62.986130 Y57.622152 Z-0.125000 I-25.175091 J68.680697
G03 X63.858599 Y57.975749 Z-0.125000 I-11.812147 J30.398555
G02 X64.735724 Y58.305213 Z-0.125000 I4.536521 J-10.745191
G02 X65.093414 Y58.383768 Z-0.125000 I0.559023 J-1.691807
G01 X65.460744 Y58.425538 Z-0.125000
G01 X66.319418 Y56.267271 Z-0.125000
G03 X67.179495 Y54.109678 Z-0.125000 I1613.269251 J641.844265
G03 X67.189472 Y54.088884 Z-0.125000 I0.159110 J0.063549
G03 X67.590295 Y53.952206 Z-0.125000 I0.277175 J0.156777
G03 X67.877813 Y54.378899 Z-0.125000 I-0.182536 J0.433214
G03 X67.552962 Y56.051098 Z-0.125000 I-4.155721 J0.060339
G03 X65.723115 Y59.502603 Z-0.125000 I-20.207807 J-8.502546
G03 X65.583320 Y59.551430 Z-0.125000 I-0.101483 J-0.066018
G03 X64.047213 Y58.943552 Z-0.125000 I4.769410 J-14.297096
G02 X63.442055 Y58.680746 Z-0.125000 I-6.288421 J13.652066
G02 X62.169286 Y58.176550 Z-0.125000 I-24.467713 J59.906619
G03 X58.260456 Y56.239019 Z-0.125000 I8.366666 J-21.790809
G03 X56.709198 Y54.800520 Z-0.125000 I2.886639 J-4.668589
G03 X55.951144 Y53.525123 Z-0.125000 I6.465470 J-4.705845
G03 X55.404343 Y52.052875 Z-0.125000 I8.093841 J-3.843761
G03 X55.327818 Y51.489438 Z-0.125000 I2.069460 J-0.567985
G03 X55.402143 Y51.014169 Z-0.125000 I1.535898 J-0.003255
G03 X55.708626 Y50.338417 Z-0.125000 I3.118011 J1.006778
G03 X57.009801 Y48.327755 Z-0.125000 I29.290063 J17.528342
G02 X57.875398 Y47.074956 Z-0.125000 I-129.097072 J-90.122580
G02 X58.053465 Y46.801506 Z-0.125000 I-5.967887 J-4.080901
G03 X59.159352 Y45.619139 Z-0.125000 I3.509594 J2.174221
G03 X60.437218 Y45.094460 Z-0.125000 I1.750050 J2.443807
G03 X65.183267 Y44.736775 Z-0.125000 I4.535537 J28.515101
G03 X68.586544 Y45.153910 Z-0.125000 I-0.109241 J14.982986
G01 X68.586517 Y45.153876 Z-0.125000
G00 Z5.000000

(End cutting path id: path1)


(Start cutting path id: path1)
(Change tool to Default tool)

G00 Z5.000000
G00 X68.377245 Y46.315847

G01 Z-0.125000 F100.0(Penetrate)
G02 X68.345688 Y46.434043 Z-0.125000 I0.699860 J0.250162 F400.000000
G02 X67.745690 Y49.816245 Z-0.125000 I576.384693 J103.994261
G02 X67.246595 Y53.415752 Z-0.125000 I51.355226 J8.955095
G02 X67.339808 Y53.746107 Z-0.125000 I0.462659 J0.047784
G01 X67.333213 Y53.802864 Z-0.125000
G03 X67.226920 Y53.838607 Z-0.125000 I-0.100328 J-0.122437
G02 X67.094045 Y53.918029 Z-0.125000 I-0.005404 J0.141822
G02 X66.166274 Y56.005221 Z-0.125000 I27.761668 J13.590046
G03 X65.289381 Y58.175785 Z-0.125000 I-413.945877 J-165.968835
G03 X65.268739 Y58.210198 Z-0.125000 I-0.121364 J-0.049401
G01 X65.237069 Y58.218893 Z-0.125000
G03 X64.390877 Y57.898617 Z-0.125000 I7.290339 J-20.539562
G02 X63.536122 Y57.563247 Z-0.125000 I-19.736102 J49.044334
G02 X61.985108 Y56.978723 Z-0.125000 I-61.518531 J160.887194
G03 X59.081174 Y55.597004 Z-0.125000 I6.332795 J-17.051954
G03 X57.897606 Y54.569368 Z-0.125000 I2.194298 J-3.722655
G03 X56.967195 Y53.199553 Z-0.125000 I8.437538 J-6.731866
G03 X56.406253 Y51.963851 Z-0.125000 I6.291700 J-3.601260
G03 X56.404441 Y51.399450 Z-0.125000 I0.825180 J-0.284853
G03 X56.978751 Y50.270222 Z-0.125000 I4.166697 J1.408469
G02 X57.401458 Y49.667559 Z-0.125000 I-89.685815 J-63.355064
G02 X58.363735 Y48.281472 Z-0.125000 I-473.498081 J-329.748403
G03 X59.701032 Y46.496962 Z-0.125000 I24.309805 J16.824228
G03 X59.977746 Y46.288975 Z-0.125000 I0.553556 J0.448405
G03 X60.167822 Y46.248622 Z-0.125000 I0.199963 J0.474050
G03 X64.289475 Y46.206085 Z-0.125000 I4.451096 J231.587932
G03 X68.337335 Y46.257550 Z-0.125000 I0.201858 J143.336778
G01 X68.377245 Y46.315847 Z-0.125000
G01 X68.377245 Y46.315847 Z-0.125000
G00 Z5.000000

(End cutting path id: path1)


(Start cutting path id: path1)
(Change tool to Default tool)

G00 Z5.000000
G00 X50.917745 Y27.733578

G01 Z-0.125000 F100.0(Penetrate)
G03 X54.529724 Y30.240471 Z-0.125000 I-4.312983 J10.069781 F400.000000
G03 X55.412036 Y32.443018 Z-0.125000 I-2.307995 J2.202547
G03 X55.386958 Y32.550317 Z-0.125000 I-0.242085 J0.000000
G03 X54.361923 Y34.566814 Z-0.125000 I-91.447749 J-45.216370
G01 X53.311810 Y36.577156 Z-0.125000
G01 X48.377231 Y36.578656 Z-0.125000
G01 X43.442652 Y36.580156 Z-0.125000
G01 X43.086292 Y35.909531 Z-0.125000
G02 X42.726694 Y35.240656 Z-0.125000 I-69.173980 J36.757984
G02 X41.925649 Y33.775527 Z-0.125000 I-332.863290 J181.038135
G03 X41.127541 Y32.310564 Z-0.125000 I197.499419 J-108.547029
G03 X41.121365 Y32.286129 Z-0.125000 I0.045249 J-0.024435
G01 X41.130586 Y32.263980 Z-0.125000
G03 X43.490560 Y29.933884 Z-0.125000 I420.110885 J423.137667
G01 X45.859754 Y27.607657 Z-0.125000
G01 X48.241830 Y27.607657 Z-0.125000
G03 X50.612477 Y27.663376 Z-0.125000 I0.000000 J50.459612
G03 X50.917745 Y27.733511 Z-0.125000 I-0.041363 J0.879449
G01 X50.917745 Y27.733578 Z-0.125000
G00 Z5.000000

(End cutting path id: path1)


(Start cutting path id: path1)
(Change tool to Default tool)

G00 Z5.000000
G00 X51.677282 Y27.042983

G01 Z-0.125000 F100.0(Penetrate)
G03 X55.373789 Y30.392507 Z-0.125000 I-16.403720 J21.817490 F400.000000
G03 X56.245314 Y32.014754 Z-0.125000 I-2.739354 J2.516902
G03 X56.232451 Y32.475579 Z-0.125000 I-0.836436 J0.207244
G03 X55.541900 Y34.299287 Z-0.125000 I-14.736713 J-4.537490
G03 X54.235881 Y36.849366 Z-0.125000 I-27.154965 J-12.297891
G03 X53.784517 Y37.358728 Z-0.125000 I-1.458555 J-0.837813
G03 X53.496437 Y37.461027 Z-0.125000 I-0.308944 J-0.413228
G03 X48.526743 Y37.571511 Z-0.125000 I-5.516419 J-136.308664
G03 X43.532523 Y37.549020 Z-0.125000 I-1.175660 J-293.441903
G03 X43.207603 Y37.502281 Z-0.125000 I0.016494 J-1.267429
G03 X42.811032 Y37.229609 Z-0.125000 I0.200254 J-0.715966
G03 X41.766993 Y35.562728 Z-0.125000 I9.968181 J-7.403905
G03 X40.306657 Y32.483623 Z-0.125000 I40.385772 J-21.039733
G03 X40.290959 Y32.123744 Z-0.125000 I0.467552 J-0.200677
G03 X41.171571 Y30.626872 Z-0.125000 I3.891901 J1.282141
G03 X44.896276 Y27.133509 Z-0.125000 I26.035194 J24.026970
G01 X45.338218 Y26.775229 Z-0.125000
G01 X48.329685 Y26.775229 Z-0.125000
G01 X51.321154 Y26.775229 Z-0.125000
G01 X51.677282 Y27.042983 Z-0.125000
G00 Z5.000000

(End cutting path id: path1)


(Start cutting path id: path1)
(Change tool to Default tool)

G00 Z5.000000
G00 X54.285417 Y23.103871

G01 Z-0.125000 F100.0(Penetrate)
G02 X53.278900 Y25.724911 Z-0.125000 I288.148825 J112.156999 F400.000000
G02 X53.266153 Y25.794547 Z-0.125000 I0.183826 J0.069636
G02 X53.290330 Y25.856937 Z-0.125000 I0.092591 J0.000000
G02 X54.948207 Y27.639025 Z-0.125000 I90.548729 J-82.575349
G03 X56.619253 Y29.420909 Z-0.125000 I-149.456041 J141.833966
G03 X56.828212 Y29.667696 Z-0.125000 I-2.648247 J2.454177
G02 X57.302678 Y30.064078 Z-0.125000 I1.136011 J-0.877639
G02 X57.850156 Y30.198349 Z-0.125000 I0.549959 J-1.059125
G02 X60.191475 Y29.736129 Z-0.125000 I0.012652 J-6.096860
G02 X63.285967 Y27.951852 Z-0.125000 I-5.216930 J-12.623326
G02 X63.320775 Y27.802074 Z-0.125000 I-0.073652 J-0.096050
G02 X62.771828 Y26.913974 Z-0.125000 I-5.000076 J2.476908
G02 X61.040257 Y24.947968 Z-0.125000 I-13.990089 J10.576306
G02 X57.740548 Y21.996535 Z-0.125000 I-35.004870 J35.815261
G02 X55.850699 Y20.602728 Z-0.125000 I-14.854628 J18.163125
G02 X55.460787 Y20.485224 Z-0.125000 I-0.389912 J0.588168
G02 X55.352579 Y20.555263 Z-0.125000 I0.000000 J0.118608
G02 X54.285417 Y23.103871 Z-0.125000 I49.720964 J22.317072
G01 X54.285417 Y23.103871 Z-0.125000
G00 Z5.000000

(End cutting path id: path1)


(Start cutting path id: path1)
(Change tool to Default tool)

G00 Z5.000000
G00 X56.419489 Y21.319773

G01 Z-0.125000 F100.0(Penetrate)
G03 X58.213721 Y22.708827 Z-0.125000 I-10.822552 J15.832742 F400.000000
G03 X60.802648 Y25.148529 Z-0.125000 I-31.009999 J35.500230
G03 X62.993383 Y27.578630 Z-0.125000 I-26.705061 J26.277122
G03 X62.982508 Y27.789899 Z-0.125000 I-0.120803 J0.099696
G03 X62.888365 Y27.854446 Z-0.125000 I-0.227533 J-0.230934
G03 X60.409307 Y28.951529 Z-0.125000 I-75.242883 J-166.675405
G03 X57.913046 Y29.959817 Z-0.125000 I-21.138023 J-48.738119
G03 X57.685321 Y29.972305 Z-0.125000 I-0.133783 J-0.357005
G03 X57.425540 Y29.826724 Z-0.125000 I0.141730 J-0.557482
G03 X55.140410 Y27.491589 Z-0.125000 I48.332775 J-49.583439
G01 X53.521018 Y25.756704 Z-0.125000
G01 X54.409723 Y23.469345 Z-0.125000
G03 X55.510133 Y20.843523 Z-0.125000 I50.533989 J19.633920
G03 X55.610644 Y20.802386 Z-0.125000 I0.071930 J0.032390
G03 X55.725098 Y20.860516 Z-0.125000 I-0.235021 J0.604484
G03 X56.419489 Y21.319773 Z-0.125000 I-14.689585 J22.965046
G01 X56.419489 Y21.319773 Z-0.125000
G00 Z5.000000

(End cutting path id: path1)


(Start cutting path id: path1)
(Change tool to Default tool)

G00 Z5.000000
G00 X50.121071 Y18.771859

G01 Z-0.125000 F100.0(Penetrate)
G03 X51.625883 Y19.116133 Z-0.125000 I-2.017437 J12.279034 F400.000000
G03 X52.408159 Y19.446837 Z-0.125000 I-1.066167 J3.612591
G01 X52.691593 Y19.606474 Z-0.125000
G01 X51.758360 Y22.004141 Z-0.125000
G03 X50.810167 Y24.394362 Z-0.125000 I-185.100500 J-72.045600
G03 X50.720811 Y24.571017 Z-0.125000 I-1.091652 J-0.441255
G03 X50.572210 Y24.660892 Z-0.125000 I-0.161812 J-0.099755
G03 X48.291968 Y24.740224 Z-0.125000 I-2.280242 J-32.731041
G03 X46.015688 Y24.660163 Z-0.125000 I0.000000 J-32.399345
G03 X45.877607 Y24.570185 Z-0.125000 I0.011919 J-0.169231
G03 X45.209170 Y23.076861 Z-0.125000 I11.110212 J-5.869383
G03 X44.098032 Y19.780108 Z-0.125000 I53.230279 J-19.776363
G03 X44.138196 Y19.631257 Z-0.125000 I0.139323 J-0.042251
G03 X44.520350 Y19.387300 Z-0.125000 I0.857275 J0.921607
G03 X47.250506 Y18.695199 Z-0.125000 I3.841750 J9.423776
G03 X50.121071 Y18.771859 Z-0.125000 I1.155490 J10.515343
G01 X50.121071 Y18.771859 Z-0.125000
G00 Z5.000000

(End cutting path id: path1)


(Start cutting path id: path1)
(Change tool to Default tool)

G00 Z5.000000
G00 X49.659242 Y17.719228

G01 Z-0.125000 F100.0(Penetrate)
G03 X53.653422 Y18.555844 Z-0.125000 I-2.958595 J24.077790 F400.000000
G03 X53.996666 Y19.016802 Z-0.125000 I-0.137899 J0.460958
G03 X53.980254 Y19.104253 Z-0.125000 I-0.241199 J0.000000
G03 X53.000667 Y21.576954 Z-0.125000 I-200.882272 J-78.151292
G02 X52.025106 Y24.053866 Z-0.125000 I151.294364 J61.019626
G02 X51.769094 Y24.780283 Z-0.125000 I12.746087 J4.900446
G03 X51.501890 Y25.489799 Z-0.125000 I-7.289372 J-2.340105
G03 X51.418209 Y25.588241 Z-0.125000 I-0.203930 J-0.088564
G03 X51.292447 Y25.626835 Z-0.125000 I-0.131619 J-0.204690
G03 X48.278875 Y25.663811 Z-0.125000 I-3.073462 J-127.667401
G01 X45.254853 Y25.665211 Z-0.125000
G01 X45.050931 Y25.179586 Z-0.125000
G03 X44.849742 Y24.692840 Z-0.125000 I43.284634 J-18.175971
G03 X44.345421 Y23.445212 Z-0.125000 I283.783530 J-115.437870
G03 X43.803087 Y22.059389 Z-0.125000 I77.356560 J-31.072102
G03 X43.043619 Y20.029192 Z-0.125000 I165.269691 J-62.982180
G01 X42.774331 Y19.295671 Z-0.125000
G01 X42.954323 Y19.063876 Z-0.125000
G03 X43.731657 Y18.506418 Z-0.125000 I1.328186 J1.031362
G03 X46.737188 Y17.752339 Z-0.125000 I5.780470 J16.672591
G03 X48.129169 Y17.634266 Z-0.125000 I1.500105 J9.420793
G03 X49.659242 Y17.719219 Z-0.125000 I0.130106 J11.478090
G01 X49.659242 Y17.719228 Z-0.125000
G00 Z5.000000

(End cutting path id: path1)


(Start cutting path id: path1)
(Change tool to Default tool)

G00 Z5.000000
G00 X46.508903 Y18.550274

G01 Z-0.125000 F100.0(Penetrate)
G02 X43.998342 Y19.220224 Z-0.125000 I2.659240 J15.004195 F400.000000
G02 X43.767534 Y19.538979 Z-0.125000 I0.118589 J0.328810
G02 X43.777872 Y19.604468 Z-0.125000 I0.178993 J0.005304
G02 X44.741063 Y22.267243 Z-0.125000 I308.982780 J-110.261022
G01 X45.716533 Y24.928012 Z-0.125000
G01 X48.308871 Y24.903492 Z-0.125000
G01 X50.901209 Y24.878972 Z-0.125000
G01 X51.901052 Y22.302400 Z-0.125000
G02 X52.873058 Y19.720614 Z-0.125000 I-127.423634 J-49.447058
G02 X52.900896 Y19.563157 Z-0.125000 I-0.431381 J-0.157457
G02 X52.747202 Y19.318234 Z-0.125000 I-0.271999 J-0.000000
G02 X51.122295 Y18.704039 Z-0.125000 I-4.269776 J8.839555
G02 X50.472184 Y18.585269 Z-0.125000 I-0.968032 J3.460073
G02 X48.746100 Y18.492952 Z-0.125000 I-2.174997 J24.483964
G02 X47.014122 Y18.499344 Z-0.125000 I-0.720442 J39.441719
G02 X46.508903 Y18.550272 Z-0.125000 I0.087094 J3.395404
G01 X46.508903 Y18.550274 Z-0.125000
G00 Z5.000000

(End cutting path id: path1)


(Start cutting path id: path1)
(Change tool to Default tool)

G00 Z5.000000
G00 X46.280617 Y17.582067

G01 Z-0.125000 F100.0(Penetrate)
G02 X44.730974 Y17.957766 Z-0.125000 I2.454546 J13.508010 F400.000000
G02 X43.440514 Y18.448046 Z-0.125000 I3.001188 J9.842826
G02 X42.738831 Y18.942319 Z-0.125000 I0.981006 J2.137863
G02 X42.582536 Y19.326432 Z-0.125000 I0.392820 J0.383692
G02 X43.270142 Y23.013013 Z-0.125000 I10.268911 J-0.007900
G02 X45.091213 Y25.832457 Z-0.125000 I7.674987 J-2.959418
G02 X45.157730 Y25.860618 Z-0.125000 I0.067370 J-0.066492
G02 X48.315918 Y25.861527 Z-0.125000 I1.631193 J-180.963651
G02 X51.465498 Y25.490589 Z-0.125000 I-0.123166 J-14.602566
G02 X51.955495 Y25.024564 Z-0.125000 I-0.148802 J-0.647070
G03 X52.123047 Y24.516264 Z-0.125000 I6.096572 J1.727867
G03 X52.969797 Y22.335221 Z-0.125000 I113.305824 J42.733995
G02 X54.245163 Y19.073336 Z-0.125000 I-223.836891 J-89.398364
G02 X54.270609 Y18.935631 Z-0.125000 I-0.359883 J-0.137705
G02 X53.970692 Y18.513221 Z-0.125000 I-0.447425 J0.000000
G02 X50.354966 Y17.568262 Z-0.125000 I-7.676321 J21.982195
G02 X48.330537 Y17.393831 Z-0.125000 I-1.985856 J11.212774
G02 X46.280617 Y17.582062 Z-0.125000 I0.039590 J11.687540
G01 X46.280617 Y17.582067 Z-0.125000
G00 Z5.000000

(End cutting path id: path1)


(Start cutting path id: path1)
(Change tool to Default tool)

G00 Z5.000000
G00 X40.527823 Y20.962041

G01 Z-0.125000 F100.0(Penetrate)
G02 X38.311640 Y22.694666 Z-0.125000 I14.759175 J21.161969 F400.000000
G02 X35.414228 Y25.429773 Z-0.125000 I34.055649 J38.978789
G02 X33.544962 Y27.531759 Z-0.125000 I20.566251 J20.171425
G02 X33.466225 Y27.848469 Z-0.125000 I0.301987 J0.243219
G02 X33.552567 Y27.961189 Z-0.125000 I0.156072 J-0.030121
G02 X36.230278 Y29.197808 Z-0.125000 I30.090967 J-61.640031
G02 X38.966451 Y30.356606 Z-0.125000 I56.395182 J-129.351494
G02 X39.064409 Y30.363054 Z-0.125000 I0.058568 J-0.142450
G02 X39.150603 Y30.312576 Z-0.125000 I-0.047693 J-0.180266
G02 X41.242212 Y28.116473 Z-0.125000 I-123.386909 J-119.610082
G02 X43.233838 Y25.874898 Z-0.125000 I-42.459250 J-39.730361
G02 X43.270530 Y25.711474 Z-0.125000 I-0.138693 J-0.116970
G02 X43.212510 Y25.529384 Z-0.125000 I-1.865234 J0.494035
G02 X42.284647 Y23.076307 Z-0.125000 I-340.378399 J127.344295
G02 X41.306066 Y20.676983 Z-0.125000 I-54.909831 J20.996129
G02 X41.211736 Y20.603032 Z-0.125000 I-0.115397 J0.050059
G02 X41.085375 Y20.623109 Z-0.125000 I-0.033471 J0.197031
G02 X40.527823 Y20.962041 Z-0.125000 I2.416033 J4.602493
G01 X40.527823 Y20.962041 Z-0.125000
G00 Z5.000000

(End cutting path id: path1)


(Start cutting path id: path1)
(Change tool to Default tool)

G00 Z5.000000
G00 X42.116401 Y23.342630

G01 Z-0.125000 F100.0(Penetrate)
G03 X42.954381 Y25.770828 Z-0.125000 I-40.886608 J15.468811 F400.000000
G03 X42.925325 Y25.930852 Z-0.125000 I-0.167269 J0.052278
G03 X39.878436 Y29.489299 Z-0.125000 I-40.214952 J-31.350040
G03 X39.025089 Y30.083537 Z-0.125000 I-1.831289 J-1.719958
G03 X37.220515 Y30.080915 Z-0.125000 I-0.899198 J-2.127910
G03 X33.734179 Y27.829577 Z-0.125000 I4.788239 J-11.239953
G03 X33.723274 Y27.692281 Z-0.125000 I0.068611 J-0.074531
G03 X35.124206 Y26.068613 Z-0.125000 I19.277853 J15.217092
G03 X36.838520 Y24.366929 Z-0.125000 I26.220402 J24.700641
G03 X39.066796 Y22.409184 Z-0.125000 I36.952383 J39.811693
G03 X41.051696 Y20.865543 Z-0.125000 I24.686399 J29.695190
G03 X41.172741 Y20.878779 Z-0.125000 I0.053236 J0.073256
G03 X41.188203 Y20.904281 Z-0.125000 I-0.062636 J0.055414
G03 X42.116401 Y23.342630 Z-0.125000 I-597.301824 J228.768728
G01 X42.116401 Y23.342630 Z-0.125000
G00 Z5.000000

(End cutting path id: path1)


(Start cutting path id: path1)
(Change tool to Default tool)

G00 Z5.000000
G00 X45.184847 Y26.627148

G01 Z-0.125000 F100.0(Penetrate)
G02 X44.931752 Y26.780628 Z-0.125000 I0.481287 J1.079085 F400.000000
G02 X44.271705 Y27.351640 Z-0.125000 I6.384959 J8.047520
G02 X40.916480 Y30.732641 Z-0.125000 I48.717780 J51.701688
G02 X40.142974 Y31.800990 Z-0.125000 I3.992680 J3.704972
G02 X40.089645 Y32.365470 Z-0.125000 I0.620762 J0.343405
G02 X41.178301 Y34.957855 Z-0.125000 I16.576672 J-5.436490
G02 X42.351209 Y37.167776 Z-0.125000 I114.629673 J-59.423084
G02 X42.479312 Y37.352817 Z-0.125000 I0.918133 J-0.498757
G02 X42.941769 Y37.585011 Z-0.125000 I0.512040 J-0.443190
G02 X48.335186 Y37.782722 Z-0.125000 I5.393417 J-73.465528
G02 X53.731954 Y37.482525 Z-0.125000 I-0.000000 J-48.660068
G02 X54.345706 Y37.111977 Z-0.125000 I-0.094949 J-0.850832
G02 X56.228095 Y33.754346 Z-0.125000 I-18.849224 J-12.773920
G02 X56.553464 Y32.251203 Z-0.125000 I-3.309433 J-1.503143
G02 X56.369702 Y31.734596 Z-0.125000 I-0.818043 J0.000000
G02 X53.311810 Y28.271158 Z-0.125000 I-45.033532 J36.678756
G02 X51.905662 Y26.889917 Z-0.125000 I-22.789855 J21.794439
G02 X51.576840 Y26.670337 Z-0.125000 I-0.860514 J0.932626
G02 X51.195266 Y26.576190 Z-0.125000 I-0.434973 J0.942606
G02 X48.335186 Y26.503375 Z-0.125000 I-2.829689 J54.939700
G02 X45.470614 Y26.560413 Z-0.125000 I0.040709 J74.005788
G02 X45.184847 Y26.627148 Z-0.125000 I0.030476 J0.775712
G01 X45.184847 Y26.627148 Z-0.125000
G00 Z5.000000

(End cutting path id: path1)


(Start cutting path id: path1)
(Change tool to Default tool)

G00 Z5.000000
G00 X44.242335 Y28.844355

G01 Z-0.125000 F100.0(Penetrate)
G03 X42.806821 Y30.262049 Z-0.125000 I-260.248284 J-262.083909 F400.000000
G03 X41.829050 Y31.214695 Z-0.125000 I-118.454768 J-120.600777
G02 X40.877027 Y32.175963 Z-0.125000 I21.484735 J22.230167
G02 X40.847423 Y32.250224 Z-0.125000 I0.078338 J0.074261
G02 X40.867668 Y32.331852 Z-0.125000 I0.174681 J0.000000
G02 X42.088021 Y34.597383 Z-0.125000 I144.577806 J-76.416941
G01 X43.328619 Y36.857723 Z-0.125000
G01 X48.320215 Y36.856323 Z-0.125000
G02 X53.301400 Y36.821667 Z-0.125000 I-0.105900 J-373.215502
G02 X53.409691 Y36.786953 Z-0.125000 I-0.002652 J-0.194537
G02 X55.447425 Y34.472836 Z-0.125000 I-3.669919 J-5.285845
G02 X55.712335 Y32.364383 Z-0.125000 I-2.710958 J-1.411479
G02 X54.680731 Y30.449440 Z-0.125000 I-4.057557 J0.950517
G02 X51.202472 Y27.602041 Z-0.125000 I-12.921348 J12.236013
G02 X50.893099 Y27.502777 Z-0.125000 I-0.349967 J0.558995
G02 X48.295038 Y27.422745 Z-0.125000 I-2.598061 J42.129867
G01 X45.673993 Y27.422745 Z-0.125000
G01 X44.242335 Y28.844355 Z-0.125000
G00 Z5.000000

(End cutting path id: path1)


(Start cutting path id: path1)
(Change tool to Default tool)

G00 Z5.000000
G00 X35.733828 Y32.086225

G01 Z-0.125000 F100.0(Penetrate)
G03 X38.119954 Y33.198160 Z-0.125000 I-25.302780 J57.413956 F400.000000
G03 X38.338290 Y33.367080 Z-0.125000 I-0.304475 J0.619112
G03 X38.498074 Y33.598219 Z-0.125000 I-1.005846 J0.866129
G03 X39.604538 Y35.691492 Z-0.125000 I-82.759093 J45.083930
G01 X40.686152 Y37.801487 Z-0.125000
G01 X40.104760 Y38.652019 Z-0.125000
G03 X39.523097 Y39.502365 Z-0.125000 I-1337.445275 J-914.226643
G03 X38.244968 Y41.369036 Z-0.125000 I-6456.866040 J-4419.748497
G01 X36.966569 Y43.235522 Z-0.125000
G01 X32.829007 Y43.237822 Z-0.125000
G01 X28.691445 Y43.240122 Z-0.125000
G01 X28.752285 Y42.800748 Z-0.125000
G03 X29.353385 Y39.377274 Z-0.125000 I47.548718 J6.584180
G03 X30.216339 Y35.932623 Z-0.125000 I49.002317 J10.445647
G03 X31.504289 Y31.814387 Z-0.125000 I93.412890 J26.953715
G03 X31.999605 Y30.645446 Z-0.125000 I7.974652 J2.689695
G03 X32.127626 Y30.596799 Z-0.125000 I0.091116 J0.047009
G03 X35.733827 Y32.086125 Z-0.125000 I-29.953238 J77.638353
G01 X35.733828 Y32.086225 Z-0.125000
G00 Z5.000000

(End cutting path id: path1)


(Start cutting path id: path1)
(Change tool to Default tool)

G00 Z5.000000
G00 X31.816255 Y30.405848

G01 Z-0.125000 F100.0(Penetrate)
G02 X30.486190 Y34.224980 Z-0.125000 I82.930041 J31.022685 F400.000000
G02 X29.658593 Y37.088973 Z-0.125000 I45.788193 J14.782815
G02 X28.382777 Y42.919134 Z-0.125000 I82.890973 J21.193731
G02 X28.513822 Y43.360407 Z-0.125000 I0.500711 J0.091398
G02 X28.588557 Y43.393137 Z-0.125000 I0.076061 J-0.071988
G02 X32.835965 Y43.430799 Z-0.125000 I7.076576 J-558.556591
G02 X37.084352 Y43.436143 Z-0.125000 I2.826178 J-558.004031
G02 X37.149470 Y43.404147 Z-0.125000 I-0.000211 J-0.082690
G02 X37.168254 Y43.378427 Z-0.125000 I-0.424854 J-0.329999
G02 X39.070050 Y40.603975 Z-0.125000 I-5029.841936 J-3449.831257
G01 X40.971098 Y37.828975 Z-0.125000
G01 X39.891496 Y35.701475 Z-0.125000
G02 X38.795968 Y33.583454 Z-0.125000 I-137.110554 J69.576876
G02 X38.634884 Y33.317507 Z-0.125000 I-2.312690 J1.219042
G02 X38.340755 Y33.048744 Z-0.125000 I-0.730639 J0.504272
G02 X36.808118 Y32.285984 Z-0.125000 I-8.058992 J14.272007
G03 X35.871446 Y31.877631 Z-0.125000 I128.822633 J-296.769123
G03 X33.958767 Y31.038417 Z-0.125000 I542.080597 J-1238.072295
G02 X32.043616 Y30.212563 Z-0.125000 I-58.998757 J134.184340
G02 X31.970423 Y30.197726 Z-0.125000 I-0.073193 J0.173111
G02 X31.913871 Y30.226213 Z-0.125000 I-0.000000 J0.070377
G02 X31.816255 Y30.405851 Z-0.125000 I0.589587 J0.436724
G01 X31.816255 Y30.405848 Z-0.125000
G00 Z5.000000

(End cutting path id: path1)


(Start cutting path id: path1)
(Change tool to Default tool)

G00 Z5.000000
G00 X40.377222 Y41.598347

G01 Z-0.125000 F100.0(Penetrate)
G02 X38.376868 Y44.683055 Z-0.125000 I258.626269 J169.903454 F400.000000
G02 X38.318431 Y44.814865 Z-0.125000 I0.400853 J0.256573
G02 X38.337481 Y44.944612 Z-0.125000 I0.158367 J0.043020
G02 X38.980637 Y45.878615 Z-0.125000 I10.418052 J-6.485449
G03 X39.667421 Y46.811371 Z-0.125000 I-31.628773 J24.007336
G03 X40.770021 Y48.384618 Z-0.125000 I-88.891776 J63.472228
G02 X41.874647 Y49.955762 Z-0.125000 I76.929901 J-52.913322
G02 X42.184168 Y50.352668 Z-0.125000 I5.207838 J-3.742107
G02 X42.890138 Y50.727151 Z-0.125000 I0.819734 J-0.692667
G02 X48.504310 Y51.026431 Z-0.125000 I5.630667 J-52.817780
G02 X53.939554 Y50.976742 Z-0.125000 I0.094658 J-286.938128
G02 X54.179294 Y50.920899 Z-0.125000 I-0.010977 J-0.589662
G02 X54.515703 Y50.634647 Z-0.125000 I-0.357241 J-0.760641
G02 X57.745611 Y45.706257 Z-0.125000 I-123.447203 J-84.425894
G01 X58.316826 Y44.796042 Z-0.125000
G01 X58.114398 Y44.365007 Z-0.125000
G02 X57.885487 Y43.948865 Z-0.125000 I-3.369059 J1.582215
G02 X56.118259 Y41.228347 Z-0.125000 I-146.501182 J93.231838
G01 X54.324546 Y38.522723 Z-0.125000
G01 X48.361143 Y38.522723 Z-0.125000
G01 X42.397740 Y38.522723 Z-0.125000
G01 X40.377222 Y41.598347 Z-0.125000
G00 Z5.000000

(End cutting path id: path1)


(Start cutting path id: path1)
(Change tool to Default tool)

G00 Z5.000000
G00 X43.073068 Y39.518514

G01 Z-0.125000 F100.0(Penetrate)
G02 X42.986277 Y39.602799 Z-0.125000 I0.179428 J0.271589 F400.000000
G02 X41.217223 Y42.156248 Z-0.125000 I175.543169 J123.507554
G01 X39.464244 Y44.726025 Z-0.125000
G01 X39.630777 Y44.999927 Z-0.125000
G02 X39.805057 Y45.268769 Z-0.125000 I4.739343 J-2.881433
G02 X41.479920 Y47.679525 Z-0.125000 I383.340354 J-264.536899
G01 X43.162530 Y50.085221 Z-0.125000
G01 X48.392507 Y50.085221 Z-0.125000
G01 X53.622484 Y50.085221 Z-0.125000
G01 X54.207093 Y49.229596 Z-0.125000
G03 X54.791915 Y48.374116 Z-0.125000 I1719.015828 J1174.541290
G03 X55.962793 Y46.662722 Z-0.125000 I6889.052871 J4711.858731
G02 X57.101341 Y44.937897 Z-0.125000 I-51.052852 J-34.937910
G02 X57.169510 Y44.766472 Z-0.125000 I-0.415845 J-0.264631
G02 X57.143304 Y44.594654 Z-0.125000 I-0.254709 J-0.049059
G02 X56.622881 Y43.748972 Z-0.125000 I-7.459296 J4.007393
G03 X56.041309 Y42.915998 Z-0.125000 I510.781974 J-357.241171
G03 X54.914420 Y41.297723 Z-0.125000 I1924.714799 J-1341.480234
G02 X53.771188 Y39.694729 Z-0.125000 I-69.253961 J48.181734
G02 X53.646701 Y39.563348 Z-0.125000 I-0.575591 J0.420721
G02 X53.485203 Y39.503791 Z-0.125000 I-0.167184 J0.204604
G02 X48.340562 Y39.449139 Z-0.125000 I-5.079908 J236.022732
G02 X43.185923 Y39.483790 Z-0.125000 I0.109621 J399.720313
G02 X43.073068 Y39.518509 Z-0.125000 I0.002763 J0.209761
G01 X43.073068 Y39.518514 Z-0.125000
G00 Z5.000000

(End cutting path id: path1)


(Start cutting path id: path1)
(Change tool to Default tool)

G00 Z5.000000
G00 X36.241748 Y59.412860

G01 Z-0.125000 F100.0(Penetrate)
G02 X33.180658 Y60.711316 Z-0.125000 I44.814732 J109.907540 F400.000000
G02 X33.105568 Y60.795318 Z-0.125000 I0.054968 J0.124699
G02 X33.248107 Y61.464820 Z-0.125000 I0.665453 J0.208247
G02 X36.170769 Y64.270270 Z-0.125000 I18.317005 J-16.157180
G02 X40.865706 Y67.546693 Z-0.125000 I24.866605 J-30.630486
G02 X41.810180 Y67.625230 Z-0.125000 I0.552765 J-0.929152
G02 X43.081168 Y66.493329 Z-0.125000 I-0.882631 J-2.270621
G02 X44.374241 Y62.775909 Z-0.125000 I-11.517592 J-6.089898
G02 X44.375619 Y62.473665 Z-0.125000 I-0.836652 J-0.154940
G02 X44.299341 Y62.349788 Z-0.125000 I-0.194151 J0.034127
G03 X44.169115 Y62.243053 Z-0.125000 I1.103058 J-1.478634
G03 X43.350466 Y61.496794 Z-0.125000 I53.416096 J-59.419843
G02 X39.690965 Y58.203190 Z-0.125000 I-125.816190 J136.113713
G02 X39.523359 Y58.143263 Z-0.125000 I-0.159667 J0.182215
G02 X39.347107 Y58.179173 Z-0.125000 I0.017646 J0.537096
G02 X36.241741 Y59.412860 Z-0.125000 I66.886678 J172.888498
G01 X36.241748 Y59.412860 Z-0.125000
G00 Z5.000000

(End cutting path id: path1)


(Start cutting path id: path1)
(Change tool to Default tool)

G00 Z5.000000
G00 X26.328467 Y10.899733

G01 Z-0.125000 F100.0(Penetrate)
G03 X34.954993 Y14.098301 Z-0.125000 I-105.027840 J296.491876 F400.000000
G03 X35.726537 Y14.541589 Z-0.125000 I-1.063101 J2.743409
G03 X35.989836 Y14.853440 Z-0.125000 I-0.652363 J0.817875
G03 X37.514455 Y17.776866 Z-0.125000 I-59.756130 J33.023167
G02 X39.010108 Y20.698475 Z-0.125000 I88.847483 J-43.639864
G02 X39.103001 Y20.757066 Z-0.125000 I0.097808 J-0.052135
G02 X39.221492 Y20.730599 Z-0.125000 I0.010276 J-0.232464
G02 X39.724713 Y20.430438 Z-0.125000 I-2.518482 J-4.794159
G03 X41.580300 Y19.348356 Z-0.125000 I9.368471 J13.933291
G03 X41.803357 Y19.390400 Z-0.125000 I0.083889 J0.167661
G03 X43.406290 Y22.117174 Z-0.125000 I-5.828377 J5.260739
G03 X44.043419 Y25.959802 Z-0.125000 I-11.269200 J3.842628
G03 X43.952247 Y26.206973 Z-0.125000 I-0.380633 J0.000000
G03 X41.974536 Y28.382664 Z-0.125000 I-36.054298 J-30.786779
G03 X39.216694 Y31.173028 Z-0.125000 I-131.089017 J-126.803157
G03 X39.114116 Y31.215223 Z-0.125000 I-0.102578 J-0.103587
G03 X39.057766 Y31.203930 Z-0.125000 I0.000000 J-0.146232
G03 X36.093414 Y29.953787 Z-0.125000 I176.571955 J-422.828932
G02 X33.130842 Y28.693608 Z-0.125000 I-1487.482389 J3492.828969
G02 X32.653947 Y28.492475 Z-0.125000 I-38.356487 J90.279035
G01 X32.176520 Y28.292600 Z-0.125000
G01 X32.893243 Y27.325786 Z-0.125000
G03 X35.464386 Y24.241521 Z-0.125000 I28.317343 J20.992423
G03 X37.894116 Y21.978146 Z-0.125000 I17.607181 J16.465444
G02 X38.238602 Y21.647870 Z-0.125000 I-1.805483 J-2.227955
G02 X38.318462 Y21.497387 Z-0.125000 I-0.273984 J-0.241833
G02 X38.307267 Y21.329230 Z-0.125000 I-0.260080 J-0.067136
G02 X37.336393 Y19.077886 Z-0.125000 I-52.672256 J21.379471
G02 X35.778588 Y15.870719 Z-0.125000 I-69.145438 J31.603835
G02 X35.445375 Y15.406363 Z-0.125000 I-1.736683 J0.894478
G02 X34.929245 Y15.047034 Z-0.125000 I-1.175493 J1.138105
G02 X31.670346 Y13.744107 Z-0.125000 I-20.535959 J46.637748
G03 X29.114615 Y12.819746 Z-0.125000 I401.566553 J-1114.271251
G03 X27.199969 Y12.121451 Z-0.125000 I227.254719 J-626.081054
G02 X25.283022 Y11.439201 Z-0.125000 I-37.535804 J102.431769
G02 X25.169968 Y11.420225 Z-0.125000 I-0.113054 J0.327284
G02 X25.069702 Y11.505512 Z-0.125000 I0.000000 J0.101581
G02 X24.914422 Y12.992725 Z-0.125000 I12.938483 J2.102622
G02 X25.018522 Y16.447238 Z-0.125000 I22.413933 J1.053393
G02 X25.683564 Y20.139069 Z-0.125000 I26.282492 J-2.828682
G02 X27.356410 Y24.374810 Z-0.125000 I17.437119 J-4.438339
G02 X29.718311 Y27.471818 Z-0.125000 I11.530642 J-6.344581
G02 X32.072984 Y29.247974 Z-0.125000 I8.274571 J-8.520815
G02 X35.916456 Y31.035234 Z-0.125000 I12.226449 J-21.266481
G03 X38.305648 Y32.159046 Z-0.125000 I-4.969683 J13.666979
G03 X39.203767 Y32.963846 Z-0.125000 I-1.535202 J2.616744
G03 X41.320615 Y36.390369 Z-0.125000 I-18.660065 J13.895012
G03 X41.669250 Y37.857115 Z-0.125000 I-2.911066 J1.466746
G03 X41.622683 Y38.028658 Z-0.125000 I-0.339247 J-0.000000
G03 X40.824594 Y39.298231 Z-0.125000 I-20.830533 J-12.209017
G03 X37.710861 Y43.843125 Z-0.125000 I-272.157093 J-183.117300
G03 X37.520852 Y44.034666 Z-0.125000 I-0.645242 J-0.450067
G03 X37.316892 Y44.102612 Z-0.125000 I-0.213576 J-0.301015
G03 X32.511238 Y44.165222 Z-0.125000 I-4.805654 J-184.398822
G01 X27.685628 Y44.165222 Z-0.125000
G01 X27.745368 Y43.402097 Z-0.125000
G03 X28.388991 Y39.180661 Z-0.125000 I29.113077 J2.278951
G03 X30.202877 Y32.639059 Z-0.125000 I71.947514 J16.427667
G02 X30.953724 Y30.244371 Z-0.125000 I-94.202054 J-30.851820
G02 X30.985494 Y30.027699 Z-0.125000 I-0.722969 J-0.216672
G02 X30.928782 Y29.830075 Z-0.125000 I-0.372684 J-0.000000
G02 X30.636661 Y29.469966 Z-0.125000 I-1.607189 J1.005214
G03 X28.199709 Y26.923200 Z-0.125000 I29.991771 J-31.137879
G03 X26.949091 Y25.287436 Z-0.125000 I11.065837 J-9.756308
G03 X25.583929 Y22.821126 Z-0.125000 I15.226620 J-10.039283
G03 X24.715002 Y20.392724 Z-0.125000 I13.889546 J-6.339594
G03 X24.563544 Y19.501776 Z-0.125000 I4.823768 J-1.278374
G03 X24.322434 Y15.351474 Z-0.125000 I105.283843 J-8.198562
G03 X24.206235 Y11.195646 Z-0.125000 I199.886989 J-7.668490
G03 X24.245264 Y10.957725 Z-0.125000 I0.672675 J-0.011814
G03 X24.682461 Y10.640335 Z-0.125000 I0.450509 J0.160756
G03 X26.328471 Y10.899725 Z-0.125000 I0.126637 J4.548629
G01 X26.328467 Y10.899733 Z-0.125000
G00 Z5.000000

(End cutting path id: path1)


(Start cutting path id: path1)
(Change tool to Default tool)

G00 Z5.000000
G00 X24.449322 Y10.346776

G01 Z-0.125000 F100.0(Penetrate)
G02 X24.167899 Y10.748274 Z-0.125000 I0.196093 J0.436826 F400.000000
G02 X24.084495 Y15.278023 Z-0.125000 I40.770987 J3.016340
G02 X24.495607 Y20.081872 Z-0.125000 I49.850081 J-1.846636
G02 X24.994832 Y22.045371 Z-0.125000 I8.729483 J-1.174282
G02 X26.662579 Y25.269594 Z-0.125000 I15.024618 J-5.728130
G02 X29.355661 Y28.551709 Z-0.125000 I18.271033 J-12.246037
G03 X30.642837 Y29.940205 Z-0.125000 I-18.500846 J18.441684
G03 X30.710830 Y30.124208 Z-0.125000 I-0.212412 J0.183055
G03 X30.680119 Y30.331580 Z-0.125000 I-0.732213 J-0.002477
G03 X30.066245 Y32.278973 Z-0.125000 I-66.546861 J-19.907028
G02 X28.434367 Y37.820723 Z-0.125000 I81.397375 J26.980219
G02 X27.745986 Y41.265128 Z-0.125000 I30.694414 J7.925414
G02 X27.430022 Y44.075184 Z-0.125000 I46.886685 J6.694747
G02 X27.490183 Y44.373347 Z-0.125000 I0.546171 J0.044949
G02 X27.585161 Y44.431544 Z-0.125000 I0.095949 J-0.049988
G02 X32.372944 Y44.444695 Z-0.125000 I3.449057 J-384.154900
G02 X37.124884 Y44.399179 Z-0.125000 I-1.358868 J-389.947844
G02 X37.462478 Y44.338597 Z-0.125000 I-0.016673 J-1.063826
G02 X37.739036 Y44.136469 Z-0.125000 I-0.198324 J-0.561614
G02 X39.934281 Y41.073341 Z-0.125000 I-57.475940 J-43.509353
G02 X41.761509 Y38.279523 Z-0.125000 I-83.827224 J-56.819583
G02 X41.895792 Y37.963488 Z-0.125000 I-0.906255 J-0.571612
G02 X41.879380 Y37.736011 Z-0.125000 I-0.359811 J-0.088371
G02 X41.071442 Y35.928488 Z-0.125000 I-25.877890 J10.482734
G02 X38.638003 Y32.469170 Z-0.125000 I-12.127032 J5.945143
G02 X36.144742 Y30.850321 Z-0.125000 I-4.788690 J4.645857
G03 X32.123227 Y28.944598 Z-0.125000 I8.394494 J-22.910335
G03 X29.656731 Y27.015200 Z-0.125000 I6.147799 J-10.400455
G03 X28.311010 Y25.400430 Z-0.125000 I9.121468 J-8.969804
G03 X27.154652 Y23.454412 Z-0.125000 I12.139067 J-8.529822
G03 X26.086545 Y20.687781 Z-0.125000 I14.566015 J-7.212966
G03 X25.310554 Y16.970228 Z-0.125000 I25.637123 J-7.291182
G03 X24.974738 Y12.416438 Z-0.125000 I37.192342 J-5.031999
G03 X25.244014 Y11.747969 Z-0.125000 I0.934793 J-0.011912
G03 X25.310367 Y11.731982 Z-0.125000 I0.046051 J0.045442
G03 X27.481211 Y12.487354 Z-0.125000 I-23.022144 J69.659796
G02 X29.661849 Y13.283355 Z-0.125000 I765.916545 J-2094.837440
G02 X32.081260 Y14.163803 Z-0.125000 I938.185768 J-2574.304952
G03 X34.486864 Y15.073386 Z-0.125000 I-33.909135 J93.316538
G03 X34.872752 Y15.260823 Z-0.125000 I-1.010465 J2.571243
G03 X35.211777 Y15.513546 Z-0.125000 I-0.967399 J1.651518
G03 X35.489620 Y15.836955 Z-0.125000 I-1.328229 J1.422142
G03 X37.745390 Y19.776503 Z-0.125000 I-23.453214 J16.044813
G03 X38.107997 Y21.397802 Z-0.125000 I-3.443290 J1.621299
G03 X38.084974 Y21.451503 Z-0.125000 I-0.074141 J0.000000
G03 X37.445970 Y22.028000 Z-0.125000 I-11.093270 J-11.653679
G02 X36.799207 Y22.610364 Z-0.125000 I10.967649 J12.830799
G02 X35.693045 Y23.690187 Z-0.125000 I36.641524 J38.641764
G02 X31.912234 Y27.952003 Z-0.125000 I35.277377 J35.103789
G02 X31.950843 Y28.429301 Z-0.125000 I0.275935 J0.217890
G02 X32.045589 Y28.491294 Z-0.125000 I0.237564 J-0.259677
G02 X33.953201 Y29.318327 Z-0.125000 I48.162537 J-108.476910
G03 X35.869808 Y30.132138 Z-0.125000 I-333.913839 J789.064846
G03 X37.348832 Y30.765018 Z-0.125000 I-200.524451 J470.664866
G02 X38.836024 Y31.355716 Z-0.125000 I11.357456 J-26.427002
G02 X39.087576 Y31.400227 Z-0.125000 I0.251552 J-0.688568
G02 X39.311585 Y31.312814 Z-0.125000 I-0.000000 J-0.330733
G02 X41.775254 Y28.925852 Z-0.125000 I-45.588506 J-49.518450
G02 X44.119589 Y26.408900 Z-0.125000 I-47.555789 J-46.644585
G02 X44.262282 Y26.113486 Z-0.125000 I-0.453957 J-0.401443
G02 X44.239205 Y25.740016 Z-0.125000 I-0.782583 J-0.139092
G02 X42.910809 Y21.733978 Z-0.125000 I-96.635413 J29.820895
G02 X41.896254 Y19.220104 Z-0.125000 I-30.040311 J10.662074
G02 X41.736997 Y19.148146 Z-0.125000 I-0.120627 J0.054757
G02 X40.707827 Y19.558564 Z-0.125000 I1.935832 J6.349905
G02 X39.615268 Y20.207319 Z-0.125000 I3.899447 J7.811364
G03 X39.193701 Y20.472930 Z-0.125000 I-3.067720 J-4.401608
G01 X39.156023 Y20.467696 Z-0.125000
G03 X39.127520 Y20.427782 Z-0.125000 I0.110365 J-0.108946
G03 X37.760626 Y17.660655 Z-0.125000 I549.700655 J-273.260069
G02 X36.053437 Y14.543961 Z-0.125000 I-35.602437 J17.475551
G02 X35.620038 Y14.137205 Z-0.125000 I-0.948243 J0.576083
G02 X34.255042 Y13.524917 Z-0.125000 I-5.705147 J10.891034
G02 X26.328467 Y10.631533 Z-0.125000 I-138.081816 J365.977926
G02 X24.927227 Y10.281490 Z-0.125000 I-2.548954 J7.223963
G02 X24.449323 Y10.346780 Z-0.125000 I-0.128006 J0.844739
G01 X24.449322 Y10.346776 Z-0.125000
G00 Z5.000000

(End cutting path id: path1)


(Start cutting path id: path1)
(Change tool to Default tool)

G00 Z5.000000
G00 X67.830766 Y11.597012

G01 Z-0.125000 F100.0(Penetrate)
G02 X63.998019 Y12.975333 Z-0.125000 I395.302784 J1105.251242 F400.000000
G02 X63.222257 Y13.263346 Z-0.125000 I16.472160 J45.556383
G03 X62.440635 Y13.530184 Z-0.125000 I-4.195833 J-11.012256
G03 X61.715573 Y13.719424 Z-0.125000 I-2.810619 J-9.285085
G01 X60.982202 Y13.880857 Z-0.125000
G01 X60.129561 Y15.541166 Z-0.125000
G02 X59.277337 Y17.201689 Z-0.125000 I3284.372957 J1686.668579
G02 X58.415835 Y18.882364 Z-0.125000 I3377.163849 J1732.178314
G01 X57.554752 Y20.563254 Z-0.125000
G01 X56.422814 Y19.922989 Z-0.125000
G02 X54.953717 Y19.346973 Z-0.125000 I-2.762126 J4.883218
G02 X54.598299 Y19.490849 Z-0.125000 I-0.076346 J0.322336
G02 X52.733942 Y23.282858 Z-0.125000 I15.926542 J10.184666
G02 X52.261696 Y25.993666 Z-0.125000 I7.544236 J2.710808
G02 X52.355778 Y26.246382 Z-0.125000 I0.386453 J-0.000000
G02 X54.641295 Y28.746660 Z-0.125000 I46.137378 J-39.879669
G02 X57.062284 Y31.132256 Z-0.125000 I50.025172 J-48.346101
G02 X57.327374 Y31.267147 Z-0.125000 I0.364556 J-0.388506
G02 X58.431900 Y31.168406 Z-0.125000 I0.378584 J-1.992173
G02 X63.424857 Y28.929366 Z-0.125000 I-17.675990 J-46.103195
G02 X64.708415 Y28.194742 Z-0.125000 I-7.928683 J-15.341896
G02 X64.771741 Y28.079937 Z-0.125000 I-0.072403 J-0.114805
G02 X64.263191 Y26.761069 Z-0.125000 I-1.964446 J-0.000000
G02 X59.093254 Y21.811466 Z-0.125000 I-37.327093 J33.813891
G03 X58.687081 Y21.445134 Z-0.125000 I4.223594 J-5.091282
G03 X58.659512 Y21.386461 Z-0.125000 I0.065034 J-0.066371
G03 X58.671746 Y21.319893 Z-0.125000 I0.128917 J-0.010715
G03 X59.935009 Y18.721810 Z-0.125000 I212.481553 J101.708497
G03 X61.718991 Y15.724647 Z-0.125000 I20.016905 J9.885018
G03 X62.550432 Y15.020044 Z-0.125000 I1.780134 J1.257725
G03 X63.554594 Y14.586114 Z-0.125000 I5.612735 J11.609657
G03 X67.967738 Y12.947071 Z-0.125000 I85.350867 J223.047524
G02 X68.559777 Y12.729254 Z-0.125000 I-15.762158 J-43.755952
G02 X69.200479 Y12.484018 Z-0.125000 I-19.343685 J-51.496747
G03 X69.841014 Y12.238298 Z-0.125000 I22.681246 J58.166968
G03 X70.695940 Y11.919738 Z-0.125000 I38.994089 J103.342836
G01 X71.552201 Y11.604702 Z-0.125000
G01 X71.503651 Y14.264338 Z-0.125000
G03 X71.300027 Y17.739594 Z-0.125000 I-43.222996 J-0.788944
G03 X70.937445 Y19.976474 Z-0.125000 I-18.228084 J-1.806819
G03 X70.097326 Y22.573986 Z-0.125000 I-14.776021 J-3.344421
G03 X68.809917 Y24.966267 Z-0.125000 I-13.800427 J-5.884170
G03 X67.352777 Y26.831711 Z-0.125000 I-12.546966 J-8.298890
G03 X65.732481 Y28.323915 Z-0.125000 I-9.603314 J-8.801877
G01 X65.369172 Y28.605660 Z-0.125000
G01 X65.686824 Y29.077763 Z-0.125000
G02 X66.030734 Y29.500622 Z-0.125000 I2.501092 J-1.682855
G02 X66.147839 Y29.550044 Z-0.125000 I0.117308 J-0.114509
G02 X66.633146 Y29.359385 Z-0.125000 I0.000887 J-0.710729
G02 X68.679981 Y27.191474 Z-0.125000 I-15.838883 J-17.004504
G02 X70.832967 Y23.833603 Z-0.125000 I-12.578781 J-10.434368
G02 X72.111348 Y20.048094 Z-0.125000 I-14.781455 J-7.100366
G02 X72.431378 Y17.766851 Z-0.125000 I-17.590517 J-3.630797
G02 X72.579098 Y13.840361 Z-0.125000 I-52.110257 J-3.926490
G01 X72.579098 Y10.571747 Z-0.125000
G01 X72.363525 Y10.394736 Z-0.125000
G02 X72.132813 Y10.261088 Z-0.125000 I-0.523061 J0.636984
G02 X71.906954 Y10.221524 Z-0.125000 I-0.216247 J0.570027
G02 X71.672597 Y10.261908 Z-0.125000 I0.012217 J0.771105
G02 X67.830760 Y11.597012 Z-0.125000 I72.083528 J213.619479
G01 X67.830766 Y11.597012 Z-0.125000
G00 Z5.000000

(End cutting path id: path1)


(Start cutting path id: path1)
(Change tool to Default tool)

G00 Z5.000000
G00 X72.322836 Y10.865225

G01 Z-0.125000 F100.0(Penetrate)
G03 X72.486648 Y11.851391 Z-0.125000 I-2.971135 J1.000223 F400.000000
G03 X72.347516 Y16.368974 Z-0.125000 I-64.082259 J0.287337
G03 X71.289279 Y21.955394 Z-0.125000 I-23.471659 J-1.552802
G03 X69.268579 Y26.035224 Z-0.125000 I-14.371173 J-4.577570
G03 X66.849776 Y28.998500 Z-0.125000 I-21.415511 J-15.011792
G03 X66.206276 Y29.271578 Z-0.125000 I-0.634450 J-0.600329
G03 X66.116268 Y29.233518 Z-0.125000 I0.001334 J-0.128614
G03 X65.897358 Y28.959969 Z-0.125000 I1.173941 J-1.163822
G01 X65.698917 Y28.649504 Z-0.125000
G01 X65.982922 Y28.436805 Z-0.125000
G02 X67.490645 Y27.061497 Z-0.125000 I-6.336459 J-8.460636
G02 X69.090026 Y24.996923 Z-0.125000 I-12.846326 J-11.603558
G02 X70.864113 Y20.930727 Z-0.125000 I-10.802563 J-7.133288
G02 X71.774445 Y13.989429 Z-0.125000 I-31.318266 J-7.637648
G02 X71.763005 Y11.469568 Z-0.125000 I-48.187808 J-1.041194
G02 X71.694115 Y11.372119 Z-0.125000 I-0.108060 J0.003317
G02 X71.558081 Y11.369402 Z-0.125000 I-0.071730 J0.184541
G02 X68.461829 Y12.482066 Z-0.125000 I37.599176 J109.492979
G03 X65.364754 Y13.643364 Z-0.125000 I-1275.185656 J-3396.094798
G03 X64.223855 Y14.068959 Z-0.125000 I-172.357435 J-460.299369
G02 X62.044654 Y15.048526 Z-0.125000 I6.249661 J16.817122
G02 X61.367690 Y15.589032 Z-0.125000 I1.108038 J2.081967
G02 X61.017536 Y16.093860 Z-0.125000 I2.199790 J1.899648
G02 X59.671335 Y18.690228 Z-0.125000 I57.782923 J31.607273
G02 X58.396040 Y21.326489 Z-0.125000 I236.287115 J115.930849
G02 X58.379747 Y21.398502 Z-0.125000 I0.151001 J0.072013
G02 X58.406207 Y21.462791 Z-0.125000 I0.091332 J0.000000
G02 X59.361375 Y22.389041 Z-0.125000 I23.763359 J-23.549664
G03 X60.330387 Y23.316661 Z-0.125000 I-34.038000 J36.526769
G03 X61.421733 Y24.415129 Z-0.125000 I-46.642988 J47.431945
G03 X64.302062 Y27.598016 Z-0.125000 I-44.050890 J42.758224
G03 X64.452141 Y28.008796 Z-0.125000 I-0.487132 J0.410780
G03 X64.251582 Y28.335872 Z-0.125000 I-0.366981 J0.000000
G03 X60.388660 Y30.076361 Z-0.125000 I-20.295469 J-39.887685
G03 X57.963429 Y30.953380 Z-0.125000 I-16.341618 J-41.397901
G03 X57.484239 Y31.032460 Z-0.125000 I-0.493543 J-1.499275
G03 X57.273171 Y30.950910 Z-0.125000 I-0.002888 J-0.306445
G03 X54.896029 Y28.636702 Z-0.125000 I44.783503 J-48.379367
G03 X52.588293 Y26.218204 Z-0.125000 I102.363298 J-99.985550
G03 X52.501283 Y26.067591 Z-0.125000 I0.283389 J-0.264155
G03 X52.505061 Y25.854191 Z-0.125000 I0.329180 J-0.100906
G03 X53.610875 Y22.762673 Z-0.125000 I145.462239 J50.287281
G03 X54.782467 Y19.695256 Z-0.125000 I144.332261 J53.369864
G03 X54.917866 Y19.532239 Z-0.125000 I0.315651 J0.124437
G03 X55.064691 Y19.521741 Z-0.125000 I0.083284 J0.132819
G03 X56.323074 Y20.155251 Z-0.125000 I-5.820374 J13.127956
G02 X57.568627 Y20.773660 Z-0.125000 I6.277941 J-11.080999
G02 X57.697830 Y20.746590 Z-0.125000 I0.045349 J-0.105428
G02 X57.794124 Y20.611172 Z-0.125000 I-0.456698 J-0.426699
G02 X59.248451 Y17.802724 Z-0.125000 I-200.207937 J-105.456464
G03 X61.062618 Y14.283349 Z-0.125000 I344.256888 J175.230199
G03 X61.173045 Y14.115648 Z-0.125000 I0.880686 J0.459704
G03 X61.207212 Y14.093819 Z-0.125000 I0.050158 J0.040854
G03 X61.817601 Y13.951220 Z-0.125000 I3.823213 J14.987413
G02 X62.425161 Y13.785928 Z-0.125000 I-1.160439 J-5.464652
G02 X64.676318 Y12.997471 Z-0.125000 I-25.365761 J-76.030744
G03 X66.920013 Y12.181472 Z-0.125000 I138.999197 J378.703813
G03 X68.652594 Y11.564668 Z-0.125000 I81.133998 J225.160663
G02 X70.385646 Y10.949261 Z-0.125000 I-100.362585 J-285.379578
G02 X70.981106 Y10.729834 Z-0.125000 I-12.157360 J-33.909191
G03 X71.581433 Y10.549285 Z-0.125000 I1.592774 J4.207663
G03 X71.894248 Y10.523315 Z-0.125000 I0.248825 J1.100205
G03 X72.152452 Y10.622001 Z-0.125000 I-0.025839 J0.454734
G03 X72.322836 Y10.865225 Z-0.125000 I-0.327843 J0.410952
G01 X72.322836 Y10.865225 Z-0.125000
G00 Z5.000000

(End cutting path id: path1)


(Footer)
M5
G00 X0.0000 Y0.0000
M2
(Using default footer. To add your own footer create file "footer" in the output dir.)
(end)
%